(G-CODE GENERATED BY FLATCAM v8.993 - www.flatcam.org - Version Date: 2020/06/05)

(Name: bot)
(Type: G-code from Geometry)
(Units: MM)

(Created on sexta, 31 julho 2020 at 11:10)

(This preprocessor is the default preprocessor used by FlatCAM.)
(It is made to work with MACH3 compatible motion controllers.)

(TOOL DIAMETER: 0.2657 mm)
(Feedrate_XY: 160.0 mm/min)
(Feedrate_Z: 60.0 mm/min)
(Feedrate rapids 1500.0 mm/min)

(Z_Cut: -0.2 mm)
(Z_Move: 2.0 mm)
(Z Start: None mm)
(Z End: 15.0 mm)
(Steps per circle: 64)
(Preprocessor Geometry: default)

(X range:   -0.1079 ...  123.0940  mm)
(Y range:   -0.1079 ...   89.5660  mm)

(Spindle Speed: 12000 RPM)
G21
G90
G94



G01 F160.00
G00 Z2.0000

M03 S12000
G00 X2.1140 Y4.2835
G01 F60.00
G01 Z-0.2000
G01 F160.00
G01 X2.1140 Y3.8945
G01 X2.1899 Y3.5129
G01 X2.3387 Y3.1535
G01 X2.5549 Y2.8300
G01 X2.8300 Y2.5549
G01 X3.1535 Y2.3387
G01 X3.5129 Y2.1899
G01 X3.8945 Y2.1140
G01 X4.2835 Y2.1140
G01 X4.6651 Y2.1899
G01 X5.0245 Y2.3387
G01 X5.3480 Y2.5549
G01 X5.6231 Y2.8300
G01 X5.8393 Y3.1535
G01 X5.9882 Y3.5129
G01 X6.0641 Y3.8945
G01 X6.0641 Y4.2835
G01 X5.9882 Y4.6651
G01 X5.8393 Y5.0245
G01 X5.6231 Y5.3480
G01 X5.3480 Y5.6231
G01 X5.0245 Y5.8393
G01 X4.6651 Y5.9882
G01 X4.2835 Y6.0641
G01 X3.8945 Y6.0641
G01 X3.5129 Y5.9882
G01 X3.1535 Y5.8393
G01 X2.8300 Y5.6231
G01 X2.5549 Y5.3480
G01 X2.3387 Y5.0245
G01 X2.1899 Y4.6651
G01 X2.1140 Y4.2835
G00 Z2.0000
G00 X6.6041 Y25.4185
G01 F60.00
G01 Z-0.2000
G01 F160.00
G01 X6.6065 Y25.3728
G01 X6.6142 Y25.3210
G01 X6.6269 Y25.2703
G01 X6.6422 Y25.2271
G01 X6.6472 Y25.2151
G01 X6.6640 Y25.1796
G01 X6.6701 Y25.1681
G01 X6.6938 Y25.1289
G01 X6.7209 Y25.0920
G01 X6.7271 Y25.0844
G01 X6.7601 Y25.0481
G01 X8.0442 Y23.7640
G01 X8.0442 Y21.3818
G01 X8.0452 Y21.3688
G01 X8.0481 Y21.3527
G01 X8.0519 Y21.3403
G01 X8.0569 Y21.3282
G01 X8.0631 Y21.3167
G01 X8.0723 Y21.3033
G01 X8.0808 Y21.2934
G01 X8.0902 Y21.2844
G01 X8.0979 Y21.2783
G01 X8.1087 Y21.2711
G01 X8.1202 Y21.2649
G01 X8.1323 Y21.2599
G01 X8.1447 Y21.2561
G01 X8.1543 Y21.2541
G01 X8.1640 Y21.2528
G01 X8.1770 Y21.2522
G01 X11.1770 Y21.2522
G01 X11.1900 Y21.2528
G01 X11.2061 Y21.2554
G01 X11.2218 Y21.2599
G01 X11.2338 Y21.2649
G01 X11.2453 Y21.2711
G01 X11.2562 Y21.2783
G01 X11.2662 Y21.2866
G01 X11.2776 Y21.2982
G01 X11.2837 Y21.3059
G01 X11.2910 Y21.3167
G01 X11.2957 Y21.3253
G01 X11.3010 Y21.3372
G01 X11.3050 Y21.3496
G01 X11.3079 Y21.3623
G01 X11.3092 Y21.3720
G01 X11.3099 Y21.3850
G01 X11.3099 Y24.3850
G01 X11.3095 Y24.3948
G01 X11.3079 Y24.4077
G01 X11.3050 Y24.4204
G01 X11.3021 Y24.4298
G01 X11.2971 Y24.4418
G01 X11.2926 Y24.4505
G01 X11.2856 Y24.4615
G01 X11.2797 Y24.4693
G01 X11.2710 Y24.4790
G01 X11.2613 Y24.4877
G01 X11.2481 Y24.4973
G01 X11.2367 Y24.5037
G01 X11.2248 Y24.5090
G01 X11.2093 Y24.5139
G01 X11.1933 Y24.5169
G01 X11.1803 Y24.5178
G01 X8.7980 Y24.5179
G01 X7.6701 Y25.6458
G01 X7.6701 Y37.3962
G01 X9.1358 Y38.8620
G01 X10.9470 Y38.8620
G01 X10.9928 Y38.8640
G01 X11.0057 Y38.8653
G01 X11.0446 Y38.8711
G01 X11.0574 Y38.8736
G01 X11.1017 Y38.8849
G01 X11.1510 Y38.9025
G01 X11.1925 Y38.9220
G01 X11.2040 Y38.9281
G01 X11.2432 Y38.9518
G01 X11.2826 Y38.9809
G01 X11.2901 Y38.9872
G01 X11.3239 Y39.0181
G01 X16.4039 Y44.0981
G01 X16.4348 Y44.1319
G01 X16.4431 Y44.1420
G01 X16.4702 Y44.1789
G01 X16.4971 Y44.2237
G01 X16.5168 Y44.2651
G01 X16.5218 Y44.2771
G01 X16.5371 Y44.3203
G01 X16.5484 Y44.3647
G01 X16.5509 Y44.3774
G01 X16.5575 Y44.4228
G01 X16.5601 Y44.4750
G01 X16.5601 Y54.4142
G01 X32.1228 Y69.9770
G01 X36.5820 Y69.9770
G01 X36.6343 Y69.9795
G01 X36.6860 Y69.9872
G01 X36.7367 Y69.9999
G01 X36.7799 Y70.0152
G01 X36.7890 Y70.0188
G01 X36.8333 Y70.0399
G01 X36.8782 Y70.0668
G01 X36.9202 Y70.0980
G01 X36.9589 Y70.1331
G01 X40.9603 Y74.1344
G01 X41.0318 Y74.1008
G01 X41.1210 Y74.0687
G01 X41.1335 Y74.0649
G01 X41.2255 Y74.0420
G01 X41.3193 Y74.0279
G01 X41.3323 Y74.0267
G01 X41.4270 Y74.0222
G01 X41.5282 Y74.0271
G01 X41.6221 Y74.0409
G01 X41.6349 Y74.0434
G01 X41.7268 Y74.0666
G01 X41.8223 Y74.1008
G01 X41.9139 Y74.1441
G01 X41.9953 Y74.1927
G01 X42.0062 Y74.2000
G01 X42.0771 Y74.2526
G01 X42.0847 Y74.2587
G01 X42.1573 Y74.3247
G01 X42.2212 Y74.3948
G01 X42.2294 Y74.4049
G01 X42.2858 Y74.4812
G01 X42.3379 Y74.5681
G01 X42.3786 Y74.6538
G01 X42.3836 Y74.6658
G01 X42.4133 Y74.7490
G01 X42.4163 Y74.7583
G01 X42.4386 Y74.8472
G01 X42.4411 Y74.8599
G01 X42.4549 Y74.9538
G01 X42.4597 Y75.0485
G01 X42.4598 Y75.6583
G01 X42.4554 Y75.7497
G01 X42.4541 Y75.7627
G01 X42.4400 Y75.8565
G01 X42.4171 Y75.9485
G01 X42.4133 Y75.9610
G01 X42.3812 Y76.0503
G01 X42.3379 Y76.1419
G01 X42.2858 Y76.2288
G01 X42.2294 Y76.3051
G01 X42.2212 Y76.3152
G01 X42.1573 Y76.3853
G01 X42.0872 Y76.4492
G01 X42.0771 Y76.4574
G01 X42.0035 Y76.5120
G01 X41.9953 Y76.5173
G01 X41.9139 Y76.5659
G01 X41.8282 Y76.6066
G01 X41.8162 Y76.6116
G01 X41.7330 Y76.6413
G01 X41.7205 Y76.6451
G01 X41.6285 Y76.6680
G01 X41.5282 Y76.6829
G01 X41.4270 Y76.6879
G01 X41.3258 Y76.6829
G01 X41.2255 Y76.6680
G01 X41.1335 Y76.6451
G01 X41.1210 Y76.6413
G01 X41.0378 Y76.6116
G01 X41.0258 Y76.6066
G01 X40.9401 Y76.5659
G01 X40.8532 Y76.5138
G01 X40.7718 Y76.4534
G01 X40.6990 Y76.3876
G01 X40.6922 Y76.3806
G01 X40.6329 Y76.3152
G01 X40.6246 Y76.3051
G01 X40.5682 Y76.2288
G01 X40.5161 Y76.1419
G01 X40.4754 Y76.0562
G01 X40.4704 Y76.0442
G01 X40.4386 Y75.9548
G01 X40.4147 Y75.8597
G01 X40.4129 Y75.8501
G01 X40.3991 Y75.7562
G01 X40.3942 Y75.6583
G01 X40.3942 Y75.0760
G01 X36.3612 Y71.0431
G01 X31.8988 Y71.0430
G01 X31.8498 Y71.0405
G01 X31.7980 Y71.0328
G01 X31.7473 Y71.0201
G01 X31.7041 Y71.0048
G01 X31.6921 Y70.9998
G01 X31.6566 Y70.9831
G01 X31.6451 Y70.9769
G01 X31.6059 Y70.9532
G01 X31.5638 Y70.9221
G01 X31.5251 Y70.8869
G01 X15.6501 Y55.0119
G01 X15.6150 Y54.9732
G01 X15.5856 Y54.9338
G01 X15.5803 Y54.9257
G01 X15.5601 Y54.8920
G01 X15.5540 Y54.8805
G01 X15.5345 Y54.8390
G01 X15.5169 Y54.7897
G01 X15.5042 Y54.7390
G01 X15.4981 Y54.6987
G01 X15.4962 Y54.6840
G01 X15.4940 Y54.6350
G01 X15.4940 Y44.6958
G01 X10.7262 Y39.9281
G01 X8.9118 Y39.9280
G01 X8.8693 Y39.9260
G01 X8.8563 Y39.9247
G01 X8.8110 Y39.9178
G01 X8.7666 Y39.9068
G01 X8.7541 Y39.9031
G01 X8.7110 Y39.8875
G01 X8.6637 Y39.8651
G01 X8.6189 Y39.8382
G01 X8.5820 Y39.8111
G01 X8.5719 Y39.8028
G01 X8.5381 Y39.7719
G01 X6.7578 Y37.9916
G01 X6.7292 Y37.9601
G01 X6.7209 Y37.9500
G01 X6.6938 Y37.9132
G01 X6.6701 Y37.8740
G01 X6.6640 Y37.8625
G01 X6.6445 Y37.8210
G01 X6.6269 Y37.7717
G01 X6.6142 Y37.7210
G01 X6.6073 Y37.6757
G01 X6.6060 Y37.6628
G01 X6.6040 Y37.6170
G01 X6.6041 Y25.4185
G00 Z2.0000
G00 X11.2186 Y27.4320
G01 F60.00
G01 Z-0.2000
G01 F160.00
G01 X16.5682 Y27.4320
G01 X21.8921 Y22.1081
G01 X21.9259 Y22.0772
G01 X21.9360 Y22.0689
G01 X21.9729 Y22.0418
G01 X22.0177 Y22.0149
G01 X22.0650 Y21.9925
G01 X22.1081 Y21.9770
G01 X22.1206 Y21.9732
G01 X22.1587 Y21.9636
G01 X22.1682 Y21.9616
G01 X22.2168 Y21.9545
G01 X22.2690 Y21.9520
G01 X40.4217 Y21.9520
G01 X40.4386 Y21.8852
G01 X40.4728 Y21.7898
G01 X40.5161 Y21.6981
G01 X40.5665 Y21.6139
G01 X40.5720 Y21.6059
G01 X40.6286 Y21.5298
G01 X40.6922 Y21.4594
G01 X40.7014 Y21.4502
G01 X40.7668 Y21.3909
G01 X40.7743 Y21.3846
G01 X40.8532 Y21.3262
G01 X40.9401 Y21.2741
G01 X41.0318 Y21.2308
G01 X41.1210 Y21.1987
G01 X41.1335 Y21.1949
G01 X41.2192 Y21.1734
G01 X41.2319 Y21.1709
G01 X41.3258 Y21.1571
G01 X41.4270 Y21.1522
G01 X41.5282 Y21.1571
G01 X41.6221 Y21.1709
G01 X41.6349 Y21.1734
G01 X41.7205 Y21.1949
G01 X41.7330 Y21.1987
G01 X41.8223 Y21.2308
G01 X41.9139 Y21.2741
G01 X42.0008 Y21.3262
G01 X42.0822 Y21.3866
G01 X42.1573 Y21.4547
G01 X42.2254 Y21.5298
G01 X42.2858 Y21.6112
G01 X42.3347 Y21.6925
G01 X42.3408 Y21.7040
G01 X42.3786 Y21.7838
G01 X42.3836 Y21.7958
G01 X42.4154 Y21.8852
G01 X42.4386 Y21.9772
G01 X42.4406 Y21.9867
G01 X42.4549 Y22.0838
G01 X42.4598 Y22.1818
G01 X42.4599 Y22.7850
G01 X42.4552 Y22.8830
G01 X42.4541 Y22.8927
G01 X42.4400 Y22.9865
G01 X42.4154 Y23.0848
G01 X42.3812 Y23.1803
G01 X42.3394 Y23.2690
G01 X42.3347 Y23.2776
G01 X42.2858 Y23.3588
G01 X42.2294 Y23.4351
G01 X42.2212 Y23.4452
G01 X42.1573 Y23.5153
G01 X42.0872 Y23.5792
G01 X42.0771 Y23.5874
G01 X42.0008 Y23.6438
G01 X41.9196 Y23.6927
G01 X41.9081 Y23.6988
G01 X41.8223 Y23.7392
G01 X41.7330 Y23.7713
G01 X41.7205 Y23.7751
G01 X41.6285 Y23.7980
G01 X41.5347 Y23.8121
G01 X41.5217 Y23.8134
G01 X41.4270 Y23.8179
G01 X41.3258 Y23.8129
G01 X41.2255 Y23.7980
G01 X41.1335 Y23.7751
G01 X41.1210 Y23.7713
G01 X41.0318 Y23.7392
G01 X40.9460 Y23.6988
G01 X40.9345 Y23.6927
G01 X40.8587 Y23.6473
G01 X40.8479 Y23.6400
G01 X40.7718 Y23.5834
G01 X40.6967 Y23.5153
G01 X40.6286 Y23.4402
G01 X40.5682 Y23.3588
G01 X40.5161 Y23.2719
G01 X40.4741 Y23.1833
G01 X40.4704 Y23.1742
G01 X40.4386 Y23.0848
G01 X40.4217 Y23.0181
G01 X22.4898 Y23.0181
G01 X17.1659 Y28.3419
G01 X17.1272 Y28.3771
G01 X17.0852 Y28.4082
G01 X17.0403 Y28.4351
G01 X16.9990 Y28.4548
G01 X16.9900 Y28.4587
G01 X16.9437 Y28.4751
G01 X16.8930 Y28.4878
G01 X16.8413 Y28.4955
G01 X16.7890 Y28.4981
G01 X11.2186 Y28.4981
G01 X11.1879 Y28.5838
G01 X11.1843 Y28.5929
G01 X11.1200 Y28.7289
G01 X11.1155 Y28.7376
G01 X11.0347 Y28.8722
G01 X10.9413 Y28.9983
G01 X10.9350 Y29.0058
G01 X10.8361 Y29.1149
G01 X10.8269 Y29.1241
G01 X10.7129 Y29.2272
G01 X10.5869 Y29.3208
G01 X10.5787 Y29.3262
G01 X10.4524 Y29.4018
G01 X10.4409 Y29.4080
G01 X10.3019 Y29.4736
G01 X10.1510 Y29.5276
G01 X10.0019 Y29.5651
G01 X9.9891 Y29.5676
G01 X9.8371 Y29.5900
G01 X9.6770 Y29.5979
G01 X9.5235 Y29.5905
G01 X9.5105 Y29.5892
G01 X9.3585 Y29.5665
G01 X9.2030 Y29.5276
G01 X9.0521 Y29.4736
G01 X8.9131 Y29.4080
G01 X8.9016 Y29.4018
G01 X8.7754 Y29.3262
G01 X8.7645 Y29.3189
G01 X8.6411 Y29.2272
G01 X8.5224 Y29.1196
G01 X8.4148 Y29.0009
G01 X8.3231 Y28.8775
G01 X8.3159 Y28.8667
G01 X8.2402 Y28.7404
G01 X8.2340 Y28.7289
G01 X8.1685 Y28.5899
G01 X8.1155 Y28.4421
G01 X8.1127 Y28.4327
G01 X8.0755 Y28.2836
G01 X8.0520 Y28.1251
G01 X8.0442 Y27.9650
G01 X8.0520 Y27.8050
G01 X8.0755 Y27.6465
G01 X8.1145 Y27.4910
G01 X8.1685 Y27.3401
G01 X8.2370 Y27.1953
G01 X8.3193 Y27.0578
G01 X8.4148 Y26.9291
G01 X8.5224 Y26.8104
G01 X8.6411 Y26.7028
G01 X8.7698 Y26.6073
G01 X8.9073 Y26.5250
G01 X9.0521 Y26.4565
G01 X9.1999 Y26.4035
G01 X9.2093 Y26.4007
G01 X9.3585 Y26.3635
G01 X9.5170 Y26.3400
G01 X9.6770 Y26.3322
G01 X9.8371 Y26.3400
G01 X9.9956 Y26.3635
G01 X10.1510 Y26.4025
G01 X10.3019 Y26.4565
G01 X10.4438 Y26.5235
G01 X10.4524 Y26.5282
G01 X10.5842 Y26.6073
G01 X10.7129 Y26.7028
G01 X10.8316 Y26.8104
G01 X10.9371 Y26.9266
G01 X10.9432 Y26.9343
G01 X11.0347 Y27.0578
G01 X11.1155 Y27.1924
G01 X11.1200 Y27.2011
G01 X11.1843 Y27.3372
G01 X11.1879 Y27.3462
G01 X11.2186 Y27.4320
G00 Z2.0000
G00 X11.0710 Y33.8918
G01 F60.00
G01 Z-0.2000
G01 F160.00
G01 X11.1138 Y33.8204
G01 X11.1186 Y33.8118
G01 X11.1843 Y33.6729
G01 X11.1879 Y33.6638
G01 X11.2386 Y33.5221
G01 X11.2413 Y33.5127
G01 X11.2785 Y33.3636
G01 X11.3020 Y33.2051
G01 X11.3099 Y33.0450
G01 X11.3025 Y32.8915
G01 X11.3012 Y32.8785
G01 X11.2796 Y32.7329
G01 X11.2778 Y32.7233
G01 X11.2396 Y32.5710
G01 X11.1868 Y32.4232
G01 X11.1829 Y32.4142
G01 X11.1186 Y32.2782
G01 X11.1138 Y32.2696
G01 X11.0710 Y32.1982
G01 X11.2356 Y32.0337
G01 X11.2678 Y32.0472
G01 X11.4068 Y32.2981
G01 X11.5192 Y32.6499
G01 X11.5609 Y33.0169
G01 X11.5302 Y33.3850
G01 X11.4283 Y33.7400
G01 X11.2734 Y34.0405
G01 X11.2356 Y34.0564
G01 X11.0710 Y33.8918
G00 Z2.0000
G00 X6.3604 Y37.6389
G01 F60.00
G01 Z-0.2000
G01 F160.00
G01 X6.3582 Y37.6170
G01 X6.3606 Y37.5920
G01 X6.3620 Y37.5626
G01 X6.3620 Y25.4794
G01 X6.3606 Y25.4501
G01 X6.3582 Y25.4250
G01 X6.3732 Y25.2731
G01 X6.4175 Y25.1270
G01 X6.4895 Y24.9923
G01 X6.5863 Y24.8743
G01 X6.6057 Y24.8583
G01 X6.6275 Y24.8385
G01 X7.7033 Y23.7626
G01 X7.7230 Y23.7407
G01 X7.7387 Y23.7198
G01 X7.7442 Y23.7117
G01 X7.7560 Y23.6921
G01 X7.7607 Y23.6835
G01 X7.7719 Y23.6599
G01 X7.7755 Y23.6508
G01 X7.7842 Y23.6261
G01 X7.7921 Y23.5944
G01 X7.7969 Y23.5621
G01 X7.7985 Y23.5295
G01 X7.7985 Y21.4014
G01 X7.8074 Y21.3115
G01 X7.8288 Y21.2408
G01 X7.8637 Y21.1756
G01 X7.9105 Y21.1185
G01 X7.9676 Y21.0717
G01 X8.0328 Y21.0368
G01 X8.1035 Y21.0154
G01 X8.1934 Y21.0065
G01 X11.1607 Y21.0065
G01 X11.2505 Y21.0154
G01 X11.3212 Y21.0368
G01 X11.3864 Y21.0717
G01 X11.4435 Y21.1185
G01 X11.4904 Y21.1756
G01 X11.5252 Y21.2408
G01 X11.5466 Y21.3115
G01 X11.5555 Y21.4014
G01 X11.5555 Y24.3687
G01 X11.5466 Y24.4585
G01 X11.5252 Y24.5292
G01 X11.4904 Y24.5944
G01 X11.4435 Y24.6515
G01 X11.3864 Y24.6984
G01 X11.3212 Y24.7332
G01 X11.2505 Y24.7546
G01 X11.1607 Y24.7635
G01 X9.0293 Y24.7635
G01 X8.9999 Y24.7651
G01 X8.9740 Y24.7688
G01 X8.9644 Y24.7706
G01 X8.9422 Y24.7761
G01 X8.9328 Y24.7788
G01 X8.9081 Y24.7876
G01 X8.8992 Y24.7915
G01 X8.8756 Y24.8028
G01 X8.8476 Y24.8196
G01 X8.8213 Y24.8391
G01 X8.7994 Y24.8587
G01 X8.0096 Y25.6485
G01 X7.9876 Y25.6727
G01 X7.9682 Y25.6990
G01 X7.9546 Y25.7213
G01 X7.9484 Y25.7328
G01 X7.9374 Y25.7565
G01 X7.9284 Y25.7811
G01 X7.9247 Y25.7936
G01 X7.9185 Y25.8190
G01 X7.9137 Y25.8513
G01 X7.9121 Y25.8840
G01 X7.9121 Y26.2777
G01 X7.9137 Y26.3071
G01 X7.9185 Y26.3394
G01 X7.9264 Y26.3711
G01 X7.9351 Y26.3958
G01 X7.9387 Y26.4048
G01 X7.9514 Y26.4314
G01 X7.9647 Y26.4539
G01 X7.9700 Y26.4621
G01 X7.9836 Y26.4805
G01 X7.9897 Y26.4881
G01 X8.0073 Y26.5075
G01 X8.0143 Y26.5144
G01 X8.0338 Y26.5318
G01 X8.0547 Y26.5475
G01 X8.0628 Y26.5530
G01 X8.0824 Y26.5649
G01 X8.0910 Y26.5696
G01 X8.1146 Y26.5807
G01 X8.1422 Y26.5910
G01 X8.1515 Y26.5939
G01 X8.1769 Y26.6003
G01 X8.1865 Y26.6021
G01 X8.2091 Y26.6054
G01 X8.2189 Y26.6063
G01 X8.2418 Y26.6073
G01 X8.2711 Y26.6063
G01 X8.2841 Y26.6050
G01 X8.3100 Y26.6010
G01 X8.3417 Y26.5930
G01 X8.3724 Y26.5820
G01 X8.3961 Y26.5710
G01 X8.4076 Y26.5649
G01 X8.4300 Y26.5513
G01 X8.4511 Y26.5358
G01 X8.4612 Y26.5275
G01 X8.4817 Y26.5086
G01 X8.7888 Y26.3034
G01 X9.1301 Y26.1620
G01 X9.4923 Y26.0900
G01 X9.8617 Y26.0900
G01 X10.2239 Y26.1620
G01 X10.5652 Y26.3034
G01 X10.8723 Y26.5086
G01 X11.1335 Y26.7697
G01 X11.3172 Y27.0447
G01 X11.3348 Y27.0682
G01 X11.3523 Y27.0877
G01 X11.3591 Y27.0947
G01 X11.3810 Y27.1144
G01 X11.4072 Y27.1339
G01 X11.4353 Y27.1506
G01 X11.4648 Y27.1646
G01 X11.4956 Y27.1756
G01 X11.5273 Y27.1836
G01 X11.5596 Y27.1884
G01 X11.5890 Y27.1899
G01 X16.3301 Y27.1900
G01 X16.3627 Y27.1884
G01 X16.3886 Y27.1847
G01 X16.4014 Y27.1821
G01 X16.4267 Y27.1756
G01 X16.4514 Y27.1670
G01 X16.4634 Y27.1620
G01 X16.4870 Y27.1506
G01 X16.5150 Y27.1339
G01 X16.5361 Y27.1184
G01 X16.5462 Y27.1101
G01 X16.5655 Y27.0924
G01 X21.6825 Y21.9755
G01 X21.7023 Y21.9537
G01 X21.7183 Y21.9343
G01 X21.8363 Y21.8375
G01 X21.9710 Y21.7655
G01 X22.1171 Y21.7212
G01 X22.2690 Y21.7062
G01 X22.2940 Y21.7086
G01 X22.3234 Y21.7100
G01 X40.0421 Y21.7098
G01 X40.0682 Y21.7084
G01 X40.1006 Y21.7036
G01 X40.1323 Y21.6956
G01 X40.1600 Y21.6858
G01 X40.1867 Y21.6736
G01 X40.1982 Y21.6674
G01 X40.2233 Y21.6520
G01 X40.2417 Y21.6384
G01 X40.2493 Y21.6323
G01 X40.2687 Y21.6147
G01 X40.2755 Y21.6077
G01 X40.2930 Y21.5882
G01 X40.3106 Y21.5647
G01 X40.3159 Y21.5565
G01 X40.3277 Y21.5368
G01 X40.3617 Y21.4732
G01 X40.5211 Y21.2791
G01 X40.7152 Y21.1197
G01 X40.9367 Y21.0013
G01 X41.1771 Y20.9284
G01 X41.4270 Y20.9038
G01 X41.6770 Y20.9284
G01 X41.9173 Y21.0013
G01 X42.1388 Y21.1197
G01 X42.3330 Y21.2791
G01 X42.4923 Y21.4732
G01 X42.5654 Y21.6099
G01 X42.5822 Y21.6379
G01 X42.6016 Y21.6642
G01 X42.6191 Y21.6837
G01 X42.6283 Y21.6929
G01 X42.6503 Y21.7124
G01 X42.6713 Y21.7280
G01 X42.6795 Y21.7333
G01 X42.7021 Y21.7466
G01 X42.7256 Y21.7579
G01 X42.7377 Y21.7629
G01 X42.7624 Y21.7716
G01 X42.7941 Y21.7795
G01 X42.8264 Y21.7843
G01 X42.8525 Y21.7857
G01 X42.8655 Y21.7857
G01 X42.8916 Y21.7843
G01 X42.9175 Y21.7806
G01 X42.9303 Y21.7781
G01 X42.9557 Y21.7716
G01 X42.9864 Y21.7606
G01 X43.0101 Y21.7495
G01 X43.0216 Y21.7434
G01 X43.0440 Y21.7298
G01 X43.0651 Y21.7143
G01 X43.0752 Y21.7061
G01 X43.0944 Y21.6884
G01 X43.1121 Y21.6691
G01 X43.1204 Y21.6590
G01 X43.1359 Y21.6379
G01 X43.1494 Y21.6156
G01 X43.1556 Y21.6041
G01 X43.1666 Y21.5804
G01 X43.1766 Y21.5527
G01 X43.1841 Y21.5243
G01 X43.1867 Y21.5115
G01 X43.1904 Y21.4856
G01 X43.1920 Y21.4530
G01 X43.1920 Y20.8040
G01 X43.1908 Y20.7778
G01 X43.1896 Y20.7649
G01 X43.1856 Y20.7390
G01 X43.1794 Y20.7136
G01 X43.1766 Y20.7042
G01 X43.1678 Y20.6796
G01 X43.1640 Y20.6706
G01 X43.1526 Y20.6470
G01 X43.1393 Y20.6245
G01 X43.1321 Y20.6137
G01 X43.1164 Y20.5927
G01 X43.0944 Y20.5685
G01 X40.9175 Y18.3915
G01 X40.8957 Y18.3717
G01 X40.8763 Y18.3557
G01 X40.7795 Y18.2377
G01 X40.7075 Y18.1030
G01 X40.6632 Y17.9569
G01 X40.6482 Y17.8050
G01 X40.6506 Y17.7800
G01 X40.6520 Y17.7506
G01 X40.6520 Y13.7959
G01 X40.6506 Y13.7665
G01 X40.6496 Y13.7568
G01 X40.6456 Y13.7309
G01 X40.6394 Y13.7055
G01 X40.6356 Y13.6930
G01 X40.6266 Y13.6685
G01 X40.6156 Y13.6448
G01 X40.6094 Y13.6333
G01 X40.5958 Y13.6109
G01 X40.5764 Y13.5847
G01 X40.5567 Y13.5628
G01 X40.5352 Y13.5428
G01 X40.5211 Y13.5310
G01 X40.3617 Y13.3368
G01 X40.2433 Y13.1153
G01 X40.1704 Y12.8750
G01 X40.1520 Y12.6876
G01 X40.1520 Y11.9624
G01 X40.1704 Y11.7751
G01 X40.2433 Y11.5347
G01 X40.3617 Y11.3132
G01 X40.5211 Y11.1191
G01 X40.7152 Y10.9597
G01 X40.9367 Y10.8413
G01 X41.1771 Y10.7684
G01 X41.4270 Y10.7438
G01 X41.6770 Y10.7684
G01 X41.9173 Y10.8413
G01 X42.1388 Y10.9597
G01 X42.3330 Y11.1191
G01 X42.4923 Y11.3132
G01 X42.6107 Y11.5347
G01 X42.6836 Y11.7751
G01 X42.7021 Y11.9624
G01 X42.7021 Y12.6876
G01 X42.6836 Y12.8750
G01 X42.6107 Y13.1153
G01 X42.4923 Y13.3368
G01 X42.3330 Y13.5310
G01 X42.3189 Y13.5428
G01 X42.2973 Y13.5628
G01 X42.2776 Y13.5847
G01 X42.2582 Y13.6109
G01 X42.2446 Y13.6333
G01 X42.2384 Y13.6448
G01 X42.2274 Y13.6685
G01 X42.2184 Y13.6930
G01 X42.2147 Y13.7055
G01 X42.2085 Y13.7309
G01 X42.2045 Y13.7568
G01 X42.2034 Y13.7665
G01 X42.2021 Y13.7959
G01 X42.2021 Y17.3461
G01 X42.2037 Y17.3787
G01 X42.2073 Y17.4046
G01 X42.2099 Y17.4174
G01 X42.2164 Y17.4427
G01 X42.2251 Y17.4674
G01 X42.2300 Y17.4794
G01 X42.2414 Y17.5030
G01 X42.2582 Y17.5310
G01 X42.2736 Y17.5521
G01 X42.2819 Y17.5622
G01 X42.2996 Y17.5815
G01 X44.4766 Y19.7585
G01 X44.4983 Y19.7783
G01 X44.5177 Y19.7943
G01 X44.6146 Y19.9123
G01 X44.6865 Y20.0470
G01 X44.7308 Y20.1931
G01 X44.7458 Y20.3450
G01 X44.7434 Y20.3700
G01 X44.7421 Y20.3994
G01 X44.7421 Y21.4530
G01 X44.7432 Y21.4791
G01 X44.7445 Y21.4921
G01 X44.7485 Y21.5179
G01 X44.7564 Y21.5496
G01 X44.7674 Y21.5804
G01 X44.7814 Y21.6099
G01 X44.7982 Y21.6379
G01 X44.8176 Y21.6642
G01 X44.8396 Y21.6884
G01 X44.8638 Y21.7103
G01 X44.8847 Y21.7260
G01 X44.8955 Y21.7333
G01 X44.9181 Y21.7466
G01 X44.9476 Y21.7606
G01 X44.9722 Y21.7695
G01 X44.9846 Y21.7733
G01 X45.0101 Y21.7795
G01 X45.0424 Y21.7843
G01 X45.0685 Y21.7857
G01 X45.0815 Y21.7857
G01 X45.1076 Y21.7843
G01 X45.1400 Y21.7795
G01 X45.1654 Y21.7733
G01 X45.1779 Y21.7695
G01 X45.2024 Y21.7606
G01 X45.2291 Y21.7481
G01 X45.2376 Y21.7434
G01 X45.2600 Y21.7298
G01 X45.2862 Y21.7103
G01 X45.3104 Y21.6884
G01 X45.3281 Y21.6691
G01 X45.3344 Y21.6616
G01 X45.3519 Y21.6379
G01 X45.3671 Y21.6128
G01 X45.4417 Y21.4732
G01 X45.6011 Y21.2791
G01 X45.7952 Y21.1197
G01 X46.0167 Y21.0013
G01 X46.2571 Y20.9284
G01 X46.5070 Y20.9038
G01 X46.7570 Y20.9284
G01 X46.9973 Y21.0013
G01 X47.2188 Y21.1197
G01 X47.4130 Y21.2791
G01 X47.5723 Y21.4732
G01 X47.6907 Y21.6947
G01 X47.7636 Y21.9351
G01 X47.7821 Y22.1224
G01 X47.7821 Y22.8476
G01 X47.7636 Y23.0350
G01 X47.6907 Y23.2753
G01 X47.5723 Y23.4968
G01 X47.4130 Y23.6910
G01 X47.3989 Y23.7028
G01 X47.3773 Y23.7228
G01 X47.3576 Y23.7447
G01 X47.3382 Y23.7709
G01 X47.3246 Y23.7933
G01 X47.3184 Y23.8048
G01 X47.3074 Y23.8285
G01 X47.2984 Y23.8530
G01 X47.2947 Y23.8655
G01 X47.2885 Y23.8909
G01 X47.2845 Y23.9168
G01 X47.2834 Y23.9265
G01 X47.2821 Y23.9559
G01 X47.2821 Y30.4506
G01 X47.2834 Y30.4800
G01 X47.2858 Y30.5050
G01 X47.2708 Y30.6569
G01 X47.2265 Y30.8030
G01 X47.1546 Y30.9377
G01 X47.0577 Y31.0557
G01 X47.0383 Y31.0717
G01 X47.0166 Y31.0915
G01 X44.1136 Y33.9946
G01 X44.0937 Y34.0163
G01 X44.0777 Y34.0357
G01 X43.9597 Y34.1326
G01 X43.8250 Y34.2045
G01 X43.6789 Y34.2488
G01 X43.5270 Y34.2638
G01 X43.5020 Y34.2614
G01 X43.4726 Y34.2601
G01 X42.8540 Y34.2601
G01 X42.8213 Y34.2617
G01 X42.7955 Y34.2653
G01 X42.7858 Y34.2671
G01 X42.7573 Y34.2744
G01 X42.7266 Y34.2854
G01 X42.6970 Y34.2994
G01 X42.6745 Y34.3127
G01 X42.6637 Y34.3199
G01 X42.6428 Y34.3356
G01 X42.4830 Y34.4668
G01 X42.2789 Y34.5759
G01 X42.0574 Y34.6431
G01 X41.8847 Y34.6601
G01 X40.9693 Y34.6601
G01 X40.7967 Y34.6431
G01 X40.5752 Y34.5759
G01 X40.3710 Y34.4668
G01 X40.2087 Y34.3336
G01 X40.1850 Y34.3162
G01 X40.1570 Y34.2994
G01 X40.1334 Y34.2880
G01 X40.1214 Y34.2831
G01 X40.0967 Y34.2744
G01 X40.0714 Y34.2679
G01 X40.0586 Y34.2653
G01 X40.0327 Y34.2617
G01 X40.0000 Y34.2601
G01 X36.1946 Y34.2601
G01 X36.1652 Y34.2614
G01 X36.1555 Y34.2625
G01 X36.1296 Y34.2665
G01 X36.1011 Y34.2735
G01 X36.0917 Y34.2764
G01 X36.0702 Y34.2842
G01 X36.0434 Y34.2964
G01 X36.0319 Y34.3026
G01 X36.0096 Y34.3162
G01 X35.8231 Y34.4408
G01 X35.5364 Y34.5595
G01 X35.2321 Y34.6201
G01 X34.9219 Y34.6201
G01 X34.6176 Y34.5595
G01 X34.3309 Y34.4408
G01 X34.0730 Y34.2684
G01 X33.8536 Y34.0490
G01 X33.6812 Y33.7911
G01 X33.5625 Y33.5044
G01 X33.5020 Y33.2001
G01 X33.5020 Y32.8899
G01 X33.5210 Y32.7943
G01 X33.5254 Y32.7652
G01 X33.5262 Y32.7555
G01 X33.5274 Y32.7294
G01 X33.5262 Y32.7032
G01 X33.5254 Y32.6935
G01 X33.5210 Y32.6644
G01 X33.5148 Y32.6390
G01 X33.5110 Y32.6265
G01 X33.5020 Y32.6020
G01 X33.4910 Y32.5782
G01 X33.4848 Y32.5667
G01 X33.4713 Y32.5444
G01 X33.4518 Y32.5181
G01 X33.4298 Y32.4939
G01 X29.2655 Y28.3296
G01 X29.2413 Y28.3076
G01 X29.2204 Y28.2919
G01 X29.2095 Y28.2847
G01 X29.1870 Y28.2714
G01 X29.1634 Y28.2600
G01 X29.1514 Y28.2551
G01 X29.1267 Y28.2464
G01 X29.0950 Y28.2385
G01 X29.0692 Y28.2345
G01 X29.0562 Y28.2332
G01 X29.0301 Y28.2321
G01 X24.3600 Y28.2321
G01 X24.3273 Y28.2337
G01 X24.3014 Y28.2373
G01 X24.2886 Y28.2399
G01 X24.2633 Y28.2464
G01 X24.2386 Y28.2551
G01 X24.2266 Y28.2600
G01 X24.2030 Y28.2714
G01 X24.1750 Y28.2882
G01 X24.1539 Y28.3036
G01 X24.1438 Y28.3119
G01 X24.1245 Y28.3296
G01 X20.2016 Y32.2525
G01 X20.1796 Y32.2767
G01 X20.1602 Y32.3030
G01 X20.1434 Y32.3310
G01 X20.1307 Y32.3575
G01 X20.1271 Y32.3666
G01 X20.1184 Y32.3913
G01 X20.1105 Y32.4230
G01 X20.1057 Y32.4553
G01 X20.1041 Y32.4880
G01 X20.1041 Y37.1581
G01 X20.1057 Y37.1907
G01 X20.1093 Y37.2166
G01 X20.1111 Y37.2262
G01 X20.1167 Y37.2484
G01 X20.1204 Y37.2609
G01 X20.1294 Y37.2855
G01 X20.1434 Y37.3150
G01 X20.1602 Y37.3430
G01 X20.1776 Y37.3667
G01 X20.1839 Y37.3742
G01 X20.2016 Y37.3935
G01 X21.5893 Y38.7809
G01 X21.6087 Y38.7984
G01 X21.6350 Y38.8179
G01 X21.6630 Y38.8346
G01 X21.6925 Y38.8486
G01 X21.7233 Y38.8596
G01 X21.7550 Y38.8676
G01 X21.7873 Y38.8724
G01 X21.8134 Y38.8738
G01 X53.8186 Y38.8740
G01 X53.8480 Y38.8726
G01 X53.8730 Y38.8702
G01 X54.0249 Y38.8852
G01 X54.1710 Y38.9295
G01 X54.3057 Y39.0015
G01 X54.4237 Y39.0983
G01 X54.4397 Y39.1178
G01 X54.4596 Y39.1395
G01 X67.3045 Y51.9844
G01 X67.3287 Y52.0064
G01 X67.3497 Y52.0221
G01 X67.3605 Y52.0293
G01 X67.3859 Y52.0441
G01 X67.4096 Y52.0553
G01 X67.4186 Y52.0590
G01 X67.4433 Y52.0676
G01 X67.4686 Y52.0741
G01 X67.4782 Y52.0762
G01 X67.5041 Y52.0800
G01 X67.5138 Y52.0808
G01 X67.5367 Y52.0819
G01 X67.6738 Y52.0820
G01 X67.7065 Y52.0804
G01 X67.7324 Y52.0767
G01 X67.7452 Y52.0741
G01 X67.7705 Y52.0676
G01 X67.7982 Y52.0578
G01 X67.8072 Y52.0540
G01 X67.8308 Y52.0426
G01 X67.8533 Y52.0293
G01 X67.8641 Y52.0221
G01 X67.8851 Y52.0064
G01 X67.9045 Y51.9889
G01 X67.9138 Y51.9797
G01 X67.9312 Y51.9602
G01 X67.9507 Y51.9340
G01 X67.9643 Y51.9116
G01 X67.9704 Y51.9001
G01 X67.9814 Y51.8764
G01 X67.9904 Y51.8519
G01 X67.9942 Y51.8394
G01 X68.0004 Y51.8140
G01 X68.0052 Y51.7816
G01 X68.0068 Y51.7490
G01 X68.0052 Y51.7164
G01 X68.0004 Y51.6841
G01 X67.9924 Y51.6524
G01 X67.9814 Y51.6216
G01 X67.9675 Y51.5921
G01 X67.9542 Y51.5695
G01 X67.9469 Y51.5587
G01 X67.9312 Y51.5378
G01 X67.9115 Y51.5159
G01 X67.8900 Y51.4959
G01 X67.8825 Y51.4896
G01 X67.8588 Y51.4722
G01 X67.7285 Y51.3851
G01 X67.5369 Y51.1936
G01 X67.3865 Y50.9683
G01 X67.2828 Y50.7181
G01 X67.2300 Y50.4524
G01 X67.2300 Y50.1816
G01 X67.2828 Y49.9159
G01 X67.3865 Y49.6657
G01 X67.5369 Y49.4405
G01 X67.7285 Y49.2489
G01 X67.9537 Y49.0985
G01 X68.2039 Y48.9948
G01 X68.4696 Y48.9420
G01 X68.7404 Y48.9420
G01 X69.0061 Y48.9948
G01 X69.2563 Y49.0985
G01 X69.4816 Y49.2489
G01 X69.6794 Y49.4467
G01 X69.7013 Y49.4664
G01 X69.7222 Y49.4821
G01 X69.7330 Y49.4893
G01 X69.7555 Y49.5026
G01 X69.7851 Y49.5166
G01 X69.8158 Y49.5276
G01 X69.8475 Y49.5356
G01 X69.8799 Y49.5404
G01 X69.9125 Y49.5420
G01 X71.5768 Y49.5420
G01 X71.6029 Y49.5408
G01 X71.6127 Y49.5400
G01 X71.6386 Y49.5362
G01 X71.6481 Y49.5341
G01 X71.6703 Y49.5285
G01 X71.6797 Y49.5256
G01 X71.7042 Y49.5166
G01 X71.7309 Y49.5041
G01 X71.7394 Y49.4994
G01 X71.7618 Y49.4858
G01 X71.7880 Y49.4664
G01 X71.8122 Y49.4444
G01 X71.8321 Y49.4227
G01 X71.8382 Y49.4151
G01 X71.8537 Y49.3940
G01 X71.8672 Y49.3716
G01 X71.8734 Y49.3601
G01 X71.8844 Y49.3364
G01 X71.9585 Y49.1577
G01 X72.1089 Y48.9325
G01 X72.3005 Y48.7409
G01 X72.5257 Y48.5905
G01 X72.7759 Y48.4868
G01 X73.0416 Y48.4340
G01 X73.3124 Y48.4340
G01 X73.5781 Y48.4868
G01 X73.8283 Y48.5905
G01 X74.0536 Y48.7409
G01 X74.2451 Y48.9325
G01 X74.3956 Y49.1577
G01 X74.4992 Y49.4079
G01 X74.5521 Y49.6736
G01 X74.5521 Y49.9444
G01 X74.4992 Y50.2101
G01 X74.3956 Y50.4603
G01 X74.2451 Y50.6856
G01 X74.0536 Y50.8771
G01 X73.8277 Y51.0280
G01 X73.8012 Y51.0409
G01 X73.7815 Y51.0527
G01 X73.7733 Y51.0580
G01 X73.7497 Y51.0756
G01 X73.7303 Y51.0931
G01 X73.7233 Y51.0999
G01 X73.7057 Y51.1193
G01 X73.6996 Y51.1269
G01 X73.6841 Y51.1480
G01 X73.6673 Y51.1761
G01 X73.6534 Y51.2056
G01 X73.6424 Y51.2364
G01 X73.6344 Y51.2681
G01 X73.6296 Y51.3004
G01 X73.6280 Y51.3330
G01 X73.6296 Y51.3656
G01 X73.6344 Y51.3980
G01 X73.6406 Y51.4234
G01 X73.6433 Y51.4328
G01 X73.6510 Y51.4543
G01 X73.6560 Y51.4664
G01 X73.6673 Y51.4900
G01 X73.6841 Y51.5180
G01 X73.7036 Y51.5442
G01 X73.7210 Y51.5637
G01 X73.7303 Y51.5729
G01 X73.7497 Y51.5904
G01 X73.7760 Y51.6099
G01 X73.8040 Y51.6266
G01 X73.8277 Y51.6380
G01 X74.0536 Y51.7889
G01 X74.2451 Y51.9805
G01 X74.3956 Y52.2057
G01 X74.4992 Y52.4559
G01 X74.5521 Y52.7216
G01 X74.5521 Y52.9924
G01 X74.4992 Y53.2581
G01 X74.3956 Y53.5083
G01 X74.2451 Y53.7336
G01 X74.0536 Y53.9251
G01 X73.8283 Y54.0756
G01 X73.5781 Y54.1792
G01 X73.3124 Y54.2321
G01 X73.0416 Y54.2321
G01 X72.7759 Y54.1792
G01 X72.5257 Y54.0756
G01 X72.3005 Y53.9251
G01 X72.1026 Y53.7273
G01 X72.0808 Y53.7076
G01 X72.0572 Y53.6900
G01 X72.0490 Y53.6847
G01 X72.0265 Y53.6714
G01 X72.0029 Y53.6600
G01 X71.9909 Y53.6551
G01 X71.9662 Y53.6464
G01 X71.9409 Y53.6399
G01 X71.9281 Y53.6373
G01 X71.9022 Y53.6337
G01 X71.8695 Y53.6321
G01 X67.1354 Y53.6321
G01 X67.1061 Y53.6334
G01 X67.0810 Y53.6358
G01 X66.9291 Y53.6208
G01 X66.7830 Y53.5765
G01 X66.6483 Y53.5046
G01 X66.5303 Y53.4077
G01 X66.5143 Y53.3883
G01 X66.4945 Y53.3666
G01 X53.6495 Y40.5216
G01 X53.6302 Y40.5039
G01 X53.6201 Y40.4956
G01 X53.5990 Y40.4802
G01 X53.5767 Y40.4666
G01 X53.5652 Y40.4604
G01 X53.5415 Y40.4494
G01 X53.5169 Y40.4404
G01 X53.5076 Y40.4375
G01 X53.4790 Y40.4305
G01 X53.4532 Y40.4265
G01 X53.4402 Y40.4252
G01 X53.4141 Y40.4241
G01 X21.4154 Y40.4241
G01 X21.3861 Y40.4254
G01 X21.3610 Y40.4278
G01 X21.2091 Y40.4128
G01 X21.0630 Y40.3685
G01 X20.9283 Y40.2966
G01 X20.8103 Y40.1997
G01 X20.7943 Y40.1803
G01 X20.7745 Y40.1586
G01 X18.8195 Y38.2035
G01 X18.7977 Y38.1837
G01 X18.7783 Y38.1677
G01 X18.6815 Y38.0497
G01 X18.6095 Y37.9150
G01 X18.5652 Y37.7689
G01 X18.5502 Y37.6170
G01 X18.5526 Y37.5920
G01 X18.5540 Y37.5626
G01 X18.5540 Y32.0834
G01 X18.5526 Y32.0541
G01 X18.5502 Y32.0290
G01 X18.5652 Y31.8771
G01 X18.6095 Y31.7310
G01 X18.6815 Y31.5963
G01 X18.7783 Y31.4783
G01 X18.7978 Y31.4623
G01 X18.8195 Y31.4425
G01 X23.3145 Y26.9475
G01 X23.3343 Y26.9257
G01 X23.3503 Y26.9063
G01 X23.4683 Y26.8095
G01 X23.6030 Y26.7375
G01 X23.7491 Y26.6932
G01 X23.9010 Y26.6782
G01 X23.9260 Y26.6806
G01 X23.9554 Y26.6820
G01 X29.4346 Y26.6820
G01 X29.4640 Y26.6806
G01 X29.4890 Y26.6782
G01 X29.6409 Y26.6932
G01 X29.7870 Y26.7375
G01 X29.9217 Y26.8095
G01 X30.0397 Y26.9063
G01 X30.0557 Y26.9258
G01 X30.0756 Y26.9475
G01 X34.5259 Y31.3978
G01 X34.5452 Y31.4155
G01 X34.5553 Y31.4238
G01 X34.5764 Y31.4393
G01 X34.6016 Y31.4545
G01 X34.6102 Y31.4590
G01 X34.6340 Y31.4700
G01 X34.6585 Y31.4790
G01 X34.6710 Y31.4828
G01 X34.6964 Y31.4890
G01 X34.7223 Y31.4930
G01 X34.7320 Y31.4940
G01 X34.7581 Y31.4953
G01 X34.7679 Y31.4952
G01 X34.7908 Y31.4940
G01 X34.8199 Y31.4901
G01 X34.9219 Y31.4700
G01 X35.2321 Y31.4700
G01 X35.5364 Y31.5305
G01 X35.8231 Y31.6492
G01 X36.0810 Y31.8216
G01 X36.3004 Y32.0410
G01 X36.4728 Y32.2989
G01 X36.5606 Y32.5104
G01 X36.5704 Y32.5311
G01 X36.5751 Y32.5396
G01 X36.5887 Y32.5620
G01 X36.6041 Y32.5831
G01 X36.6124 Y32.5932
G01 X36.6278 Y32.6101
G01 X36.6348 Y32.6169
G01 X36.6568 Y32.6364
G01 X36.6752 Y32.6501
G01 X36.6833 Y32.6556
G01 X36.7086 Y32.6706
G01 X36.7381 Y32.6846
G01 X36.7689 Y32.6956
G01 X36.7974 Y32.7029
G01 X36.8070 Y32.7047
G01 X36.8329 Y32.7084
G01 X36.8655 Y32.7100
G01 X40.0000 Y32.7100
G01 X40.0327 Y32.7084
G01 X40.0618 Y32.7042
G01 X40.0714 Y32.7021
G01 X40.0967 Y32.6956
G01 X40.1275 Y32.6846
G01 X40.1570 Y32.6706
G01 X40.1850 Y32.6538
G01 X40.2113 Y32.6344
G01 X40.3731 Y32.5015
G01 X40.3917 Y32.4900
G01 X40.4152 Y32.4724
G01 X40.4347 Y32.4549
G01 X40.4439 Y32.4457
G01 X40.4614 Y32.4262
G01 X40.4771 Y32.4053
G01 X40.4826 Y32.3973
G01 X40.4944 Y32.3776
G01 X40.4991 Y32.3691
G01 X40.5103 Y32.3454
G01 X40.5206 Y32.3179
G01 X40.5244 Y32.3054
G01 X40.5306 Y32.2800
G01 X40.5354 Y32.2476
G01 X40.5370 Y32.2150
G01 X40.5354 Y32.1824
G01 X40.5306 Y32.1501
G01 X40.5244 Y32.1246
G01 X40.5206 Y32.1122
G01 X40.5116 Y32.0876
G01 X40.5006 Y32.0639
G01 X40.4944 Y32.0524
G01 X40.4808 Y32.0300
G01 X40.4634 Y32.0063
G01 X40.4571 Y31.9989
G01 X40.4394 Y31.9796
G01 X40.4152 Y31.9576
G01 X40.3917 Y31.9400
G01 X40.3731 Y31.9285
G01 X40.1921 Y31.7799
G01 X40.0453 Y31.6010
G01 X39.9362 Y31.3969
G01 X39.8690 Y31.1754
G01 X39.8463 Y30.9450
G01 X39.8690 Y30.7147
G01 X39.9362 Y30.4932
G01 X40.0453 Y30.2890
G01 X40.1921 Y30.1101
G01 X40.3710 Y29.9633
G01 X40.3988 Y29.9467
G01 X40.4246 Y29.9276
G01 X40.4485 Y29.9061
G01 X40.4660 Y29.8873
G01 X40.4723 Y29.8799
G01 X40.4896 Y29.8568
G01 X40.5063 Y29.8293
G01 X40.5204 Y29.8004
G01 X40.5316 Y29.7703
G01 X40.5398 Y29.7393
G01 X40.5450 Y29.7076
G01 X40.5472 Y29.6755
G01 X40.5465 Y29.6498
G01 X40.5455 Y29.6370
G01 X40.5415 Y29.6084
G01 X40.5350 Y29.5802
G01 X40.5260 Y29.5527
G01 X40.5146 Y29.5261
G01 X40.5089 Y29.5146
G01 X40.4961 Y29.4923
G01 X40.4796 Y29.4685
G01 X40.4737 Y29.4610
G01 X40.4569 Y29.4415
G01 X40.4385 Y29.4235
G01 X40.4313 Y29.4171
G01 X40.4112 Y29.4011
G01 X40.4033 Y29.3956
G01 X40.3844 Y29.3834
G01 X40.3400 Y29.3575
G01 X40.1674 Y29.2052
G01 X40.0278 Y29.0221
G01 X39.9257 Y28.8135
G01 X39.9197 Y28.7920
G01 X40.1792 Y28.7920
G01 X40.2043 Y28.8448
G01 X40.2496 Y28.9205
G01 X40.2551 Y28.9286
G01 X40.3039 Y28.9943
G01 X40.3102 Y29.0017
G01 X40.3674 Y29.0646
G01 X40.4303 Y29.1219
G01 X40.4378 Y29.1282
G01 X40.5034 Y29.1769
G01 X40.5143 Y29.1841
G01 X40.5873 Y29.2277
G01 X40.6641 Y29.2642
G01 X40.6761 Y29.2692
G01 X40.7562 Y29.2977
G01 X40.8450 Y29.3199
G01 X40.9356 Y29.3334
G01 X41.0238 Y29.3378
G01 X41.8335 Y29.3377
G01 X41.9184 Y29.3334
G01 X42.0090 Y29.3199
G01 X42.0978 Y29.2977
G01 X42.1840 Y29.2669
G01 X42.2668 Y29.2277
G01 X42.3453 Y29.1806
G01 X42.4188 Y29.1261
G01 X42.4819 Y29.0691
G01 X42.4911 Y29.0599
G01 X42.5439 Y29.0017
G01 X42.5521 Y28.9917
G01 X42.6026 Y28.9233
G01 X42.6497 Y28.8448
G01 X42.6889 Y28.7620
G01 X42.7176 Y28.6820
G01 X42.7214 Y28.6695
G01 X42.7405 Y28.5934
G01 X42.7431 Y28.5806
G01 X42.7554 Y28.4964
G01 X42.7599 Y28.4050
G01 X42.7554 Y28.3136
G01 X42.7425 Y28.2262
G01 X42.7405 Y28.2167
G01 X42.7197 Y28.1342
G01 X42.6912 Y28.0541
G01 X42.6862 Y28.0421
G01 X42.6526 Y27.9711
G01 X42.6465 Y27.9596
G01 X42.6026 Y27.8867
G01 X42.5481 Y27.8132
G01 X42.4866 Y27.7454
G01 X42.4188 Y27.6839
G01 X42.3453 Y27.6294
G01 X42.2668 Y27.5823
G01 X42.1840 Y27.5432
G01 X42.1040 Y27.5144
G01 X42.0915 Y27.5106
G01 X42.0090 Y27.4901
G01 X41.9249 Y27.4775
G01 X41.9119 Y27.4762
G01 X41.8335 Y27.4723
G01 X41.8140 Y27.4722
G01 X41.8140 Y27.2300
G01 X41.8587 Y27.2300
G01 X42.0972 Y27.2621
G01 X42.3150 Y27.3368
G01 X42.5140 Y27.4525
G01 X42.6412 Y27.5647
G01 X42.6647 Y27.5832
G01 X42.6897 Y27.5996
G01 X42.6984 Y27.6044
G01 X42.7221 Y27.6164
G01 X42.7530 Y27.6285
G01 X42.7849 Y27.6375
G01 X42.8176 Y27.6433
G01 X42.8507 Y27.6458
G01 X42.8773 Y27.6453
G01 X42.8872 Y27.6446
G01 X42.9103 Y27.6418
G01 X42.9233 Y27.6395
G01 X42.9492 Y27.6334
G01 X42.9807 Y27.6228
G01 X43.0109 Y27.6092
G01 X43.0397 Y27.5926
G01 X43.0666 Y27.5732
G01 X43.0915 Y27.5512
G01 X43.1141 Y27.5269
G01 X43.1302 Y27.5058
G01 X43.1359 Y27.4977
G01 X43.1481 Y27.4779
G01 X43.1544 Y27.4662
G01 X43.1658 Y27.4422
G01 X43.1772 Y27.4110
G01 X43.1854 Y27.3789
G01 X43.1895 Y27.3526
G01 X43.1908 Y27.3394
G01 X43.1920 Y27.3129
G01 X43.1918 Y23.5105
G01 X43.1904 Y23.4844
G01 X43.1862 Y23.4553
G01 X43.1841 Y23.4457
G01 X43.1766 Y23.4173
G01 X43.1666 Y23.3897
G01 X43.1556 Y23.3659
G01 X43.1494 Y23.3544
G01 X43.1340 Y23.3294
G01 X43.1164 Y23.3058
G01 X43.0989 Y23.2864
G01 X43.0897 Y23.2771
G01 X43.0677 Y23.2577
G01 X43.0440 Y23.2402
G01 X43.0188 Y23.2250
G01 X42.9924 Y23.2121
G01 X42.9803 Y23.2071
G01 X42.9557 Y23.1985
G01 X42.9303 Y23.1919
G01 X42.9175 Y23.1894
G01 X42.8916 Y23.1857
G01 X42.8655 Y23.1843
G01 X42.8525 Y23.1843
G01 X42.8264 Y23.1857
G01 X42.8005 Y23.1894
G01 X42.7877 Y23.1919
G01 X42.7624 Y23.1985
G01 X42.7377 Y23.2071
G01 X42.7286 Y23.2107
G01 X42.7050 Y23.2219
G01 X42.6964 Y23.2266
G01 X42.6740 Y23.2402
G01 X42.6503 Y23.2577
G01 X42.6283 Y23.2771
G01 X42.6191 Y23.2864
G01 X42.6016 Y23.3058
G01 X42.5822 Y23.3321
G01 X42.5654 Y23.3601
G01 X42.4923 Y23.4968
G01 X42.3330 Y23.6910
G01 X42.1388 Y23.8503
G01 X41.9173 Y23.9687
G01 X41.6770 Y24.0416
G01 X41.4270 Y24.0662
G01 X41.1771 Y24.0416
G01 X40.9367 Y23.9687
G01 X40.7152 Y23.8503
G01 X40.5211 Y23.6910
G01 X40.3617 Y23.4968
G01 X40.3277 Y23.4332
G01 X40.3159 Y23.4135
G01 X40.3106 Y23.4053
G01 X40.2930 Y23.3818
G01 X40.2755 Y23.3623
G01 X40.2687 Y23.3553
G01 X40.2493 Y23.3377
G01 X40.2417 Y23.3316
G01 X40.2233 Y23.3180
G01 X40.1982 Y23.3026
G01 X40.1867 Y23.2964
G01 X40.1600 Y23.2842
G01 X40.1323 Y23.2744
G01 X40.1006 Y23.2665
G01 X40.0682 Y23.2617
G01 X40.0421 Y23.2602
G01 X22.7280 Y23.2601
G01 X22.6953 Y23.2617
G01 X22.6662 Y23.2659
G01 X22.6376 Y23.2727
G01 X22.6251 Y23.2764
G01 X22.6005 Y23.2854
G01 X22.5710 Y23.2994
G01 X22.5485 Y23.3127
G01 X22.5377 Y23.3199
G01 X22.5167 Y23.3356
G01 X22.4949 Y23.3553
G01 X17.3756 Y28.4746
G01 X17.3557 Y28.4963
G01 X17.3397 Y28.5157
G01 X17.2217 Y28.6126
G01 X17.0870 Y28.6845
G01 X16.9409 Y28.7288
G01 X16.7890 Y28.7438
G01 X16.7640 Y28.7414
G01 X16.7346 Y28.7401
G01 X11.5922 Y28.7401
G01 X11.5596 Y28.7417
G01 X11.5337 Y28.7453
G01 X11.5209 Y28.7479
G01 X11.4987 Y28.7535
G01 X11.4894 Y28.7564
G01 X11.4648 Y28.7654
G01 X11.4353 Y28.7794
G01 X11.4072 Y28.7962
G01 X11.3861 Y28.8116
G01 X11.3761 Y28.8199
G01 X11.3568 Y28.8376
G01 X11.3348 Y28.8618
G01 X11.3172 Y28.8853
G01 X11.1335 Y29.1603
G01 X10.8723 Y29.4215
G01 X10.5652 Y29.6267
G01 X10.2239 Y29.7680
G01 X9.8617 Y29.8401
G01 X9.4923 Y29.8401
G01 X9.1301 Y29.7680
G01 X8.7888 Y29.6267
G01 X8.4817 Y29.4215
G01 X8.4562 Y29.3982
G01 X8.4353 Y29.3825
G01 X8.4273 Y29.3770
G01 X8.4020 Y29.3620
G01 X8.3754 Y29.3493
G01 X8.3479 Y29.3390
G01 X8.3354 Y29.3352
G01 X8.3100 Y29.3290
G01 X8.2841 Y29.3250
G01 X8.2744 Y29.3240
G01 X8.2515 Y29.3228
G01 X8.2418 Y29.3227
G01 X8.2156 Y29.3240
G01 X8.2059 Y29.3250
G01 X8.1833 Y29.3284
G01 X8.1737 Y29.3305
G01 X8.1484 Y29.3370
G01 X8.1176 Y29.3480
G01 X8.0881 Y29.3620
G01 X8.0655 Y29.3753
G01 X8.0573 Y29.3806
G01 X8.0389 Y29.3942
G01 X8.0313 Y29.4003
G01 X8.0119 Y29.4179
G01 X8.0051 Y29.4249
G01 X7.9897 Y29.4419
G01 X7.9836 Y29.4495
G01 X7.9682 Y29.4706
G01 X7.9546 Y29.4930
G01 X7.9484 Y29.5045
G01 X7.9374 Y29.5282
G01 X7.9264 Y29.5589
G01 X7.9185 Y29.5906
G01 X7.9145 Y29.6165
G01 X7.9134 Y29.6262
G01 X7.9121 Y29.6556
G01 X7.9121 Y31.5366
G01 X7.9137 Y31.5693
G01 X7.9173 Y31.5952
G01 X7.9199 Y31.6080
G01 X7.9264 Y31.6333
G01 X7.9351 Y31.6580
G01 X7.9400 Y31.6700
G01 X7.9514 Y31.6936
G01 X7.9682 Y31.7216
G01 X7.9836 Y31.7427
G01 X7.9897 Y31.7504
G01 X8.0073 Y31.7697
G01 X8.0366 Y31.7991
G01 X8.0558 Y31.8167
G01 X8.0633 Y31.8230
G01 X8.0869 Y31.8404
G01 X8.1092 Y31.8539
G01 X8.1206 Y31.8601
G01 X8.1443 Y31.8711
G01 X8.1688 Y31.8801
G01 X8.1812 Y31.8839
G01 X8.2065 Y31.8901
G01 X8.2388 Y31.8949
G01 X8.2648 Y31.8964
G01 X8.2778 Y31.8964
G01 X8.3039 Y31.8951
G01 X8.3361 Y31.8904
G01 X8.3615 Y31.8843
G01 X8.3739 Y31.8805
G01 X8.3984 Y31.8717
G01 X8.4251 Y31.8593
G01 X8.4505 Y31.8446
G01 X8.4587 Y31.8393
G01 X8.4822 Y31.8219
G01 X8.5017 Y31.8045
G01 X8.5109 Y31.7954
G01 X8.5284 Y31.7760
G01 X8.5442 Y31.7552
G01 X8.5498 Y31.7472
G01 X8.5649 Y31.7221
G01 X8.5776 Y31.6957
G01 X8.6792 Y31.4542
G01 X8.9301 Y31.3153
G01 X9.2819 Y31.2028
G01 X9.6489 Y31.1611
G01 X10.0170 Y31.1918
G01 X10.3720 Y31.2937
G01 X10.6725 Y31.4486
G01 X10.6884 Y31.4864
G01 X10.5238 Y31.6510
G01 X10.4524 Y31.6082
G01 X10.4438 Y31.6035
G01 X10.3078 Y31.5391
G01 X10.2988 Y31.5352
G01 X10.1510 Y31.4825
G01 X10.0019 Y31.4450
G01 X9.9924 Y31.4429
G01 X9.8371 Y31.4200
G01 X9.6770 Y31.4122
G01 X9.5170 Y31.4200
G01 X9.3617 Y31.4429
G01 X9.3521 Y31.4450
G01 X9.2093 Y31.4807
G01 X9.1968 Y31.4845
G01 X9.0521 Y31.5365
G01 X8.9073 Y31.6050
G01 X8.7754 Y31.6839
G01 X8.7645 Y31.6911
G01 X8.6411 Y31.7828
G01 X8.5247 Y31.8881
G01 X8.5179 Y31.8951
G01 X8.4191 Y32.0042
G01 X8.4108 Y32.0143
G01 X8.3193 Y32.1378
G01 X8.2370 Y32.2753
G01 X8.1685 Y32.4201
G01 X8.1165 Y32.5648
G01 X8.1127 Y32.5773
G01 X8.0770 Y32.7201
G01 X8.0744 Y32.7329
G01 X8.0520 Y32.8850
G01 X8.0442 Y33.0450
G01 X8.0520 Y33.2051
G01 X8.0744 Y33.3571
G01 X8.0770 Y33.3699
G01 X8.1127 Y33.5127
G01 X8.1165 Y33.5252
G01 X8.1685 Y33.6699
G01 X8.2355 Y33.8118
G01 X8.2402 Y33.8204
G01 X8.3193 Y33.9522
G01 X8.4148 Y34.0809
G01 X8.5224 Y34.1996
G01 X8.6411 Y34.3072
G01 X8.7698 Y34.4027
G01 X8.9073 Y34.4851
G01 X9.0521 Y34.5536
G01 X9.1999 Y34.6066
G01 X9.2093 Y34.6093
G01 X9.3585 Y34.6465
G01 X9.5170 Y34.6700
G01 X9.6770 Y34.6779
G01 X9.8306 Y34.6705
G01 X9.8403 Y34.6696
G01 X9.9956 Y34.6465
G01 X10.1447 Y34.6093
G01 X10.1541 Y34.6066
G01 X10.2958 Y34.5559
G01 X10.3049 Y34.5523
G01 X10.4438 Y34.4866
G01 X10.4524 Y34.4818
G01 X10.5238 Y34.4390
G01 X10.6884 Y34.6036
G01 X10.6748 Y34.6358
G01 X10.4239 Y34.7748
G01 X10.0721 Y34.8872
G01 X9.7051 Y34.9289
G01 X9.3371 Y34.8982
G01 X8.9821 Y34.7963
G01 X8.6815 Y34.6414
G01 X8.5776 Y34.3944
G01 X8.5649 Y34.3680
G01 X8.5480 Y34.3401
G01 X8.5284 Y34.3140
G01 X8.5109 Y34.2946
G01 X8.5017 Y34.2855
G01 X8.4822 Y34.2682
G01 X8.4613 Y34.2526
G01 X8.4505 Y34.2454
G01 X8.4280 Y34.2322
G01 X8.4044 Y34.2210
G01 X8.3954 Y34.2172
G01 X8.3739 Y34.2095
G01 X8.3615 Y34.2058
G01 X8.3361 Y34.1997
G01 X8.3039 Y34.1950
G01 X8.2778 Y34.1936
G01 X8.2648 Y34.1936
G01 X8.2388 Y34.1951
G01 X8.2065 Y34.1999
G01 X8.1812 Y34.2062
G01 X8.1688 Y34.2099
G01 X8.1443 Y34.2189
G01 X8.1148 Y34.2329
G01 X8.0869 Y34.2496
G01 X8.0658 Y34.2651
G01 X8.0558 Y34.2733
G01 X8.0366 Y34.2910
G01 X8.0073 Y34.3203
G01 X7.9919 Y34.3372
G01 X7.9856 Y34.3447
G01 X7.9719 Y34.3631
G01 X7.9664 Y34.3711
G01 X7.9529 Y34.3936
G01 X7.9484 Y34.4023
G01 X7.9374 Y34.4260
G01 X7.9284 Y34.4505
G01 X7.9255 Y34.4599
G01 X7.9199 Y34.4821
G01 X7.9179 Y34.4916
G01 X7.9140 Y34.5175
G01 X7.9132 Y34.5273
G01 X7.9121 Y34.5501
G01 X7.9121 Y37.1613
G01 X7.9134 Y37.1875
G01 X7.9145 Y37.1972
G01 X7.9185 Y37.2230
G01 X7.9255 Y37.2516
G01 X7.9284 Y37.2609
G01 X7.9374 Y37.2855
G01 X7.9484 Y37.3092
G01 X7.9546 Y37.3207
G01 X7.9682 Y37.3430
G01 X7.9836 Y37.3641
G01 X7.9919 Y37.3742
G01 X8.0096 Y37.3935
G01 X9.1385 Y38.5224
G01 X9.1627 Y38.5444
G01 X9.1890 Y38.5639
G01 X9.2170 Y38.5806
G01 X9.2465 Y38.5946
G01 X9.2773 Y38.6056
G01 X9.3090 Y38.6136
G01 X9.3413 Y38.6184
G01 X9.3707 Y38.6199
G01 X10.8926 Y38.6200
G01 X10.9220 Y38.6186
G01 X10.9470 Y38.6162
G01 X11.0989 Y38.6312
G01 X11.2450 Y38.6755
G01 X11.3797 Y38.7475
G01 X11.4977 Y38.8443
G01 X11.5137 Y38.8638
G01 X11.5336 Y38.8855
G01 X16.5366 Y43.8885
G01 X16.5583 Y43.9083
G01 X16.5777 Y43.9243
G01 X16.6746 Y44.0423
G01 X16.7465 Y44.1770
G01 X16.7908 Y44.3231
G01 X16.8058 Y44.4750
G01 X16.8034 Y44.5001
G01 X16.8021 Y44.5294
G01 X16.8021 Y54.1761
G01 X16.8032 Y54.2022
G01 X16.8045 Y54.2152
G01 X16.8085 Y54.2410
G01 X16.8164 Y54.2727
G01 X16.8274 Y54.3035
G01 X16.8384 Y54.3272
G01 X16.8446 Y54.3387
G01 X16.8600 Y54.3637
G01 X16.8776 Y54.3873
G01 X16.8996 Y54.4115
G01 X32.1255 Y69.6374
G01 X32.1448 Y69.6551
G01 X32.1523 Y69.6614
G01 X32.1760 Y69.6789
G01 X32.2040 Y69.6956
G01 X32.2335 Y69.7096
G01 X32.2581 Y69.7186
G01 X32.2706 Y69.7224
G01 X32.2992 Y69.7292
G01 X32.3283 Y69.7334
G01 X32.3577 Y69.7349
G01 X36.5276 Y69.7350
G01 X36.5570 Y69.7336
G01 X36.5820 Y69.7312
G01 X36.7339 Y69.7462
G01 X36.8800 Y69.7905
G01 X37.0147 Y69.8625
G01 X37.1327 Y69.9593
G01 X37.1487 Y69.9788
G01 X37.1686 Y70.0005
G01 X40.8744 Y73.7063
G01 X40.8937 Y73.7240
G01 X40.9011 Y73.7303
G01 X40.9248 Y73.7477
G01 X40.9472 Y73.7613
G01 X40.9587 Y73.7674
G01 X40.9824 Y73.7785
G01 X41.0131 Y73.7895
G01 X41.0385 Y73.7960
G01 X41.0513 Y73.7985
G01 X41.0772 Y73.8022
G01 X41.1098 Y73.8038
G01 X41.1392 Y73.8025
G01 X41.1538 Y73.8007
G01 X41.4270 Y73.7738
G01 X41.6770 Y73.7984
G01 X41.9173 Y73.8713
G01 X42.1388 Y73.9897
G01 X42.3330 Y74.1491
G01 X42.4923 Y74.3432
G01 X42.6107 Y74.5647
G01 X42.6836 Y74.8051
G01 X42.7021 Y74.9924
G01 X42.7021 Y75.7176
G01 X42.6836 Y75.9050
G01 X42.6107 Y76.1453
G01 X42.4923 Y76.3668
G01 X42.3330 Y76.5610
G01 X42.1388 Y76.7203
G01 X41.9173 Y76.8387
G01 X41.6770 Y76.9116
G01 X41.4270 Y76.9362
G01 X41.1771 Y76.9116
G01 X40.9367 Y76.8387
G01 X40.7152 Y76.7203
G01 X40.5211 Y76.5610
G01 X40.3617 Y76.3668
G01 X40.2433 Y76.1453
G01 X40.1704 Y75.9050
G01 X40.1520 Y75.7176
G01 X40.1520 Y75.3140
G01 X40.1508 Y75.2878
G01 X40.1500 Y75.2781
G01 X40.1456 Y75.2490
G01 X40.1394 Y75.2236
G01 X40.1356 Y75.2111
G01 X40.1266 Y75.1865
G01 X40.1126 Y75.1570
G01 X40.0993 Y75.1345
G01 X40.0921 Y75.1237
G01 X40.0743 Y75.1002
G01 X40.0544 Y75.0785
G01 X36.3585 Y71.3826
G01 X36.3392 Y71.3649
G01 X36.3291 Y71.3566
G01 X36.3080 Y71.3412
G01 X36.2857 Y71.3276
G01 X36.2742 Y71.3214
G01 X36.2505 Y71.3104
G01 X36.2259 Y71.3014
G01 X36.2134 Y71.2977
G01 X36.1880 Y71.2915
G01 X36.1622 Y71.2875
G01 X36.1492 Y71.2862
G01 X36.1231 Y71.2851
G01 X31.9564 Y71.2851
G01 X31.9270 Y71.2864
G01 X31.9020 Y71.2888
G01 X31.7501 Y71.2738
G01 X31.6040 Y71.2295
G01 X31.4693 Y71.1576
G01 X31.3513 Y71.0607
G01 X31.3353 Y71.0413
G01 X31.3155 Y71.0196
G01 X15.5175 Y55.2216
G01 X15.4958 Y55.2017
G01 X15.4763 Y55.1857
G01 X15.3795 Y55.0677
G01 X15.3075 Y54.9330
G01 X15.2632 Y54.7869
G01 X15.2482 Y54.6350
G01 X15.2506 Y54.6100
G01 X15.2520 Y54.5806
G01 X15.2520 Y44.9340
G01 X15.2504 Y44.9013
G01 X15.2467 Y44.8754
G01 X15.2441 Y44.8626
G01 X15.2376 Y44.8373
G01 X15.2290 Y44.8126
G01 X15.2240 Y44.8006
G01 X15.2126 Y44.7770
G01 X15.1959 Y44.7490
G01 X15.1804 Y44.7279
G01 X15.1721 Y44.7178
G01 X15.1544 Y44.6985
G01 X10.7235 Y40.2676
G01 X10.6993 Y40.2456
G01 X10.6730 Y40.2262
G01 X10.6507 Y40.2126
G01 X10.6421 Y40.2079
G01 X10.6214 Y40.1980
G01 X10.6094 Y40.1931
G01 X10.5847 Y40.1844
G01 X10.5530 Y40.1765
G01 X10.5207 Y40.1717
G01 X10.4946 Y40.1702
G01 X8.9694 Y40.1701
G01 X8.9401 Y40.1714
G01 X8.9150 Y40.1738
G01 X8.7631 Y40.1588
G01 X8.6170 Y40.1145
G01 X8.4823 Y40.0426
G01 X8.3643 Y39.9457
G01 X8.3483 Y39.9263
G01 X8.3285 Y39.9046
G01 X6.6275 Y38.2036
G01 X6.6058 Y38.1837
G01 X6.5863 Y38.1677
G01 X6.4895 Y38.0497
G01 X6.4175 Y37.9150
G01 X6.3732 Y37.7689
G01 X6.3604 Y37.6389
G00 Z2.0000
G00 X8.8302 Y43.0810
G01 F60.00
G01 Z-0.2000
G01 F160.00
G01 X8.6657 Y42.9164
G01 X8.6792 Y42.8842
G01 X8.9301 Y42.7453
G01 X9.2819 Y42.6328
G01 X9.6489 Y42.5911
G01 X10.0170 Y42.6218
G01 X10.3720 Y42.7237
G01 X10.6725 Y42.8786
G01 X10.6884 Y42.9164
G01 X10.5238 Y43.0810
G01 X10.4524 Y43.0382
G01 X10.4438 Y43.0335
G01 X10.3078 Y42.9691
G01 X10.2988 Y42.9652
G01 X10.1510 Y42.9125
G01 X9.9988 Y42.8742
G01 X9.9891 Y42.8724
G01 X9.8435 Y42.8508
G01 X9.8306 Y42.8495
G01 X9.6770 Y42.8422
G01 X9.5170 Y42.8500
G01 X9.3585 Y42.8735
G01 X9.2093 Y42.9107
G01 X9.1999 Y42.9135
G01 X9.0582 Y42.9641
G01 X9.0492 Y42.9677
G01 X8.9102 Y43.0335
G01 X8.9016 Y43.0382
G01 X8.8302 Y43.0810
G00 Z2.0000
G00 X8.2830 Y45.3218
G01 F60.00
G01 Z-0.2000
G01 F160.00
G01 X8.1184 Y45.4864
G01 X8.0862 Y45.4728
G01 X7.9473 Y45.2219
G01 X7.8348 Y44.8701
G01 X7.7931 Y44.5031
G01 X7.8238 Y44.1351
G01 X7.9257 Y43.7801
G01 X8.0806 Y43.4795
G01 X8.1184 Y43.4637
G01 X8.2830 Y43.6282
G01 X8.2402 Y43.6996
G01 X8.2355 Y43.7082
G01 X8.1711 Y43.8442
G01 X8.1672 Y43.8532
G01 X8.1145 Y44.0010
G01 X8.0762 Y44.1533
G01 X8.0744 Y44.1629
G01 X8.0528 Y44.3085
G01 X8.0515 Y44.3215
G01 X8.0442 Y44.4750
G01 X8.0520 Y44.6351
G01 X8.0755 Y44.7936
G01 X8.1127 Y44.9427
G01 X8.1155 Y44.9521
G01 X8.1661 Y45.0938
G01 X8.1697 Y45.1029
G01 X8.2355 Y45.2418
G01 X8.2402 Y45.2504
G01 X8.2830 Y45.3218
G00 Z2.0000
G00 X8.8302 Y45.8690
G01 F60.00
G01 Z-0.2000
G01 F160.00
G01 X8.9016 Y45.9118
G01 X8.9102 Y45.9166
G01 X9.0492 Y45.9823
G01 X9.0582 Y45.9859
G01 X9.1999 Y46.0366
G01 X9.2093 Y46.0393
G01 X9.3585 Y46.0765
G01 X9.5170 Y46.1000
G01 X9.6770 Y46.1079
G01 X9.8306 Y46.1005
G01 X9.8435 Y46.0992
G01 X9.9891 Y46.0776
G01 X9.9988 Y46.0758
G01 X10.1510 Y46.0376
G01 X10.2988 Y45.9848
G01 X10.3078 Y45.9809
G01 X10.4438 Y45.9166
G01 X10.4524 Y45.9118
G01 X10.5238 Y45.8690
G01 X10.6884 Y46.0336
G01 X10.6748 Y46.0658
G01 X10.4239 Y46.2048
G01 X10.0721 Y46.3172
G01 X9.7051 Y46.3589
G01 X9.3371 Y46.3282
G01 X8.9821 Y46.2263
G01 X8.6815 Y46.0714
G01 X8.6657 Y46.0336
G01 X8.8302 Y45.8690
G00 Z2.0000
G00 X11.0710 Y45.3218
G01 F60.00
G01 Z-0.2000
G01 F160.00
G01 X11.1138 Y45.2504
G01 X11.1186 Y45.2418
G01 X11.1843 Y45.1029
G01 X11.1879 Y45.0938
G01 X11.2386 Y44.9521
G01 X11.2413 Y44.9427
G01 X11.2785 Y44.7936
G01 X11.3020 Y44.6351
G01 X11.3099 Y44.4750
G01 X11.3025 Y44.3215
G01 X11.3012 Y44.3085
G01 X11.2796 Y44.1629
G01 X11.2778 Y44.1533
G01 X11.2396 Y44.0010
G01 X11.1868 Y43.8532
G01 X11.1829 Y43.8442
G01 X11.1186 Y43.7082
G01 X11.1138 Y43.6996
G01 X11.0710 Y43.6282
G01 X11.2356 Y43.4637
G01 X11.2678 Y43.4772
G01 X11.4068 Y43.7281
G01 X11.5192 Y44.0799
G01 X11.5609 Y44.4469
G01 X11.5302 Y44.8150
G01 X11.4283 Y45.1700
G01 X11.2734 Y45.4705
G01 X11.2356 Y45.4864
G01 X11.0710 Y45.3218
G00 Z2.0000
G00 X7.3703 Y50.8315
G01 F60.00
G01 Z-0.2000
G01 F160.00
G01 X7.1314 Y50.7039
G01 X6.9220 Y50.5320
G01 X6.8872 Y50.4897
G01 X6.8674 Y50.4680
G01 X3.1760 Y46.7766
G01 X3.1543 Y46.7568
G01 X3.1120 Y46.7220
G01 X2.9402 Y46.5126
G01 X2.8125 Y46.2738
G01 X2.7339 Y46.0146
G01 X2.7073 Y45.7450
G01 X2.7126 Y45.6905
G01 X2.7140 Y45.6611
G01 X2.7140 Y17.1269
G01 X2.7126 Y17.0975
G01 X2.7073 Y17.0430
G01 X2.7339 Y16.7735
G01 X2.8125 Y16.5143
G01 X2.9402 Y16.2754
G01 X3.1120 Y16.0660
G01 X3.1543 Y16.0312
G01 X3.1760 Y16.0114
G01 X7.3754 Y11.8120
G01 X7.3952 Y11.7903
G01 X7.4300 Y11.7480
G01 X7.6394 Y11.5762
G01 X7.8783 Y11.4485
G01 X8.1375 Y11.3699
G01 X8.4070 Y11.3433
G01 X8.4615 Y11.3486
G01 X8.4909 Y11.3500
G01 X26.5946 Y11.3500
G01 X26.6273 Y11.3484
G01 X26.6532 Y11.3447
G01 X26.6660 Y11.3421
G01 X26.6882 Y11.3365
G01 X26.6975 Y11.3336
G01 X26.7221 Y11.3246
G01 X26.9976 Y11.2105
G01 X27.3019 Y11.1500
G01 X27.6121 Y11.1500
G01 X27.9164 Y11.2105
G01 X28.1920 Y11.3246
G01 X28.2165 Y11.3336
G01 X28.2290 Y11.3374
G01 X28.2576 Y11.3442
G01 X28.2867 Y11.3484
G01 X28.3161 Y11.3499
G01 X33.3690 Y11.3500
G01 X33.3951 Y11.3488
G01 X33.4049 Y11.3480
G01 X33.4340 Y11.3436
G01 X33.4594 Y11.3374
G01 X33.4719 Y11.3336
G01 X33.4964 Y11.3246
G01 X33.5201 Y11.3136
G01 X33.5316 Y11.3074
G01 X33.5540 Y11.2939
G01 X33.5802 Y11.2744
G01 X33.6044 Y11.2524
G01 X33.6221 Y11.2332
G01 X33.6304 Y11.2231
G01 X33.6459 Y11.2020
G01 X33.6626 Y11.1740
G01 X33.6740 Y11.1504
G01 X33.6790 Y11.1383
G01 X33.6885 Y11.1105
G01 X33.6956 Y11.0820
G01 X33.6996 Y11.0561
G01 X33.7008 Y11.0431
G01 X33.7020 Y11.0170
G01 X33.7020 Y10.2689
G01 X33.7006 Y10.2395
G01 X33.6953 Y10.1850
G01 X33.7219 Y9.9155
G01 X33.8005 Y9.6563
G01 X33.9282 Y9.4174
G01 X34.1000 Y9.2080
G01 X34.1423 Y9.1732
G01 X34.1640 Y9.1534
G01 X36.5854 Y6.7320
G01 X36.6052 Y6.7103
G01 X36.6400 Y6.6680
G01 X36.8494 Y6.4962
G01 X37.0883 Y6.3685
G01 X37.3475 Y6.2899
G01 X37.6170 Y6.2633
G01 X37.6715 Y6.2686
G01 X37.7009 Y6.2700
G01 X51.5031 Y6.2700
G01 X51.5325 Y6.2686
G01 X51.5870 Y6.2633
G01 X51.8566 Y6.2899
G01 X52.1158 Y6.3685
G01 X52.3546 Y6.4962
G01 X52.5640 Y6.6680
G01 X52.5988 Y6.7103
G01 X52.6187 Y6.7320
G01 X62.6600 Y16.7734
G01 X62.6817 Y16.7932
G01 X62.7240 Y16.8280
G01 X62.8959 Y17.0374
G01 X63.0235 Y17.2763
G01 X63.1022 Y17.5355
G01 X63.1287 Y17.8050
G01 X63.1234 Y17.8595
G01 X63.1221 Y17.8889
G01 X63.1221 Y20.5786
G01 X63.1232 Y20.6047
G01 X63.1245 Y20.6177
G01 X63.1285 Y20.6435
G01 X63.1364 Y20.6752
G01 X63.1474 Y20.7060
G01 X63.1584 Y20.7297
G01 X63.1646 Y20.7412
G01 X63.1764 Y20.7608
G01 X63.1819 Y20.7689
G01 X63.1976 Y20.7898
G01 X63.2151 Y20.8093
G01 X63.2243 Y20.8185
G01 X63.2438 Y20.8360
G01 X63.2700 Y20.8554
G01 X63.2981 Y20.8722
G01 X63.3216 Y20.8835
G01 X63.3337 Y20.8885
G01 X63.3584 Y20.8972
G01 X63.3869 Y20.9045
G01 X63.4159 Y20.9091
G01 X63.4256 Y20.9102
G01 X63.4550 Y20.9115
G01 X63.7307 Y20.9115
G01 X63.8205 Y20.9204
G01 X63.8912 Y20.9418
G01 X63.9564 Y20.9767
G01 X64.0135 Y21.0235
G01 X64.0604 Y21.0806
G01 X64.0952 Y21.1458
G01 X64.1166 Y21.2165
G01 X64.1255 Y21.3064
G01 X64.1255 Y25.2737
G01 X64.1166 Y25.3635
G01 X64.0952 Y25.4342
G01 X64.0604 Y25.4994
G01 X64.0135 Y25.5565
G01 X63.9564 Y25.6034
G01 X63.8912 Y25.6382
G01 X63.8205 Y25.6596
G01 X63.7307 Y25.6685
G01 X59.7634 Y25.6685
G01 X59.6735 Y25.6596
G01 X59.6028 Y25.6382
G01 X59.5376 Y25.6034
G01 X59.4805 Y25.5565
G01 X59.4337 Y25.4994
G01 X59.3988 Y25.4342
G01 X59.3774 Y25.3635
G01 X59.3685 Y25.2737
G01 X59.3685 Y21.3064
G01 X59.3774 Y21.2165
G01 X59.3988 Y21.1458
G01 X59.4337 Y21.0806
G01 X59.4805 Y21.0235
G01 X59.5376 Y20.9767
G01 X59.6028 Y20.9418
G01 X59.6735 Y20.9204
G01 X59.7634 Y20.9115
G01 X60.0390 Y20.9115
G01 X60.0684 Y20.9102
G01 X60.0975 Y20.9063
G01 X60.1072 Y20.9045
G01 X60.1357 Y20.8972
G01 X60.1603 Y20.8885
G01 X60.1724 Y20.8835
G01 X60.1960 Y20.8722
G01 X60.2240 Y20.8554
G01 X60.2502 Y20.8360
G01 X60.2697 Y20.8185
G01 X60.2767 Y20.8117
G01 X60.2943 Y20.7923
G01 X60.3004 Y20.7847
G01 X60.3159 Y20.7636
G01 X60.3294 Y20.7412
G01 X60.3342 Y20.7326
G01 X60.3453 Y20.7090
G01 X60.3490 Y20.6999
G01 X60.3566 Y20.6783
G01 X60.3641 Y20.6499
G01 X60.3667 Y20.6371
G01 X60.3704 Y20.6112
G01 X60.3720 Y20.5786
G01 X60.3720 Y18.5125
G01 X60.3704 Y18.4799
G01 X60.3667 Y18.4540
G01 X60.3641 Y18.4412
G01 X60.3576 Y18.4158
G01 X60.3490 Y18.3912
G01 X60.3453 Y18.3821
G01 X60.3341 Y18.3584
G01 X60.3193 Y18.3330
G01 X60.3121 Y18.3222
G01 X60.2964 Y18.3013
G01 X60.2744 Y18.2771
G01 X51.1150 Y9.1176
G01 X51.0957 Y9.0999
G01 X51.0856 Y9.0916
G01 X51.0645 Y9.0762
G01 X51.0365 Y9.0594
G01 X51.0129 Y9.0480
G01 X51.0009 Y9.0431
G01 X50.9762 Y9.0344
G01 X50.9445 Y9.0265
G01 X50.9122 Y9.0217
G01 X50.8795 Y9.0201
G01 X38.3245 Y9.0201
G01 X38.2919 Y9.0217
G01 X38.2660 Y9.0253
G01 X38.2532 Y9.0279
G01 X38.2247 Y9.0354
G01 X38.2001 Y9.0442
G01 X38.1911 Y9.0480
G01 X38.1675 Y9.0594
G01 X38.1450 Y9.0727
G01 X38.1342 Y9.0799
G01 X38.1133 Y9.0956
G01 X38.0891 Y9.1176
G01 X36.5496 Y10.6571
G01 X36.5276 Y10.6813
G01 X36.5082 Y10.7075
G01 X36.4914 Y10.7355
G01 X36.4800 Y10.7591
G01 X36.4762 Y10.7681
G01 X36.4664 Y10.7958
G01 X36.4585 Y10.8275
G01 X36.4537 Y10.8599
G01 X36.4521 Y10.8892
G01 X36.4521 Y11.8626
G01 X36.4534 Y11.8920
G01 X36.4573 Y11.9212
G01 X36.4591 Y11.9308
G01 X36.4664 Y11.9593
G01 X36.4751 Y11.9840
G01 X36.5915 Y12.2656
G01 X36.6521 Y12.5699
G01 X36.6521 Y12.8801
G01 X36.5915 Y13.1844
G01 X36.4728 Y13.4711
G01 X36.3004 Y13.7290
G01 X36.0810 Y13.9484
G01 X35.8231 Y14.1208
G01 X35.5364 Y14.2395
G01 X35.2321 Y14.3001
G01 X34.9219 Y14.3001
G01 X34.6176 Y14.2395
G01 X34.3421 Y14.1254
G01 X34.3175 Y14.1164
G01 X34.3082 Y14.1135
G01 X34.2860 Y14.1079
G01 X34.2732 Y14.1053
G01 X34.2473 Y14.1017
G01 X34.2146 Y14.1001
G01 X28.3161 Y14.1001
G01 X28.2867 Y14.1017
G01 X28.2576 Y14.1059
G01 X28.2290 Y14.1127
G01 X28.2165 Y14.1164
G01 X28.1920 Y14.1254
G01 X27.9164 Y14.2395
G01 X27.6121 Y14.3001
G01 X27.3019 Y14.3001
G01 X26.9976 Y14.2395
G01 X26.7221 Y14.1254
G01 X26.6975 Y14.1164
G01 X26.6882 Y14.1135
G01 X26.6660 Y14.1079
G01 X26.6532 Y14.1053
G01 X26.6273 Y14.1017
G01 X26.5946 Y14.1001
G01 X9.1145 Y14.1001
G01 X9.0819 Y14.1017
G01 X9.0560 Y14.1053
G01 X9.0432 Y14.1079
G01 X9.0147 Y14.1154
G01 X8.9901 Y14.1242
G01 X8.9811 Y14.1280
G01 X8.9575 Y14.1394
G01 X8.9350 Y14.1527
G01 X8.9242 Y14.1599
G01 X8.9033 Y14.1756
G01 X8.8791 Y14.1976
G01 X5.5616 Y17.5151
G01 X5.5396 Y17.5393
G01 X5.5239 Y17.5602
G01 X5.5184 Y17.5682
G01 X5.5066 Y17.5879
G01 X5.5004 Y17.5994
G01 X5.4894 Y17.6231
G01 X5.4784 Y17.6538
G01 X5.4705 Y17.6855
G01 X5.4660 Y17.7146
G01 X5.4652 Y17.7244
G01 X5.4641 Y17.7505
G01 X5.4641 Y45.0375
G01 X5.4657 Y45.0702
G01 X5.4705 Y45.1025
G01 X5.4784 Y45.1342
G01 X5.4871 Y45.1589
G01 X5.4920 Y45.1709
G01 X5.5034 Y45.1945
G01 X5.5202 Y45.2225
G01 X5.5396 Y45.2488
G01 X5.5616 Y45.2730
G01 X7.8743 Y47.5856
G01 X7.8985 Y47.6076
G01 X7.9247 Y47.6271
G01 X7.9527 Y47.6439
G01 X7.9793 Y47.6565
G01 X7.9884 Y47.6602
G01 X8.0130 Y47.6688
G01 X8.0447 Y47.6768
G01 X8.0771 Y47.6816
G01 X8.1097 Y47.6832
G01 X8.1391 Y47.6818
G01 X8.1934 Y47.6765
G01 X11.1607 Y47.6765
G01 X11.2505 Y47.6854
G01 X11.3212 Y47.7068
G01 X11.3864 Y47.7417
G01 X11.4435 Y47.7885
G01 X11.4904 Y47.8456
G01 X11.5252 Y47.9108
G01 X11.5466 Y47.9815
G01 X11.5555 Y48.0714
G01 X11.5555 Y51.0387
G01 X11.5466 Y51.1285
G01 X11.5252 Y51.1992
G01 X11.4904 Y51.2644
G01 X11.4435 Y51.3215
G01 X11.3864 Y51.3684
G01 X11.3212 Y51.4032
G01 X11.2853 Y51.4141
G01 X11.2576 Y51.4242
G01 X11.2281 Y51.4381
G01 X11.2028 Y51.4532
G01 X11.1789 Y51.4704
G01 X11.1689 Y51.4787
G01 X11.1496 Y51.4963
G01 X11.1276 Y51.5206
G01 X11.1082 Y51.5468
G01 X11.0946 Y51.5691
G01 X11.0884 Y51.5806
G01 X11.0787 Y51.6014
G01 X11.0751 Y51.6104
G01 X11.0664 Y51.6351
G01 X11.0585 Y51.6668
G01 X11.0537 Y51.6991
G01 X11.0522 Y51.7253
G01 X11.0521 Y56.4675
G01 X11.0532 Y56.4937
G01 X11.0545 Y56.5066
G01 X11.0585 Y56.5325
G01 X11.0664 Y56.5642
G01 X11.0751 Y56.5889
G01 X11.0800 Y56.6009
G01 X11.0914 Y56.6245
G01 X11.1064 Y56.6498
G01 X11.1119 Y56.6578
G01 X11.1276 Y56.6788
G01 X11.1496 Y56.7030
G01 X27.8195 Y73.3729
G01 X27.8388 Y73.3906
G01 X27.8489 Y73.3989
G01 X27.8700 Y73.4143
G01 X27.8980 Y73.4311
G01 X27.9275 Y73.4451
G01 X28.1920 Y73.5546
G01 X28.2165 Y73.5636
G01 X28.2290 Y73.5674
G01 X28.2576 Y73.5742
G01 X28.2867 Y73.5784
G01 X28.3161 Y73.5799
G01 X34.2146 Y73.5800
G01 X34.2473 Y73.5784
G01 X34.2732 Y73.5747
G01 X34.2828 Y73.5729
G01 X34.3050 Y73.5674
G01 X34.3175 Y73.5636
G01 X34.3421 Y73.5546
G01 X34.6176 Y73.4405
G01 X34.9219 Y73.3800
G01 X35.2321 Y73.3800
G01 X35.5364 Y73.4405
G01 X35.8231 Y73.5592
G01 X36.0810 Y73.7316
G01 X36.3004 Y73.9510
G01 X36.4728 Y74.2089
G01 X36.5915 Y74.4956
G01 X36.6521 Y74.7999
G01 X36.6521 Y75.1101
G01 X36.5915 Y75.4144
G01 X36.4751 Y75.6960
G01 X36.4664 Y75.7207
G01 X36.4591 Y75.7492
G01 X36.4573 Y75.7588
G01 X36.4534 Y75.7880
G01 X36.4521 Y75.8174
G01 X36.4521 Y76.7908
G01 X36.4532 Y76.8137
G01 X36.4540 Y76.8234
G01 X36.4579 Y76.8493
G01 X36.4599 Y76.8589
G01 X36.4664 Y76.8842
G01 X36.4751 Y76.9089
G01 X36.4787 Y76.9179
G01 X36.4884 Y76.9387
G01 X36.4946 Y76.9502
G01 X36.5064 Y76.9698
G01 X36.5119 Y76.9778
G01 X36.5276 Y76.9988
G01 X36.5496 Y77.0230
G01 X38.0914 Y78.5647
G01 X38.1133 Y78.5844
G01 X38.1342 Y78.6001
G01 X38.1450 Y78.6073
G01 X38.1675 Y78.6206
G01 X38.1911 Y78.6320
G01 X38.2032 Y78.6370
G01 X38.2278 Y78.6456
G01 X38.2563 Y78.6529
G01 X38.2660 Y78.6547
G01 X38.2919 Y78.6584
G01 X38.3245 Y78.6600
G01 X51.6415 Y78.6600
G01 X51.6742 Y78.6584
G01 X51.7001 Y78.6547
G01 X51.7129 Y78.6521
G01 X51.7413 Y78.6446
G01 X51.7659 Y78.6358
G01 X51.7749 Y78.6320
G01 X51.7985 Y78.6206
G01 X51.8210 Y78.6073
G01 X51.8292 Y78.6020
G01 X51.8502 Y78.5864
G01 X51.8577 Y78.5801
G01 X51.8746 Y78.5647
G01 X53.9244 Y76.5150
G01 X53.9421 Y76.4957
G01 X53.9504 Y76.4856
G01 X53.9659 Y76.4645
G01 X53.9794 Y76.4422
G01 X53.9856 Y76.4307
G01 X53.9966 Y76.4069
G01 X54.0056 Y76.3824
G01 X54.0085 Y76.3731
G01 X54.0156 Y76.3445
G01 X54.0196 Y76.3186
G01 X54.0208 Y76.3057
G01 X54.0220 Y76.2795
G01 X54.0220 Y70.5889
G01 X54.0206 Y70.5595
G01 X54.0153 Y70.5050
G01 X54.0419 Y70.2355
G01 X54.1205 Y69.9763
G01 X54.2482 Y69.7374
G01 X54.4200 Y69.5280
G01 X54.4623 Y69.4932
G01 X54.4840 Y69.4734
G01 X59.2710 Y64.6864
G01 X59.2930 Y64.6622
G01 X59.3124 Y64.6359
G01 X59.3292 Y64.6079
G01 X59.3406 Y64.5843
G01 X59.3455 Y64.5723
G01 X59.3542 Y64.5476
G01 X59.3607 Y64.5223
G01 X59.3633 Y64.5095
G01 X59.3669 Y64.4836
G01 X59.3685 Y64.4542
G01 X59.3685 Y62.1714
G01 X59.3774 Y62.0815
G01 X59.3988 Y62.0108
G01 X59.4337 Y61.9456
G01 X59.4805 Y61.8885
G01 X59.5376 Y61.8417
G01 X59.6028 Y61.8068
G01 X59.6735 Y61.7854
G01 X59.7634 Y61.7765
G01 X63.7307 Y61.7765
G01 X63.8205 Y61.7854
G01 X63.8912 Y61.8068
G01 X63.9564 Y61.8417
G01 X64.0135 Y61.8885
G01 X64.0604 Y61.9456
G01 X64.0952 Y62.0108
G01 X64.1166 Y62.0815
G01 X64.1255 Y62.1714
G01 X64.1256 Y62.4535
G01 X64.1271 Y62.4796
G01 X64.1308 Y62.5055
G01 X64.1333 Y62.5183
G01 X64.1398 Y62.5437
G01 X64.1508 Y62.5744
G01 X64.1648 Y62.6040
G01 X64.1816 Y62.6320
G01 X64.1971 Y62.6531
G01 X64.2053 Y62.6632
G01 X64.2253 Y62.6847
G01 X64.2447 Y62.7023
G01 X64.2524 Y62.7084
G01 X64.2735 Y62.7239
G01 X64.2958 Y62.7374
G01 X64.3044 Y62.7421
G01 X64.3251 Y62.7520
G01 X64.3341 Y62.7558
G01 X64.3587 Y62.7646
G01 X64.3681 Y62.7674
G01 X64.3903 Y62.7729
G01 X64.3999 Y62.7747
G01 X64.4258 Y62.7784
G01 X64.4552 Y62.7799
G01 X65.5951 Y62.7800
G01 X65.6245 Y62.7786
G01 X65.6790 Y62.7733
G01 X65.9486 Y62.7999
G01 X66.2078 Y62.8785
G01 X66.4466 Y63.0062
G01 X66.6560 Y63.1780
G01 X66.6908 Y63.2203
G01 X66.7107 Y63.2420
G01 X67.9119 Y64.4433
G01 X67.9963 Y64.5277
G01 X68.0157 Y64.5452
G01 X68.0580 Y64.5800
G01 X68.2299 Y64.7894
G01 X68.3575 Y65.0283
G01 X68.4362 Y65.2875
G01 X68.4627 Y65.5570
G01 X68.4574 Y65.6115
G01 X68.4561 Y65.6409
G01 X68.4561 Y78.0575
G01 X68.4572 Y78.0837
G01 X68.4585 Y78.0966
G01 X68.4625 Y78.1225
G01 X68.4704 Y78.1542
G01 X68.4814 Y78.1850
G01 X68.4924 Y78.2087
G01 X68.4969 Y78.2173
G01 X68.5087 Y78.2370
G01 X68.5159 Y78.2478
G01 X68.5316 Y78.2688
G01 X68.5536 Y78.2930
G01 X75.6811 Y85.4204
G01 X75.7003 Y85.4381
G01 X75.7104 Y85.4464
G01 X75.7315 Y85.4619
G01 X75.7567 Y85.4771
G01 X75.7654 Y85.4816
G01 X75.7891 Y85.4926
G01 X75.8136 Y85.5016
G01 X75.8261 Y85.5054
G01 X75.8515 Y85.5116
G01 X75.8774 Y85.5156
G01 X75.8904 Y85.5168
G01 X75.9165 Y85.5180
G01 X81.1055 Y85.5180
G01 X81.1317 Y85.5168
G01 X81.1446 Y85.5156
G01 X81.1705 Y85.5116
G01 X81.2022 Y85.5036
G01 X81.2269 Y85.4950
G01 X81.2389 Y85.4900
G01 X81.2625 Y85.4786
G01 X81.2878 Y85.4636
G01 X81.2958 Y85.4581
G01 X81.3168 Y85.4424
G01 X81.3410 Y85.4204
G01 X81.7695 Y84.9919
G01 X81.7872 Y84.9726
G01 X81.7955 Y84.9625
G01 X81.8109 Y84.9414
G01 X81.8262 Y84.9162
G01 X81.8391 Y84.8898
G01 X81.8441 Y84.8778
G01 X81.8527 Y84.8531
G01 X81.8607 Y84.8214
G01 X81.8655 Y84.7891
G01 X81.8669 Y84.7630
G01 X81.8669 Y84.7499
G01 X81.8655 Y84.7238
G01 X81.8607 Y84.6915
G01 X81.8545 Y84.6661
G01 X81.8507 Y84.6536
G01 X81.8417 Y84.6290
G01 X81.8307 Y84.6053
G01 X81.8245 Y84.5938
G01 X81.8109 Y84.5715
G01 X81.7935 Y84.5478
G01 X81.7872 Y84.5403
G01 X81.7695 Y84.5210
G01 X81.7453 Y84.4991
G01 X81.7191 Y84.4796
G01 X81.6911 Y84.4628
G01 X81.6615 Y84.4488
G01 X81.6308 Y84.4378
G01 X81.5991 Y84.4299
G01 X81.5667 Y84.4251
G01 X81.5341 Y84.4235
G01 X79.8609 Y84.4235
G01 X79.7710 Y84.4146
G01 X79.7003 Y84.3932
G01 X79.6351 Y84.3584
G01 X79.5780 Y84.3115
G01 X79.5312 Y84.2544
G01 X79.4963 Y84.1892
G01 X79.4749 Y84.1185
G01 X79.4660 Y84.0287
G01 X79.4659 Y82.7415
G01 X79.4644 Y82.7154
G01 X79.4608 Y82.6895
G01 X79.4582 Y82.6767
G01 X79.4517 Y82.6514
G01 X79.4430 Y82.6267
G01 X79.4381 Y82.6147
G01 X79.4267 Y82.5911
G01 X79.4117 Y82.5658
G01 X79.4062 Y82.5577
G01 X79.3905 Y82.5368
G01 X79.3685 Y82.5126
G01 X76.7315 Y79.8756
G01 X76.7098 Y79.8557
G01 X76.6903 Y79.8397
G01 X76.5935 Y79.7217
G01 X76.5215 Y79.5870
G01 X76.4772 Y79.4409
G01 X76.4622 Y79.2890
G01 X76.4646 Y79.2640
G01 X76.4660 Y79.2346
G01 X76.4660 Y62.4600
G01 X76.4648 Y62.4338
G01 X76.4636 Y62.4209
G01 X76.4596 Y62.3950
G01 X76.4516 Y62.3633
G01 X76.4406 Y62.3325
G01 X76.4296 Y62.3088
G01 X76.4234 Y62.2973
G01 X76.4080 Y62.2723
G01 X76.3904 Y62.2487
G01 X76.3684 Y62.2245
G01 X70.5695 Y56.4256
G01 X70.5453 Y56.4036
G01 X70.5244 Y56.3879
G01 X70.5135 Y56.3807
G01 X70.4939 Y56.3689
G01 X70.4852 Y56.3644
G01 X70.4615 Y56.3534
G01 X70.4369 Y56.3444
G01 X70.4276 Y56.3415
G01 X70.4054 Y56.3359
G01 X70.3926 Y56.3333
G01 X70.3667 Y56.3297
G01 X70.3341 Y56.3281
G01 X64.4394 Y56.3281
G01 X64.4101 Y56.3294
G01 X64.3850 Y56.3318
G01 X64.2331 Y56.3168
G01 X64.0870 Y56.2725
G01 X63.9523 Y56.2006
G01 X63.8343 Y56.1037
G01 X63.8183 Y56.0843
G01 X63.7985 Y56.0626
G01 X53.7185 Y45.9826
G01 X53.6943 Y45.9606
G01 X53.6734 Y45.9449
G01 X53.6625 Y45.9377
G01 X53.6400 Y45.9244
G01 X53.6164 Y45.9130
G01 X53.6044 Y45.9081
G01 X53.5797 Y45.8994
G01 X53.5480 Y45.8915
G01 X53.5222 Y45.8875
G01 X53.5092 Y45.8862
G01 X53.4831 Y45.8851
G01 X28.5510 Y45.8851
G01 X28.5248 Y45.8862
G01 X28.5151 Y45.8870
G01 X28.4860 Y45.8915
G01 X28.4543 Y45.8994
G01 X28.4235 Y45.9104
G01 X28.3998 Y45.9214
G01 X28.3883 Y45.9276
G01 X28.3687 Y45.9394
G01 X28.3607 Y45.9449
G01 X28.3397 Y45.9606
G01 X28.3155 Y45.9826
G01 X24.5196 Y49.7785
G01 X24.4976 Y49.8027
G01 X24.4782 Y49.8290
G01 X24.4614 Y49.8570
G01 X24.4487 Y49.8835
G01 X24.4451 Y49.8926
G01 X24.4364 Y49.9173
G01 X24.4285 Y49.9490
G01 X24.4237 Y49.9813
G01 X24.4221 Y50.0140
G01 X24.4221 Y57.3511
G01 X24.4237 Y57.3837
G01 X24.4273 Y57.4096
G01 X24.4299 Y57.4224
G01 X24.4364 Y57.4477
G01 X24.4451 Y57.4724
G01 X24.4500 Y57.4844
G01 X24.4614 Y57.5080
G01 X24.4782 Y57.5360
G01 X24.4936 Y57.5571
G01 X24.5019 Y57.5672
G01 X24.5196 Y57.5865
G01 X33.3955 Y66.4624
G01 X33.4148 Y66.4801
G01 X33.4249 Y66.4884
G01 X33.4460 Y66.5039
G01 X33.4683 Y66.5174
G01 X33.4798 Y66.5236
G01 X33.5035 Y66.5346
G01 X33.5281 Y66.5436
G01 X33.5406 Y66.5474
G01 X33.5660 Y66.5536
G01 X33.5919 Y66.5576
G01 X33.6048 Y66.5588
G01 X33.6310 Y66.5600
G01 X39.9950 Y66.5600
G01 X40.0211 Y66.5588
G01 X40.0309 Y66.5580
G01 X40.0567 Y66.5542
G01 X40.0663 Y66.5521
G01 X40.0885 Y66.5465
G01 X40.0978 Y66.5436
G01 X40.1224 Y66.5346
G01 X40.1490 Y66.5221
G01 X40.1576 Y66.5174
G01 X40.1800 Y66.5039
G01 X40.2062 Y66.4844
G01 X40.2304 Y66.4624
G01 X40.2503 Y66.4407
G01 X40.2564 Y66.4331
G01 X40.2718 Y66.4120
G01 X40.2886 Y66.3840
G01 X40.3026 Y66.3544
G01 X40.3126 Y66.3268
G01 X40.3153 Y66.3174
G01 X40.3215 Y66.2920
G01 X40.3260 Y66.2629
G01 X40.3268 Y66.2531
G01 X40.3279 Y66.2303
G01 X40.3268 Y66.2009
G01 X40.3255 Y66.1879
G01 X40.3215 Y66.1621
G01 X40.3153 Y66.1366
G01 X40.3126 Y66.1273
G01 X40.3026 Y66.0996
G01 X40.2901 Y66.0730
G01 X40.2433 Y65.9853
G01 X40.1704 Y65.7450
G01 X40.1520 Y65.5576
G01 X40.1520 Y65.1540
G01 X40.1508 Y65.1278
G01 X40.1500 Y65.1181
G01 X40.1456 Y65.0890
G01 X40.1394 Y65.0636
G01 X40.1356 Y65.0511
G01 X40.1253 Y65.0235
G01 X40.1126 Y64.9970
G01 X40.0976 Y64.9717
G01 X40.0804 Y64.9479
G01 X40.0721 Y64.9378
G01 X40.0544 Y64.9185
G01 X30.7575 Y55.6215
G01 X30.7357 Y55.6017
G01 X30.7163 Y55.5857
G01 X30.6195 Y55.4677
G01 X30.5475 Y55.3330
G01 X30.5121 Y55.2165
G01 X30.5032 Y55.1869
G01 X30.4882 Y55.0350
G01 X30.4906 Y55.0100
G01 X30.4920 Y54.9806
G01 X30.4920 Y53.4194
G01 X30.4906 Y53.3901
G01 X30.4882 Y53.3650
G01 X30.5032 Y53.2131
G01 X30.5475 Y53.0670
G01 X30.6195 Y52.9323
G01 X30.7163 Y52.8143
G01 X30.7358 Y52.7983
G01 X30.7575 Y52.7785
G01 X33.2205 Y50.3155
G01 X33.2403 Y50.2937
G01 X33.2563 Y50.2743
G01 X33.3743 Y50.1775
G01 X33.5090 Y50.1055
G01 X33.6551 Y50.0612
G01 X33.8070 Y50.0462
G01 X33.8320 Y50.0486
G01 X33.8614 Y50.0500
G01 X35.4626 Y50.0500
G01 X35.4920 Y50.0486
G01 X35.5170 Y50.0462
G01 X35.6689 Y50.0612
G01 X35.8150 Y50.1055
G01 X35.9497 Y50.1775
G01 X36.0677 Y50.2743
G01 X36.0837 Y50.2938
G01 X36.1036 Y50.3155
G01 X39.4808 Y53.6927
G01 X39.5004 Y53.7107
G01 X39.5107 Y53.7191
G01 X39.5322 Y53.7348
G01 X39.5580 Y53.7502
G01 X39.5668 Y53.7547
G01 X39.5911 Y53.7658
G01 X39.6162 Y53.7747
G01 X39.6257 Y53.7776
G01 X39.6517 Y53.7838
G01 X39.6615 Y53.7856
G01 X39.6879 Y53.7890
G01 X39.7146 Y53.7901
G01 X39.7278 Y53.7899
G01 X39.7544 Y53.7880
G01 X39.7873 Y53.7825
G01 X39.8194 Y53.7738
G01 X39.8444 Y53.7644
G01 X39.8565 Y53.7591
G01 X39.8803 Y53.7469
G01 X39.9084 Y53.7291
G01 X39.9346 Y53.7085
G01 X39.9586 Y53.6855
G01 X39.9802 Y53.6601
G01 X39.9973 Y53.6355
G01 X40.0025 Y53.6270
G01 X40.0137 Y53.6065
G01 X40.0278 Y53.5779
G01 X40.1674 Y53.3948
G01 X40.3400 Y53.2425
G01 X40.5390 Y53.1268
G01 X40.7568 Y53.0521
G01 X40.9953 Y53.0200
G01 X41.0401 Y53.0200
G01 X41.0401 Y53.2622
G01 X41.0205 Y53.2623
G01 X40.9421 Y53.2662
G01 X40.9291 Y53.2675
G01 X40.8450 Y53.2801
G01 X40.7562 Y53.3023
G01 X40.6700 Y53.3332
G01 X40.5931 Y53.3694
G01 X40.5816 Y53.3755
G01 X40.5143 Y53.4159
G01 X40.5034 Y53.4231
G01 X40.4352 Y53.4739
G01 X40.3674 Y53.5354
G01 X40.3059 Y53.6032
G01 X40.2551 Y53.6714
G01 X40.2479 Y53.6823
G01 X40.2075 Y53.7496
G01 X40.2014 Y53.7611
G01 X40.1652 Y53.8380
G01 X40.1364 Y53.9180
G01 X40.1334 Y53.9274
G01 X40.1121 Y54.0130
G01 X40.0995 Y54.0971
G01 X40.0982 Y54.1101
G01 X40.0943 Y54.1885
G01 X40.0943 Y54.2015
G01 X40.0987 Y54.2864
G01 X40.1121 Y54.3770
G01 X40.1343 Y54.4658
G01 X40.1628 Y54.5459
G01 X40.1678 Y54.5580
G01 X40.2014 Y54.6289
G01 X40.2075 Y54.6404
G01 X40.2514 Y54.7133
G01 X40.3059 Y54.7868
G01 X40.3674 Y54.8546
G01 X40.4303 Y54.9119
G01 X40.4404 Y54.9201
G01 X40.5034 Y54.9669
G01 X40.5115 Y54.9724
G01 X40.5816 Y55.0145
G01 X40.5931 Y55.0206
G01 X40.6700 Y55.0569
G01 X40.7500 Y55.0856
G01 X40.7625 Y55.0894
G01 X40.8450 Y55.1099
G01 X40.9356 Y55.1234
G01 X41.0270 Y55.1279
G01 X41.8270 Y55.1279
G01 X41.9184 Y55.1234
G01 X42.0058 Y55.1105
G01 X42.0154 Y55.1085
G01 X42.0978 Y55.0877
G01 X42.1779 Y55.0592
G01 X42.1900 Y55.0542
G01 X42.2668 Y55.0177
G01 X42.3398 Y54.9741
G01 X42.3506 Y54.9669
G01 X42.4163 Y54.9182
G01 X42.4237 Y54.9119
G01 X42.4866 Y54.8546
G01 X42.5439 Y54.7917
G01 X42.5502 Y54.7843
G01 X42.5989 Y54.7186
G01 X42.6044 Y54.7105
G01 X42.6497 Y54.6348
G01 X42.6749 Y54.5820
G01 X42.9343 Y54.5820
G01 X42.9283 Y54.6035
G01 X42.8262 Y54.8121
G01 X42.6866 Y54.9952
G01 X42.5140 Y55.1475
G01 X42.4697 Y55.1734
G01 X42.4454 Y55.1892
G01 X42.4203 Y55.2092
G01 X42.4017 Y55.2269
G01 X42.3929 Y55.2363
G01 X42.3763 Y55.2559
G01 X42.3615 Y55.2769
G01 X42.3546 Y55.2878
G01 X42.3421 Y55.3103
G01 X42.3316 Y55.3337
G01 X42.3270 Y55.3457
G01 X42.3190 Y55.3702
G01 X42.3119 Y55.4015
G01 X42.3078 Y55.4334
G01 X42.3069 Y55.4655
G01 X42.3090 Y55.4976
G01 X42.3142 Y55.5293
G01 X42.3224 Y55.5603
G01 X42.3336 Y55.5904
G01 X42.3477 Y55.6193
G01 X42.3644 Y55.6468
G01 X42.3798 Y55.6674
G01 X42.3880 Y55.6773
G01 X42.4055 Y55.6961
G01 X42.4269 Y55.7155
G01 X42.4345 Y55.7215
G01 X42.4552 Y55.7367
G01 X42.4830 Y55.7533
G01 X42.6619 Y55.9001
G01 X42.8088 Y56.0790
G01 X42.9179 Y56.2832
G01 X42.9851 Y56.5047
G01 X43.0077 Y56.7350
G01 X42.9851 Y56.9654
G01 X42.9179 Y57.1869
G01 X42.8088 Y57.3910
G01 X42.6619 Y57.5699
G01 X42.4809 Y57.7185
G01 X42.4623 Y57.7300
G01 X42.4439 Y57.7436
G01 X42.4363 Y57.7497
G01 X42.4146 Y57.7696
G01 X42.3947 Y57.7913
G01 X42.3769 Y57.8147
G01 X42.3697 Y57.8255
G01 X42.3579 Y57.8452
G01 X42.3534 Y57.8539
G01 X42.3424 Y57.8776
G01 X42.3334 Y57.9022
G01 X42.3297 Y57.9146
G01 X42.3235 Y57.9401
G01 X42.3187 Y57.9724
G01 X42.3171 Y58.0050
G01 X42.3182 Y58.0311
G01 X42.3195 Y58.0441
G01 X42.3235 Y58.0700
G01 X42.3297 Y58.0954
G01 X42.3334 Y58.1079
G01 X42.3424 Y58.1324
G01 X42.3564 Y58.1620
G01 X42.3697 Y58.1845
G01 X42.3769 Y58.1953
G01 X42.3926 Y58.2162
G01 X42.4101 Y58.2357
G01 X42.4169 Y58.2427
G01 X42.4363 Y58.2603
G01 X42.4439 Y58.2664
G01 X42.4623 Y58.2800
G01 X42.4809 Y58.2915
G01 X42.6428 Y58.4244
G01 X42.6663 Y58.4420
G01 X42.6914 Y58.4574
G01 X42.7029 Y58.4636
G01 X42.7266 Y58.4746
G01 X42.7573 Y58.4856
G01 X42.7827 Y58.4921
G01 X42.7955 Y58.4947
G01 X42.8213 Y58.4984
G01 X42.8507 Y58.4999
G01 X43.4726 Y58.5000
G01 X43.5020 Y58.4986
G01 X43.5270 Y58.4962
G01 X43.6789 Y58.5112
G01 X43.8250 Y58.5555
G01 X43.9597 Y58.6275
G01 X44.0777 Y58.7243
G01 X44.0937 Y58.7438
G01 X44.1136 Y58.7655
G01 X46.3816 Y61.0335
G01 X46.4033 Y61.0533
G01 X46.4227 Y61.0693
G01 X46.5196 Y61.1873
G01 X46.5915 Y61.3220
G01 X46.6358 Y61.4681
G01 X46.6508 Y61.6200
G01 X46.6484 Y61.6451
G01 X46.6471 Y61.6744
G01 X46.6471 Y63.7241
G01 X46.6487 Y63.7568
G01 X46.6529 Y63.7859
G01 X46.6549 Y63.7955
G01 X46.6614 Y63.8208
G01 X46.6724 Y63.8516
G01 X46.6864 Y63.8811
G01 X46.7032 Y63.9091
G01 X46.7226 Y63.9354
G01 X46.7423 Y63.9572
G01 X46.7639 Y63.9773
G01 X46.7780 Y63.9891
G01 X46.9373 Y64.1832
G01 X47.0557 Y64.4047
G01 X47.1286 Y64.6451
G01 X47.1471 Y64.8324
G01 X47.1471 Y65.5576
G01 X47.1286 Y65.7450
G01 X47.0557 Y65.9853
G01 X46.9373 Y66.2068
G01 X46.7780 Y66.4010
G01 X46.5838 Y66.5603
G01 X46.3623 Y66.6787
G01 X46.1220 Y66.7516
G01 X45.8720 Y66.7762
G01 X45.5988 Y66.7493
G01 X45.5842 Y66.7475
G01 X45.5549 Y66.7462
G01 X45.5287 Y66.7473
G01 X45.5157 Y66.7486
G01 X45.4899 Y66.7526
G01 X45.4582 Y66.7605
G01 X45.4274 Y66.7715
G01 X45.4037 Y66.7826
G01 X45.3922 Y66.7887
G01 X45.3699 Y66.8023
G01 X45.3487 Y66.8178
G01 X45.3387 Y66.8260
G01 X45.3194 Y66.8437
G01 X44.3186 Y67.8446
G01 X44.2987 Y67.8663
G01 X44.2827 Y67.8857
G01 X44.1647 Y67.9826
G01 X44.0300 Y68.0545
G01 X43.8839 Y68.0988
G01 X43.7320 Y68.1138
G01 X43.7070 Y68.1114
G01 X43.6776 Y68.1101
G01 X33.2264 Y68.1101
G01 X33.1970 Y68.1114
G01 X33.1720 Y68.1138
G01 X33.0201 Y68.0988
G01 X32.8740 Y68.0545
G01 X32.7393 Y67.9826
G01 X32.6213 Y67.8857
G01 X32.6053 Y67.8663
G01 X32.5855 Y67.8446
G01 X23.1375 Y58.3965
G01 X23.1157 Y58.3767
G01 X23.0963 Y58.3607
G01 X22.9995 Y58.2427
G01 X22.9275 Y58.1080
G01 X22.8832 Y57.9619
G01 X22.8682 Y57.8100
G01 X22.8706 Y57.7850
G01 X22.8720 Y57.7556
G01 X22.8720 Y49.6094
G01 X22.8706 Y49.5801
G01 X22.8682 Y49.5550
G01 X22.8832 Y49.4031
G01 X22.9275 Y49.2570
G01 X22.9995 Y49.1223
G01 X23.0963 Y49.0043
G01 X23.1158 Y48.9883
G01 X23.1375 Y48.9685
G01 X27.5055 Y44.6005
G01 X27.5253 Y44.5787
G01 X27.5413 Y44.5593
G01 X27.6593 Y44.4625
G01 X27.7940 Y44.3905
G01 X27.9401 Y44.3462
G01 X28.0920 Y44.3312
G01 X28.1170 Y44.3336
G01 X28.1464 Y44.3350
G01 X53.8876 Y44.3350
G01 X53.9170 Y44.3336
G01 X53.9420 Y44.3312
G01 X54.0939 Y44.3462
G01 X54.2400 Y44.3905
G01 X54.3747 Y44.4625
G01 X54.4927 Y44.5593
G01 X54.5087 Y44.5788
G01 X54.5285 Y44.6005
G01 X64.6085 Y54.6804
G01 X64.6327 Y54.7024
G01 X64.6537 Y54.7181
G01 X64.6645 Y54.7253
G01 X64.6899 Y54.7402
G01 X64.7165 Y54.7526
G01 X64.7442 Y54.7626
G01 X64.7726 Y54.7701
G01 X64.7854 Y54.7727
G01 X64.8113 Y54.7764
G01 X64.8407 Y54.7779
G01 X70.7386 Y54.7780
G01 X70.7680 Y54.7766
G01 X70.7930 Y54.7742
G01 X70.9450 Y54.7892
G01 X71.0910 Y54.8335
G01 X71.2257 Y54.9055
G01 X71.3437 Y55.0023
G01 X71.3597 Y55.0218
G01 X71.3796 Y55.0435
G01 X77.7506 Y61.4145
G01 X77.7723 Y61.4343
G01 X77.7917 Y61.4503
G01 X77.8886 Y61.5683
G01 X77.9605 Y61.7030
G01 X78.0048 Y61.8491
G01 X78.0198 Y62.0010
G01 X78.0174 Y62.0261
G01 X78.0161 Y62.0554
G01 X78.0161 Y78.8301
G01 X78.0177 Y78.8627
G01 X78.0213 Y78.8886
G01 X78.0239 Y78.9014
G01 X78.0314 Y78.9298
G01 X78.0402 Y78.9545
G01 X78.0440 Y78.9634
G01 X78.0554 Y78.9870
G01 X78.0687 Y79.0095
G01 X78.0759 Y79.0204
G01 X78.0916 Y79.0413
G01 X78.1136 Y79.0655
G01 X80.2171 Y81.1690
G01 X80.2413 Y81.1910
G01 X80.2676 Y81.2104
G01 X80.2956 Y81.2272
G01 X80.3192 Y81.2386
G01 X80.3281 Y81.2424
G01 X80.3559 Y81.2522
G01 X80.3876 Y81.2601
G01 X80.4199 Y81.2649
G01 X80.4493 Y81.2665
G01 X81.7332 Y81.2665
G01 X81.8230 Y81.2754
G01 X81.8937 Y81.2968
G01 X81.9589 Y81.3317
G01 X82.0160 Y81.3785
G01 X82.0663 Y81.4398
G01 X82.0724 Y81.4493
G01 X82.0900 Y81.4728
G01 X82.1119 Y81.4970
G01 X82.1361 Y81.5190
G01 X82.1571 Y81.5347
G01 X82.1679 Y81.5419
G01 X82.1904 Y81.5552
G01 X82.2140 Y81.5666
G01 X82.2260 Y81.5716
G01 X82.2507 Y81.5802
G01 X82.2760 Y81.5867
G01 X82.2888 Y81.5893
G01 X82.3147 Y81.5929
G01 X82.3408 Y81.5944
G01 X82.3539 Y81.5944
G01 X82.3800 Y81.5929
G01 X82.4123 Y81.5882
G01 X82.4440 Y81.5802
G01 X82.4687 Y81.5716
G01 X82.4807 Y81.5666
G01 X82.5043 Y81.5552
G01 X82.5323 Y81.5384
G01 X82.5560 Y81.5210
G01 X82.5959 Y81.4884
G01 X82.8265 Y81.3651
G01 X83.0768 Y81.2892
G01 X83.3370 Y81.2635
G01 X83.5973 Y81.2892
G01 X83.8475 Y81.3651
G01 X84.0121 Y81.4530
G01 X84.0356 Y81.4644
G01 X84.0477 Y81.4694
G01 X84.0724 Y81.4780
G01 X84.0977 Y81.4845
G01 X84.1105 Y81.4871
G01 X84.1396 Y81.4910
G01 X84.1658 Y81.4923
G01 X84.1755 Y81.4922
G01 X84.1984 Y81.4910
G01 X84.2081 Y81.4900
G01 X84.2340 Y81.4860
G01 X84.2594 Y81.4798
G01 X84.2688 Y81.4770
G01 X84.2934 Y81.4682
G01 X84.3024 Y81.4644
G01 X84.3231 Y81.4545
G01 X84.3316 Y81.4498
G01 X84.3540 Y81.4362
G01 X84.3777 Y81.4188
G01 X84.3852 Y81.4125
G01 X84.4044 Y81.3948
G01 X84.4264 Y81.3706
G01 X84.4459 Y81.3444
G01 X84.4594 Y81.3220
G01 X84.4656 Y81.3105
G01 X84.4766 Y81.2868
G01 X84.4856 Y81.2622
G01 X84.4885 Y81.2529
G01 X84.4941 Y81.2307
G01 X84.4962 Y81.2212
G01 X84.5000 Y81.1953
G01 X84.5008 Y81.1855
G01 X84.5019 Y81.1627
G01 X84.5020 Y75.4085
G01 X84.5008 Y75.3824
G01 X84.4996 Y75.3694
G01 X84.4956 Y75.3435
G01 X84.4885 Y75.3150
G01 X84.4856 Y75.3056
G01 X84.4766 Y75.2811
G01 X84.4656 Y75.2574
G01 X84.4594 Y75.2459
G01 X84.4459 Y75.2235
G01 X84.4304 Y75.2024
G01 X84.4221 Y75.1923
G01 X84.4044 Y75.1731
G01 X82.4240 Y73.1927
G01 X82.4023 Y73.1728
G01 X82.3600 Y73.1380
G01 X82.1882 Y72.9286
G01 X82.0605 Y72.6898
G01 X81.9819 Y72.4306
G01 X81.9553 Y72.1610
G01 X81.9606 Y72.1065
G01 X81.9620 Y72.0771
G01 X81.9620 Y60.1685
G01 X81.9604 Y60.1359
G01 X81.9567 Y60.1100
G01 X81.9541 Y60.0972
G01 X81.9476 Y60.0718
G01 X81.9390 Y60.0472
G01 X81.9340 Y60.0351
G01 X81.9226 Y60.0115
G01 X81.9059 Y59.9835
G01 X81.8904 Y59.9624
G01 X81.8821 Y59.9523
G01 X81.8644 Y59.9331
G01 X76.3280 Y54.3967
G01 X76.3063 Y54.3768
G01 X76.2640 Y54.3420
G01 X76.0922 Y54.1326
G01 X75.9645 Y53.8938
G01 X75.8859 Y53.6346
G01 X75.8593 Y53.3650
G01 X75.8646 Y53.3105
G01 X75.8660 Y53.2811
G01 X75.8659 Y46.0961
G01 X75.8644 Y46.0667
G01 X75.8602 Y46.0376
G01 X75.8534 Y46.0090
G01 X75.8496 Y45.9965
G01 X75.8406 Y45.9720
G01 X75.7265 Y45.6964
G01 X75.6660 Y45.3921
G01 X75.6660 Y45.0819
G01 X75.7265 Y44.7776
G01 X75.8406 Y44.5021
G01 X75.8496 Y44.4775
G01 X75.8525 Y44.4682
G01 X75.8581 Y44.4460
G01 X75.8607 Y44.4332
G01 X75.8644 Y44.4073
G01 X75.8660 Y44.3746
G01 X75.8660 Y15.8569
G01 X75.8646 Y15.8275
G01 X75.8593 Y15.7730
G01 X75.8859 Y15.5035
G01 X75.9645 Y15.2443
G01 X76.0922 Y15.0054
G01 X76.2640 Y14.7960
G01 X76.3063 Y14.7612
G01 X76.3280 Y14.7414
G01 X81.8644 Y9.2050
G01 X81.8864 Y9.1808
G01 X81.9059 Y9.1545
G01 X81.9226 Y9.1265
G01 X81.9366 Y9.0969
G01 X81.9476 Y9.0662
G01 X81.9556 Y9.0345
G01 X81.9604 Y9.0022
G01 X81.9620 Y8.9695
G01 X81.9620 Y6.2777
G01 X81.9609 Y6.2520
G01 X81.9596 Y6.2392
G01 X81.9558 Y6.2137
G01 X81.9498 Y6.1887
G01 X81.9461 Y6.1764
G01 X81.9386 Y6.1552
G01 X81.9348 Y6.1463
G01 X81.9239 Y6.1230
G01 X81.9076 Y6.0953
G01 X81.8926 Y6.0744
G01 X81.8845 Y6.0644
G01 X81.8673 Y6.0452
G01 X81.8438 Y6.0233
G01 X81.8234 Y6.0075
G01 X81.8129 Y6.0002
G01 X81.7909 Y5.9868
G01 X81.7621 Y5.9725
G01 X81.7321 Y5.9611
G01 X81.7073 Y5.9542
G01 X81.6947 Y5.9514
G01 X81.6661 Y5.9468
G01 X81.6437 Y5.9451
G01 X81.6340 Y5.9448
G01 X81.6083 Y5.9454
G01 X81.5987 Y5.9462
G01 X81.5763 Y5.9489
G01 X81.5669 Y5.9507
G01 X81.5418 Y5.9564
G01 X81.5172 Y5.9642
G01 X81.5052 Y5.9687
G01 X81.4817 Y5.9791
G01 X81.2632 Y6.0869
G01 X81.1840 Y6.1090
G01 X81.1840 Y5.8576
G01 X81.2063 Y5.8496
G01 X81.2154 Y5.8460
G01 X81.3057 Y5.8032
G01 X81.3143 Y5.7985
G01 X81.3973 Y5.7487
G01 X81.4053 Y5.7432
G01 X81.4856 Y5.6835
G01 X81.5645 Y5.6120
G01 X81.6360 Y5.5331
G01 X81.6994 Y5.4475
G01 X81.7542 Y5.3561
G01 X81.7971 Y5.2658
G01 X81.8021 Y5.2538
G01 X81.8356 Y5.1596
G01 X81.8601 Y5.0626
G01 X81.8626 Y5.0498
G01 X81.8763 Y4.9574
G01 X81.8774 Y4.9476
G01 X81.8824 Y4.8445
G01 X81.8824 Y4.3495
G01 X81.8776 Y4.2496
G01 X81.8768 Y4.2399
G01 X81.8615 Y4.1378
G01 X81.8374 Y4.0407
G01 X81.8336 Y4.0283
G01 X81.7997 Y3.9342
G01 X81.7571 Y3.8437
G01 X81.7510 Y3.8322
G01 X81.6994 Y3.7465
G01 X81.6380 Y3.6635
G01 X81.6317 Y3.6560
G01 X81.5690 Y3.5868
G01 X81.5597 Y3.5776
G01 X81.4856 Y3.5105
G01 X81.4027 Y3.4489
G01 X81.3945 Y3.4436
G01 X81.3143 Y3.3955
G01 X81.3057 Y3.3908
G01 X81.2154 Y3.3481
G01 X81.2063 Y3.3444
G01 X81.1840 Y3.3364
G01 X81.1840 Y3.0850
G01 X81.2632 Y3.1071
G01 X81.4979 Y3.2229
G01 X81.7042 Y3.3813
G01 X81.8143 Y3.5068
G01 X81.8345 Y3.5275
G01 X81.8539 Y3.5443
G01 X81.8614 Y3.5503
G01 X81.8851 Y3.5667
G01 X81.9074 Y3.5795
G01 X81.9189 Y3.5852
G01 X81.9424 Y3.5955
G01 X81.9728 Y3.6056
G01 X81.9978 Y3.6115
G01 X82.0104 Y3.6137
G01 X82.0359 Y3.6169
G01 X82.0680 Y3.6179
G01 X82.1000 Y3.6158
G01 X82.1316 Y3.6107
G01 X82.1565 Y3.6043
G01 X82.1687 Y3.6005
G01 X82.1898 Y3.5926
G01 X82.1986 Y3.5888
G01 X82.2216 Y3.5775
G01 X82.2490 Y3.5608
G01 X82.2747 Y3.5416
G01 X82.2938 Y3.5244
G01 X82.3006 Y3.5177
G01 X82.3199 Y3.4962
G01 X82.3938 Y3.4063
G01 X82.5959 Y3.2404
G01 X82.8265 Y3.1171
G01 X83.0768 Y3.0412
G01 X83.3370 Y3.0155
G01 X83.5973 Y3.0412
G01 X83.8475 Y3.1171
G01 X84.0781 Y3.2404
G01 X84.1180 Y3.2730
G01 X84.1417 Y3.2904
G01 X84.1697 Y3.3072
G01 X84.1933 Y3.3186
G01 X84.2023 Y3.3224
G01 X84.2300 Y3.3322
G01 X84.2553 Y3.3387
G01 X84.2681 Y3.3413
G01 X84.2940 Y3.3449
G01 X84.3201 Y3.3464
G01 X84.3332 Y3.3464
G01 X84.3593 Y3.3449
G01 X84.3916 Y3.3402
G01 X84.4233 Y3.3322
G01 X84.4480 Y3.3236
G01 X84.4600 Y3.3186
G01 X84.4836 Y3.3072
G01 X84.5061 Y3.2939
G01 X84.5170 Y3.2867
G01 X84.5379 Y3.2710
G01 X84.5621 Y3.2490
G01 X84.5840 Y3.2248
G01 X84.6017 Y3.2013
G01 X84.6077 Y3.1918
G01 X84.6580 Y3.1305
G01 X84.7187 Y3.0807
G01 X84.7308 Y3.0731
G01 X84.7492 Y3.0595
G01 X84.7568 Y3.0534
G01 X84.7786 Y3.0335
G01 X84.8005 Y3.0093
G01 X84.8200 Y2.9831
G01 X84.8335 Y2.9607
G01 X84.8397 Y2.9492
G01 X84.8507 Y2.9255
G01 X84.8597 Y2.9009
G01 X84.8626 Y2.8916
G01 X84.8690 Y2.8662
G01 X84.8708 Y2.8566
G01 X84.8741 Y2.8340
G01 X84.8759 Y2.8046
G01 X84.8759 Y2.7916
G01 X84.8748 Y2.7687
G01 X84.8737 Y2.7590
G01 X84.8697 Y2.7331
G01 X84.8617 Y2.7014
G01 X84.8507 Y2.6707
G01 X84.8368 Y2.6411
G01 X84.8235 Y2.6186
G01 X84.8162 Y2.6078
G01 X84.8005 Y2.5869
G01 X84.7831 Y2.5674
G01 X84.6375 Y2.4216
G01 X84.6133 Y2.3996
G01 X84.5870 Y2.3802
G01 X84.5590 Y2.3634
G01 X84.5295 Y2.3494
G01 X84.5049 Y2.3404
G01 X84.4924 Y2.3367
G01 X84.4702 Y2.3311
G01 X84.4606 Y2.3293
G01 X84.4347 Y2.3257
G01 X84.4021 Y2.3241
G01 X79.2207 Y2.3241
G01 X79.1913 Y2.3257
G01 X79.1590 Y2.3305
G01 X79.1273 Y2.3384
G01 X79.1026 Y2.3471
G01 X79.0935 Y2.3507
G01 X79.0728 Y2.3604
G01 X79.0613 Y2.3666
G01 X79.0390 Y2.3802
G01 X79.0127 Y2.3996
G01 X78.9885 Y2.4216
G01 X78.6216 Y2.7885
G01 X78.6017 Y2.8102
G01 X78.5956 Y2.8179
G01 X78.5802 Y2.8390
G01 X78.5666 Y2.8613
G01 X78.5604 Y2.8728
G01 X78.5494 Y2.8965
G01 X78.5404 Y2.9211
G01 X78.5367 Y2.9336
G01 X78.5305 Y2.9590
G01 X78.5257 Y2.9913
G01 X78.5241 Y3.0240
G01 X78.5241 Y5.2061
G01 X78.5254 Y5.2355
G01 X78.5278 Y5.2605
G01 X78.5128 Y5.4124
G01 X78.4685 Y5.5585
G01 X78.3966 Y5.6932
G01 X78.2997 Y5.8112
G01 X78.2803 Y5.8272
G01 X78.2586 Y5.8470
G01 X67.4456 Y16.6600
G01 X67.4236 Y16.6842
G01 X67.4060 Y16.7078
G01 X67.3906 Y16.7328
G01 X67.3844 Y16.7443
G01 X67.3734 Y16.7680
G01 X67.3624 Y16.7988
G01 X67.3545 Y16.8305
G01 X67.3505 Y16.8564
G01 X67.3492 Y16.8693
G01 X67.3481 Y16.8955
G01 X67.3481 Y28.4186
G01 X67.3494 Y28.4480
G01 X67.3518 Y28.4730
G01 X67.3368 Y28.6249
G01 X67.2925 Y28.7710
G01 X67.2206 Y28.9057
G01 X67.1237 Y29.0237
G01 X67.1043 Y29.0397
G01 X67.0826 Y29.0595
G01 X62.1476 Y33.9946
G01 X62.1277 Y34.0163
G01 X62.1117 Y34.0357
G01 X61.9937 Y34.1326
G01 X61.8590 Y34.2045
G01 X61.7129 Y34.2488
G01 X61.5610 Y34.2638
G01 X61.5360 Y34.2614
G01 X61.5066 Y34.2601
G01 X51.7440 Y34.2601
G01 X51.7113 Y34.2617
G01 X51.6855 Y34.2653
G01 X51.6758 Y34.2671
G01 X51.6473 Y34.2744
G01 X51.6166 Y34.2854
G01 X51.5870 Y34.2994
G01 X51.5645 Y34.3127
G01 X51.5537 Y34.3199
G01 X51.5328 Y34.3356
G01 X51.3730 Y34.4668
G01 X51.1689 Y34.5759
G01 X50.9474 Y34.6431
G01 X50.7747 Y34.6601
G01 X50.3760 Y34.6601
G01 X50.3498 Y34.6612
G01 X50.3369 Y34.6625
G01 X50.3110 Y34.6665
G01 X50.2856 Y34.6727
G01 X50.2762 Y34.6754
G01 X50.2516 Y34.6842
G01 X50.2426 Y34.6880
G01 X50.2190 Y34.6994
G01 X50.1965 Y34.7127
G01 X50.1857 Y34.7199
G01 X50.1647 Y34.7356
G01 X50.1405 Y34.7576
G01 X47.5336 Y37.3646
G01 X47.5137 Y37.3863
G01 X47.4977 Y37.4057
G01 X47.3797 Y37.5026
G01 X47.2450 Y37.5745
G01 X47.0989 Y37.6188
G01 X46.9470 Y37.6338
G01 X46.9220 Y37.6314
G01 X46.8926 Y37.6301
G01 X31.3214 Y37.6301
G01 X31.2921 Y37.6314
G01 X31.2670 Y37.6338
G01 X31.1151 Y37.6188
G01 X30.9690 Y37.5745
G01 X30.8343 Y37.5026
G01 X30.7163 Y37.4057
G01 X30.7003 Y37.3863
G01 X30.6805 Y37.3646
G01 X28.0081 Y34.6922
G01 X27.9839 Y34.6702
G01 X27.9603 Y34.6526
G01 X27.9521 Y34.6473
G01 X27.9296 Y34.6340
G01 X27.9060 Y34.6226
G01 X27.8940 Y34.6177
G01 X27.8693 Y34.6090
G01 X27.8440 Y34.6025
G01 X27.8312 Y34.5999
G01 X27.8053 Y34.5963
G01 X27.7727 Y34.5947
G01 X27.7465 Y34.5958
G01 X27.7368 Y34.5966
G01 X27.7077 Y34.6011
G01 X27.6121 Y34.6201
G01 X27.3019 Y34.6201
G01 X26.9976 Y34.5595
G01 X26.7109 Y34.4408
G01 X26.4530 Y34.2684
G01 X26.2336 Y34.0490
G01 X26.0612 Y33.7911
G01 X25.9425 Y33.5044
G01 X25.8820 Y33.2001
G01 X25.8820 Y32.8899
G01 X25.9425 Y32.5856
G01 X26.0612 Y32.2989
G01 X26.2336 Y32.0410
G01 X26.4530 Y31.8216
G01 X26.7109 Y31.6492
G01 X26.9976 Y31.5305
G01 X27.3019 Y31.4700
G01 X27.6121 Y31.4700
G01 X27.9164 Y31.5305
G01 X28.2031 Y31.6492
G01 X28.4610 Y31.8216
G01 X28.6804 Y32.0410
G01 X28.8528 Y32.2989
G01 X28.9715 Y32.5856
G01 X29.0321 Y32.8899
G01 X29.0321 Y33.2001
G01 X29.0131 Y33.2957
G01 X29.0086 Y33.3248
G01 X29.0078 Y33.3345
G01 X29.0067 Y33.3607
G01 X29.0080 Y33.3900
G01 X29.0119 Y33.4192
G01 X29.0145 Y33.4320
G01 X29.0210 Y33.4573
G01 X29.0320 Y33.4881
G01 X29.0430 Y33.5118
G01 X29.0492 Y33.5233
G01 X29.0628 Y33.5456
G01 X29.0802 Y33.5693
G01 X29.0865 Y33.5768
G01 X29.1042 Y33.5961
G01 X31.4929 Y35.9847
G01 X31.5147 Y36.0044
G01 X31.5410 Y36.0239
G01 X31.5690 Y36.0406
G01 X31.5956 Y36.0533
G01 X31.6046 Y36.0570
G01 X31.6262 Y36.0646
G01 X31.6546 Y36.0721
G01 X31.6674 Y36.0747
G01 X31.6901 Y36.0780
G01 X31.6998 Y36.0788
G01 X31.7260 Y36.0800
G01 X46.4881 Y36.0800
G01 X46.5142 Y36.0788
G01 X46.5239 Y36.0780
G01 X46.5530 Y36.0736
G01 X46.5847 Y36.0656
G01 X46.6155 Y36.0546
G01 X46.6392 Y36.0436
G01 X46.6507 Y36.0374
G01 X46.6757 Y36.0220
G01 X46.6993 Y36.0044
G01 X46.7212 Y35.9847
G01 X48.6740 Y34.0318
G01 X48.6937 Y34.0100
G01 X48.7094 Y33.9891
G01 X48.7167 Y33.9782
G01 X48.7315 Y33.9528
G01 X48.7439 Y33.9262
G01 X48.7540 Y33.8985
G01 X48.7615 Y33.8701
G01 X48.7640 Y33.8573
G01 X48.7677 Y33.8314
G01 X48.7691 Y33.8053
G01 X48.7692 Y33.7955
G01 X48.7680 Y33.7694
G01 X48.7669 Y33.7596
G01 X48.7635 Y33.7370
G01 X48.7593 Y33.7189
G01 X48.7363 Y33.4850
G01 X48.7590 Y33.2547
G01 X48.8262 Y33.0332
G01 X48.9353 Y32.8290
G01 X49.0821 Y32.6501
G01 X49.2631 Y32.5015
G01 X49.2817 Y32.4900
G01 X49.3001 Y32.4764
G01 X49.3077 Y32.4703
G01 X49.3271 Y32.4527
G01 X49.3339 Y32.4457
G01 X49.3514 Y32.4262
G01 X49.3671 Y32.4053
G01 X49.3743 Y32.3945
G01 X49.3891 Y32.3691
G01 X49.4016 Y32.3424
G01 X49.4116 Y32.3148
G01 X49.4191 Y32.2863
G01 X49.4217 Y32.2735
G01 X49.4254 Y32.2476
G01 X49.4269 Y32.2183
G01 X49.4268 Y32.2085
G01 X49.4256 Y32.1856
G01 X49.4217 Y32.1565
G01 X49.4199 Y32.1469
G01 X49.4144 Y32.1246
G01 X49.4106 Y32.1122
G01 X49.4016 Y32.0876
G01 X49.3876 Y32.0581
G01 X49.3708 Y32.0300
G01 X49.3534 Y32.0063
G01 X49.3471 Y31.9989
G01 X49.3294 Y31.9796
G01 X49.3052 Y31.9576
G01 X49.2817 Y31.9400
G01 X49.2631 Y31.9285
G01 X49.0821 Y31.7799
G01 X48.9353 Y31.6010
G01 X48.8262 Y31.3969
G01 X48.7590 Y31.1754
G01 X48.7363 Y30.9450
G01 X48.7590 Y30.7147
G01 X48.8262 Y30.4932
G01 X48.9353 Y30.2890
G01 X49.0821 Y30.1101
G01 X49.2610 Y29.9633
G01 X49.2888 Y29.9467
G01 X49.3096 Y29.9315
G01 X49.3171 Y29.9255
G01 X49.3362 Y29.9083
G01 X49.3430 Y29.9015
G01 X49.3603 Y29.8824
G01 X49.3758 Y29.8620
G01 X49.3831 Y29.8514
G01 X49.3948 Y29.8321
G01 X49.3993 Y29.8236
G01 X49.4104 Y29.8004
G01 X49.4216 Y29.7703
G01 X49.4298 Y29.7393
G01 X49.4341 Y29.7139
G01 X49.4356 Y29.7012
G01 X49.4372 Y29.6755
G01 X49.4362 Y29.6434
G01 X49.4331 Y29.6178
G01 X49.4315 Y29.6084
G01 X49.4266 Y29.5864
G01 X49.4231 Y29.5740
G01 X49.4149 Y29.5497
G01 X49.4019 Y29.5203
G01 X49.3861 Y29.4923
G01 X49.3715 Y29.4711
G01 X49.3637 Y29.4610
G01 X49.3469 Y29.4415
G01 X49.3285 Y29.4235
G01 X49.3213 Y29.4171
G01 X49.3012 Y29.4011
G01 X49.2933 Y29.3956
G01 X49.2744 Y29.3834
G01 X49.2300 Y29.3575
G01 X49.0574 Y29.2052
G01 X48.9178 Y29.0221
G01 X48.8157 Y28.8135
G01 X48.8097 Y28.7920
G01 X49.0692 Y28.7920
G01 X49.0943 Y28.8448
G01 X49.1396 Y28.9205
G01 X49.1451 Y28.9286
G01 X49.1939 Y28.9943
G01 X49.2002 Y29.0017
G01 X49.2574 Y29.0646
G01 X49.3227 Y29.1240
G01 X49.3304 Y29.1301
G01 X49.3987 Y29.1806
G01 X49.4773 Y29.2277
G01 X49.5600 Y29.2669
G01 X49.6400 Y29.2956
G01 X49.6494 Y29.2986
G01 X49.7350 Y29.3199
G01 X49.8191 Y29.3326
G01 X49.8321 Y29.3339
G01 X49.9138 Y29.3378
G01 X50.7170 Y29.3379
G01 X50.8019 Y29.3339
G01 X50.8149 Y29.3326
G01 X50.8990 Y29.3199
G01 X50.9878 Y29.2977
G01 X51.0679 Y29.2692
G01 X51.0800 Y29.2642
G01 X51.1568 Y29.2277
G01 X51.2325 Y29.1824
G01 X51.2406 Y29.1769
G01 X51.3037 Y29.1301
G01 X51.3137 Y29.1219
G01 X51.3766 Y29.0646
G01 X51.4360 Y28.9993
G01 X51.4421 Y28.9917
G01 X51.4889 Y28.9286
G01 X51.4944 Y28.9205
G01 X51.5397 Y28.8448
G01 X51.5649 Y28.7920
G01 X51.8243 Y28.7920
G01 X51.8183 Y28.8135
G01 X51.7162 Y29.0221
G01 X51.5766 Y29.2052
G01 X51.4040 Y29.3575
G01 X51.3597 Y29.3834
G01 X51.3407 Y29.3956
G01 X51.3329 Y29.4011
G01 X51.3127 Y29.4171
G01 X51.3056 Y29.4235
G01 X51.2894 Y29.4392
G01 X51.2704 Y29.4610
G01 X51.2625 Y29.4711
G01 X51.2462 Y29.4950
G01 X51.2321 Y29.5203
G01 X51.2203 Y29.5467
G01 X51.2109 Y29.5740
G01 X51.2075 Y29.5864
G01 X51.2019 Y29.6115
G01 X51.1981 Y29.6402
G01 X51.1975 Y29.6498
G01 X51.1969 Y29.6755
G01 X51.1990 Y29.7076
G01 X51.2042 Y29.7393
G01 X51.2106 Y29.7642
G01 X51.2134 Y29.7734
G01 X51.2213 Y29.7945
G01 X51.2249 Y29.8034
G01 X51.2362 Y29.8265
G01 X51.2409 Y29.8349
G01 X51.2527 Y29.8541
G01 X51.2582 Y29.8620
G01 X51.2738 Y29.8824
G01 X51.2910 Y29.9015
G01 X51.3002 Y29.9105
G01 X51.3219 Y29.9296
G01 X51.3452 Y29.9467
G01 X51.3730 Y29.9633
G01 X51.5328 Y30.0944
G01 X51.5590 Y30.1138
G01 X51.5870 Y30.1306
G01 X51.6166 Y30.1446
G01 X51.6473 Y30.1556
G01 X51.6790 Y30.1636
G01 X51.7113 Y30.1684
G01 X51.7407 Y30.1699
G01 X51.9581 Y30.1700
G01 X51.9907 Y30.1684
G01 X52.0230 Y30.1636
G01 X52.0484 Y30.1574
G01 X52.0609 Y30.1536
G01 X52.0855 Y30.1446
G01 X52.1092 Y30.1336
G01 X52.1179 Y30.1291
G01 X52.1403 Y30.1156
G01 X52.1484 Y30.1101
G01 X52.1693 Y30.0944
G01 X52.1935 Y30.0724
G01 X52.6217 Y29.6442
G01 X52.6414 Y29.6223
G01 X52.6609 Y29.5960
G01 X52.6776 Y29.5680
G01 X52.6916 Y29.5385
G01 X52.7026 Y29.5077
G01 X52.7106 Y29.4760
G01 X52.7154 Y29.4437
G01 X52.7170 Y29.4111
G01 X52.7170 Y23.9790
G01 X52.7154 Y23.9463
G01 X52.7106 Y23.9140
G01 X52.7044 Y23.8886
G01 X52.7016 Y23.8792
G01 X52.6940 Y23.8576
G01 X52.6890 Y23.8456
G01 X52.6776 Y23.8220
G01 X52.6609 Y23.7940
G01 X52.6414 Y23.7677
G01 X52.6217 Y23.7459
G01 X45.9975 Y17.1215
G01 X45.9757 Y17.1017
G01 X45.9563 Y17.0857
G01 X45.8595 Y16.9677
G01 X45.7875 Y16.8330
G01 X45.7432 Y16.6869
G01 X45.7282 Y16.5350
G01 X45.7306 Y16.5100
G01 X45.7320 Y16.4806
G01 X45.7320 Y13.7959
G01 X45.7304 Y13.7632
G01 X45.7267 Y13.7373
G01 X45.7241 Y13.7246
G01 X45.7176 Y13.6992
G01 X45.7090 Y13.6745
G01 X45.7040 Y13.6625
G01 X45.6926 Y13.6389
G01 X45.6758 Y13.6109
G01 X45.6564 Y13.5847
G01 X45.6367 Y13.5628
G01 X45.6152 Y13.5428
G01 X45.6011 Y13.5310
G01 X45.4417 Y13.3368
G01 X45.3233 Y13.1153
G01 X45.2504 Y12.8750
G01 X45.2320 Y12.6876
G01 X45.2320 Y11.9624
G01 X45.2504 Y11.7751
G01 X45.3233 Y11.5347
G01 X45.4417 Y11.3132
G01 X45.6011 Y11.1191
G01 X45.7952 Y10.9597
G01 X46.0167 Y10.8413
G01 X46.2571 Y10.7684
G01 X46.5070 Y10.7438
G01 X46.7570 Y10.7684
G01 X46.9973 Y10.8413
G01 X47.2188 Y10.9597
G01 X47.4130 Y11.1191
G01 X47.5723 Y11.3132
G01 X47.6907 Y11.5347
G01 X47.7636 Y11.7751
G01 X47.7821 Y11.9624
G01 X47.7821 Y12.6876
G01 X47.7636 Y12.8750
G01 X47.6907 Y13.1153
G01 X47.5723 Y13.3368
G01 X47.4130 Y13.5310
G01 X47.3989 Y13.5428
G01 X47.3773 Y13.5628
G01 X47.3576 Y13.5847
G01 X47.3382 Y13.6109
G01 X47.3246 Y13.6333
G01 X47.3184 Y13.6448
G01 X47.3074 Y13.6685
G01 X47.2984 Y13.6930
G01 X47.2947 Y13.7055
G01 X47.2885 Y13.7309
G01 X47.2837 Y13.7632
G01 X47.2821 Y13.7959
G01 X47.2821 Y16.0793
G01 X47.2837 Y16.1087
G01 X47.2873 Y16.1346
G01 X47.2899 Y16.1474
G01 X47.2964 Y16.1727
G01 X47.3051 Y16.1974
G01 X47.3100 Y16.2094
G01 X47.3214 Y16.2330
G01 X47.3347 Y16.2555
G01 X47.3419 Y16.2664
G01 X47.3576 Y16.2873
G01 X47.3796 Y16.3115
G01 X54.0016 Y22.9335
G01 X54.0233 Y22.9533
G01 X54.0427 Y22.9693
G01 X54.1396 Y23.0873
G01 X54.2115 Y23.2220
G01 X54.2558 Y23.3681
G01 X54.2708 Y23.5200
G01 X54.2684 Y23.5451
G01 X54.2671 Y23.5744
G01 X54.2671 Y29.8156
G01 X54.2684 Y29.8450
G01 X54.2708 Y29.8700
G01 X54.2558 Y30.0219
G01 X54.2115 Y30.1680
G01 X54.1396 Y30.3027
G01 X54.0427 Y30.4207
G01 X54.0233 Y30.4367
G01 X54.0016 Y30.4565
G01 X53.0036 Y31.4546
G01 X52.9837 Y31.4763
G01 X52.9677 Y31.4957
G01 X52.8497 Y31.5926
G01 X52.7150 Y31.6645
G01 X52.5689 Y31.7088
G01 X52.4170 Y31.7238
G01 X52.3920 Y31.7214
G01 X52.3626 Y31.7201
G01 X51.7440 Y31.7201
G01 X51.7146 Y31.7214
G01 X51.6855 Y31.7253
G01 X51.6727 Y31.7279
G01 X51.6473 Y31.7344
G01 X51.6196 Y31.7442
G01 X51.6106 Y31.7480
G01 X51.5842 Y31.7609
G01 X51.5590 Y31.7762
G01 X51.5379 Y31.7916
G01 X51.3709 Y31.9285
G01 X51.3550 Y31.9382
G01 X51.3313 Y31.9556
G01 X51.3239 Y31.9619
G01 X51.3069 Y31.9773
G01 X51.3001 Y31.9843
G01 X51.2826 Y32.0038
G01 X51.2632 Y32.0300
G01 X51.2464 Y32.0581
G01 X51.2337 Y32.0846
G01 X51.2301 Y32.0937
G01 X51.2214 Y32.1184
G01 X51.2149 Y32.1437
G01 X51.2123 Y32.1565
G01 X51.2087 Y32.1824
G01 X51.2072 Y32.2085
G01 X51.2072 Y32.2215
G01 X51.2087 Y32.2476
G01 X51.2135 Y32.2800
G01 X51.2197 Y32.3054
G01 X51.2234 Y32.3179
G01 X51.2324 Y32.3424
G01 X51.2434 Y32.3661
G01 X51.2496 Y32.3776
G01 X51.2632 Y32.4000
G01 X51.2786 Y32.4211
G01 X51.2869 Y32.4312
G01 X51.3046 Y32.4504
G01 X51.3263 Y32.4703
G01 X51.3339 Y32.4764
G01 X51.3523 Y32.4900
G01 X51.3709 Y32.5015
G01 X51.5328 Y32.6344
G01 X51.5537 Y32.6501
G01 X51.5617 Y32.6556
G01 X51.5870 Y32.6706
G01 X51.6106 Y32.6820
G01 X51.6227 Y32.6870
G01 X51.6473 Y32.6956
G01 X51.6727 Y32.7021
G01 X51.6855 Y32.7047
G01 X51.7113 Y32.7084
G01 X51.7407 Y32.7099
G01 X61.1021 Y32.7100
G01 X61.1347 Y32.7084
G01 X61.1606 Y32.7047
G01 X61.1734 Y32.7021
G01 X61.1987 Y32.6956
G01 X61.2234 Y32.6870
G01 X61.2354 Y32.6820
G01 X61.2590 Y32.6706
G01 X61.2870 Y32.6539
G01 X61.3081 Y32.6384
G01 X61.3182 Y32.6301
G01 X61.3375 Y32.6124
G01 X65.7004 Y28.2495
G01 X65.7181 Y28.2302
G01 X65.7264 Y28.2201
G01 X65.7419 Y28.1990
G01 X65.7554 Y28.1767
G01 X65.7616 Y28.1652
G01 X65.7726 Y28.1415
G01 X65.7816 Y28.1169
G01 X65.7845 Y28.1076
G01 X65.7916 Y28.0790
G01 X65.7956 Y28.0532
G01 X65.7968 Y28.0402
G01 X65.7980 Y28.0141
G01 X65.7980 Y16.4909
G01 X65.7966 Y16.4615
G01 X65.7942 Y16.4365
G01 X65.8092 Y16.2846
G01 X65.8535 Y16.1385
G01 X65.9255 Y16.0038
G01 X66.0223 Y15.8858
G01 X66.0418 Y15.8698
G01 X66.0635 Y15.8500
G01 X76.8764 Y5.0370
G01 X76.8984 Y5.0128
G01 X76.9179 Y4.9865
G01 X76.9314 Y4.9642
G01 X76.9376 Y4.9527
G01 X76.9473 Y4.9320
G01 X76.9510 Y4.9229
G01 X76.9596 Y4.8982
G01 X76.9676 Y4.8665
G01 X76.9724 Y4.8342
G01 X76.9738 Y4.8081
G01 X76.9740 Y2.6194
G01 X76.9726 Y2.5901
G01 X76.9702 Y2.5650
G01 X76.9852 Y2.4131
G01 X77.0295 Y2.2670
G01 X77.1015 Y2.1323
G01 X77.1983 Y2.0143
G01 X77.2178 Y1.9983
G01 X77.2395 Y1.9785
G01 X78.1785 Y1.0395
G01 X78.1983 Y1.0177
G01 X78.2143 Y0.9983
G01 X78.3323 Y0.9015
G01 X78.4670 Y0.8295
G01 X78.6131 Y0.7852
G01 X78.7650 Y0.7702
G01 X78.7901 Y0.7726
G01 X78.8194 Y0.7740
G01 X84.8066 Y0.7740
G01 X84.8360 Y0.7726
G01 X84.8610 Y0.7702
G01 X85.0129 Y0.7852
G01 X85.1590 Y0.8295
G01 X85.2937 Y0.9015
G01 X85.4117 Y0.9983
G01 X85.4277 Y1.0178
G01 X85.4476 Y1.0395
G01 X86.3866 Y1.9785
G01 X86.4083 Y1.9983
G01 X86.4277 Y2.0143
G01 X86.5246 Y2.1323
G01 X86.5965 Y2.2670
G01 X86.6408 Y2.4131
G01 X86.6558 Y2.5650
G01 X86.6534 Y2.5901
G01 X86.6521 Y2.6162
G01 X86.6521 Y2.7043
G01 X86.6537 Y2.7370
G01 X86.6579 Y2.7661
G01 X86.6599 Y2.7756
G01 X86.6664 Y2.8010
G01 X86.6762 Y2.8287
G01 X86.6800 Y2.8377
G01 X86.6899 Y2.8584
G01 X86.7047 Y2.8838
G01 X86.7119 Y2.8946
G01 X86.7276 Y2.9155
G01 X86.7451 Y2.9350
G01 X86.7519 Y2.9420
G01 X86.7713 Y2.9596
G01 X86.7789 Y2.9657
G01 X86.8000 Y2.9812
G01 X86.8224 Y2.9947
G01 X86.8310 Y2.9995
G01 X86.8546 Y3.0106
G01 X86.8822 Y3.0209
G01 X86.9737 Y3.0488
G01 X87.0389 Y3.0837
G01 X87.0960 Y3.1305
G01 X87.1429 Y3.1876
G01 X87.1777 Y3.2528
G01 X87.1991 Y3.3235
G01 X87.2080 Y3.4134
G01 X87.2080 Y5.7807
G01 X87.1991 Y5.8705
G01 X87.1777 Y5.9412
G01 X87.1429 Y6.0064
G01 X87.0960 Y6.0635
G01 X87.0389 Y6.1104
G01 X86.9737 Y6.1452
G01 X86.9030 Y6.1666
G01 X86.8132 Y6.1755
G01 X85.0450 Y6.1755
G01 X85.0156 Y6.1768
G01 X85.0059 Y6.1779
G01 X84.9801 Y6.1819
G01 X84.9484 Y6.1898
G01 X84.9176 Y6.2008
G01 X84.8881 Y6.2148
G01 X84.8600 Y6.2316
G01 X84.8338 Y6.2511
G01 X84.8096 Y6.2730
G01 X84.7876 Y6.2972
G01 X84.7682 Y6.3235
G01 X84.7546 Y6.3458
G01 X84.7484 Y6.3573
G01 X84.7387 Y6.3780
G01 X84.7351 Y6.3871
G01 X84.7264 Y6.4118
G01 X84.7185 Y6.4435
G01 X84.7137 Y6.4758
G01 X84.7121 Y6.5052
G01 X84.7121 Y9.5931
G01 X84.7134 Y9.6225
G01 X84.7187 Y9.6770
G01 X84.6922 Y9.9466
G01 X84.6135 Y10.2058
G01 X84.4859 Y10.4446
G01 X84.3140 Y10.6540
G01 X84.2717 Y10.6888
G01 X84.2500 Y10.7086
G01 X78.7136 Y16.2451
G01 X78.6916 Y16.2693
G01 X78.6759 Y16.2902
G01 X78.6687 Y16.3010
G01 X78.6569 Y16.3207
G01 X78.6524 Y16.3294
G01 X78.6414 Y16.3531
G01 X78.6304 Y16.3838
G01 X78.6225 Y16.4155
G01 X78.6180 Y16.4446
G01 X78.6172 Y16.4544
G01 X78.6161 Y16.4805
G01 X78.6161 Y44.3746
G01 X78.6177 Y44.4073
G01 X78.6213 Y44.4332
G01 X78.6239 Y44.4460
G01 X78.6295 Y44.4682
G01 X78.6324 Y44.4775
G01 X78.6414 Y44.5021
G01 X78.7555 Y44.7776
G01 X78.8161 Y45.0819
G01 X78.8161 Y45.3921
G01 X78.7555 Y45.6964
G01 X78.6414 Y45.9720
G01 X78.6324 Y45.9965
G01 X78.6287 Y46.0090
G01 X78.6219 Y46.0376
G01 X78.6177 Y46.0667
G01 X78.6161 Y46.0961
G01 X78.6161 Y52.6575
G01 X78.6177 Y52.6902
G01 X78.6219 Y52.7193
G01 X78.6287 Y52.7479
G01 X78.6324 Y52.7604
G01 X78.6414 Y52.7850
G01 X78.6554 Y52.8145
G01 X78.6722 Y52.8425
G01 X78.6876 Y52.8636
G01 X78.6959 Y52.8737
G01 X78.7136 Y52.8930
G01 X84.2500 Y58.4294
G01 X84.2717 Y58.4492
G01 X84.3140 Y58.4840
G01 X84.4859 Y58.6934
G01 X84.6135 Y58.9323
G01 X84.6922 Y59.1915
G01 X84.7187 Y59.4610
G01 X84.7134 Y59.5155
G01 X84.7121 Y59.5449
G01 X84.7121 Y71.4535
G01 X84.7137 Y71.4862
G01 X84.7179 Y71.5153
G01 X84.7247 Y71.5439
G01 X84.7284 Y71.5564
G01 X84.7374 Y71.5810
G01 X84.7514 Y71.6105
G01 X84.7647 Y71.6330
G01 X84.7719 Y71.6438
G01 X84.7876 Y71.6648
G01 X84.8073 Y71.6866
G01 X86.7900 Y73.6694
G01 X86.8117 Y73.6892
G01 X86.8540 Y73.7240
G01 X87.0259 Y73.9334
G01 X87.1535 Y74.1723
G01 X87.2322 Y74.4315
G01 X87.2587 Y74.7010
G01 X87.2534 Y74.7555
G01 X87.2521 Y74.7849
G01 X87.2521 Y82.9126
G01 X87.2322 Y83.1146
G01 X87.2062 Y83.2003
G01 X87.1992 Y83.2289
G01 X87.1947 Y83.2580
G01 X87.1854 Y83.3528
G01 X87.1094 Y83.6030
G01 X86.9862 Y83.8336
G01 X86.8203 Y84.0358
G01 X86.6181 Y84.2017
G01 X86.3875 Y84.3249
G01 X86.1373 Y84.4009
G01 X85.8770 Y84.4265
G01 X85.6168 Y84.4009
G01 X85.3665 Y84.3249
G01 X85.2020 Y84.2370
G01 X85.1754 Y84.2243
G01 X85.1479 Y84.2141
G01 X85.1385 Y84.2111
G01 X85.1100 Y84.2041
G01 X85.0841 Y84.2001
G01 X85.0711 Y84.1988
G01 X85.0450 Y84.1977
G01 X85.0124 Y84.1993
G01 X84.9801 Y84.2041
G01 X84.9484 Y84.2120
G01 X84.9176 Y84.2230
G01 X84.8881 Y84.2370
G01 X84.8600 Y84.2538
G01 X84.8338 Y84.2732
G01 X84.8096 Y84.2952
G01 X84.7876 Y84.3194
G01 X84.7682 Y84.3456
G01 X84.7514 Y84.3737
G01 X84.7374 Y84.4032
G01 X84.7264 Y84.4340
G01 X84.7185 Y84.4657
G01 X84.7145 Y84.4915
G01 X84.7132 Y84.5045
G01 X84.7121 Y84.5306
G01 X84.7121 Y85.1850
G01 X84.7134 Y85.2144
G01 X84.7145 Y85.2241
G01 X84.7185 Y85.2500
G01 X84.7247 Y85.2754
G01 X84.7284 Y85.2879
G01 X84.7374 Y85.3124
G01 X84.7484 Y85.3361
G01 X84.7546 Y85.3476
G01 X84.7682 Y85.3700
G01 X84.7836 Y85.3911
G01 X84.7919 Y85.4012
G01 X84.8096 Y85.4204
G01 X84.8289 Y85.4381
G01 X84.8389 Y85.4464
G01 X84.8600 Y85.4619
G01 X84.8881 Y85.4786
G01 X84.9116 Y85.4900
G01 X84.9237 Y85.4950
G01 X84.9484 Y85.5036
G01 X84.9737 Y85.5101
G01 X84.9865 Y85.5127
G01 X85.0124 Y85.5164
G01 X85.0450 Y85.5180
G01 X99.9015 Y85.5180
G01 X99.9342 Y85.5164
G01 X99.9601 Y85.5127
G01 X99.9729 Y85.5101
G01 X99.9982 Y85.5036
G01 X100.0290 Y85.4926
G01 X100.0585 Y85.4786
G01 X100.0838 Y85.4636
G01 X100.1076 Y85.4464
G01 X100.1177 Y85.4381
G01 X100.1370 Y85.4204
G01 X100.1547 Y85.4026
G01 X100.1701 Y85.3857
G01 X100.1784 Y85.3756
G01 X100.1956 Y85.3518
G01 X100.2106 Y85.3265
G01 X100.2233 Y85.2999
G01 X100.2336 Y85.2724
G01 X100.2374 Y85.2599
G01 X100.2436 Y85.2345
G01 X100.2480 Y85.2054
G01 X100.2488 Y85.1957
G01 X100.2500 Y85.1695
G01 X100.2500 Y84.7564
G01 X100.2484 Y84.7238
G01 X100.2436 Y84.6915
G01 X100.2356 Y84.6598
G01 X100.2246 Y84.6290
G01 X100.2106 Y84.5995
G01 X100.1939 Y84.5715
G01 X100.1744 Y84.5452
G01 X100.1524 Y84.5210
G01 X100.1282 Y84.4991
G01 X100.1073 Y84.4834
G01 X100.0993 Y84.4778
G01 X100.0740 Y84.4628
G01 X100.0504 Y84.4515
G01 X100.0383 Y84.4465
G01 X100.0137 Y84.4378
G01 X99.9883 Y84.4313
G01 X99.9755 Y84.4288
G01 X99.9496 Y84.4251
G01 X99.9203 Y84.4235
G01 X98.1489 Y84.4235
G01 X98.0590 Y84.4146
G01 X97.9883 Y84.3932
G01 X97.9231 Y84.3584
G01 X97.8660 Y84.3115
G01 X97.8192 Y84.2544
G01 X97.7843 Y84.1892
G01 X97.7629 Y84.1185
G01 X97.7540 Y84.0287
G01 X97.7540 Y81.6614
G01 X97.7629 Y81.5715
G01 X97.7843 Y81.5008
G01 X97.8192 Y81.4356
G01 X97.8660 Y81.3785
G01 X97.9231 Y81.3317
G01 X97.9883 Y81.2968
G01 X98.0799 Y81.2689
G01 X98.1074 Y81.2586
G01 X98.1281 Y81.2489
G01 X98.1368 Y81.2444
G01 X98.1620 Y81.2292
G01 X98.1882 Y81.2097
G01 X98.2124 Y81.1878
G01 X98.2301 Y81.1685
G01 X98.2364 Y81.1610
G01 X98.2501 Y81.1426
G01 X98.2573 Y81.1318
G01 X98.2721 Y81.1064
G01 X98.2820 Y81.0857
G01 X98.2858 Y81.0767
G01 X98.2956 Y81.0490
G01 X98.3036 Y81.0173
G01 X98.3084 Y80.9850
G01 X98.3099 Y80.9556
G01 X98.3100 Y70.0800
G01 X98.3088 Y70.0538
G01 X98.3076 Y70.0409
G01 X98.3036 Y70.0150
G01 X98.2974 Y69.9896
G01 X98.2936 Y69.9771
G01 X98.2846 Y69.9525
G01 X98.2736 Y69.9288
G01 X98.2674 Y69.9173
G01 X98.2539 Y69.8950
G01 X98.2384 Y69.8739
G01 X98.2301 Y69.8638
G01 X98.2124 Y69.8445
G01 X82.6952 Y54.3273
G01 X82.6733 Y54.3076
G01 X82.6524 Y54.2919
G01 X82.6415 Y54.2847
G01 X82.6190 Y54.2714
G01 X82.5954 Y54.2600
G01 X82.5834 Y54.2551
G01 X82.5587 Y54.2464
G01 X82.5334 Y54.2399
G01 X82.5238 Y54.2379
G01 X82.4979 Y54.2340
G01 X82.4882 Y54.2332
G01 X82.4653 Y54.2321
G01 X82.1856 Y54.2321
G01 X81.9199 Y54.1792
G01 X81.6697 Y54.0756
G01 X81.4445 Y53.9251
G01 X81.2529 Y53.7336
G01 X81.1025 Y53.5083
G01 X80.9988 Y53.2581
G01 X80.9460 Y52.9924
G01 X80.9460 Y52.7216
G01 X80.9988 Y52.4559
G01 X81.1025 Y52.2057
G01 X81.2529 Y51.9805
G01 X81.4445 Y51.7889
G01 X81.6703 Y51.6380
G01 X81.6969 Y51.6251
G01 X81.7165 Y51.6133
G01 X81.7247 Y51.6080
G01 X81.7483 Y51.5904
G01 X81.7678 Y51.5729
G01 X81.7748 Y51.5661
G01 X81.7923 Y51.5467
G01 X81.7984 Y51.5391
G01 X81.8120 Y51.5207
G01 X81.8275 Y51.4956
G01 X81.8336 Y51.4841
G01 X81.8434 Y51.4634
G01 X81.8470 Y51.4543
G01 X81.8557 Y51.4297
G01 X81.8636 Y51.3980
G01 X81.8684 Y51.3657
G01 X81.8700 Y51.3363
G01 X81.8698 Y51.3265
