(G-CODE GENERATED BY FLATCAM v8.993 - www.flatcam.org - Version Date: 2020/06/05)

(Name: cutous)
(Type: G-code from Geometry)
(Units: MM)

(Created on sexta, 31 julho 2020 at 14:16)

(This preprocessor is the default preprocessor used by FlatCAM.)
(It is made to work with MACH3 compatible motion controllers.)

(TOOL DIAMETER: 1.0 mm)
(Feedrate_XY: 120.0 mm/min)
(Feedrate_Z: 60.0 mm/min)
(Feedrate rapids 1500.0 mm/min)

(Z_Cut: -1.8 mm)
(DepthPerCut: 0.6 mm <=>3 passes)
(Z_Move: 2.0 mm)
(Z Start: None mm)
(Z End: 15.0 mm)
(Steps per circle: 64)
(Preprocessor Geometry: default)

(X range:   -0.6000 ...  123.5860  mm)
(Y range:   -0.6000 ...   90.0580  mm)

(Spindle Speed: 12000 RPM)
G21
G90
G94



G01 F120.00
G00 Z2.0000

M03 S12000
G00 X60.9430 Y-0.6000
G01 F60.00
G01 Z-0.6000
G01 F120.00
G01 X0.0000 Y-0.6000
G01 X-0.0588 Y-0.5971
G01 X-0.1171 Y-0.5885
G01 X-0.1742 Y-0.5742
G01 X-0.2296 Y-0.5543
G01 X-0.2828 Y-0.5292
G01 X-0.3333 Y-0.4989
G01 X-0.3806 Y-0.4638
G01 X-0.4243 Y-0.4243
G01 X-0.4638 Y-0.3806
G01 X-0.4989 Y-0.3333
G01 X-0.5292 Y-0.2828
G01 X-0.5543 Y-0.2296
G01 X-0.5742 Y-0.1742
G01 X-0.5885 Y-0.1171
G01 X-0.5971 Y-0.0588
G01 X-0.6000 Y0.0000
G01 X-0.6000 Y89.4580
G01 X-0.5971 Y89.5168
G01 X-0.5885 Y89.5751
G01 X-0.5742 Y89.6322
G01 X-0.5543 Y89.6876
G01 X-0.5292 Y89.7409
G01 X-0.4989 Y89.7914
G01 X-0.4638 Y89.8387
G01 X-0.4243 Y89.8823
G01 X-0.3806 Y89.9218
G01 X-0.3333 Y89.9569
G01 X-0.2828 Y89.9872
G01 X-0.2296 Y90.0124
G01 X-0.1742 Y90.0322
G01 X-0.1171 Y90.0465
G01 X-0.0588 Y90.0551
G01 X0.0000 Y90.0580
G01 X60.9430 Y90.0580
G00 X60.9430 Y90.0580
G01 F60.00
G01 Z-1.2000
G01 F120.00
G01 X0.0000 Y90.0580
G01 X-0.0588 Y90.0551
G01 X-0.1171 Y90.0465
G01 X-0.1742 Y90.0322
G01 X-0.2296 Y90.0124
G01 X-0.2828 Y89.9872
G01 X-0.3333 Y89.9569
G01 X-0.3806 Y89.9218
G01 X-0.4243 Y89.8823
G01 X-0.4638 Y89.8387
G01 X-0.4989 Y89.7914
G01 X-0.5292 Y89.7409
G01 X-0.5543 Y89.6876
G01 X-0.5742 Y89.6322
G01 X-0.5885 Y89.5751
G01 X-0.5971 Y89.5168
G01 X-0.6000 Y89.4580
G01 X-0.6000 Y0.0000
G01 X-0.5971 Y-0.0588
G01 X-0.5885 Y-0.1171
G01 X-0.5742 Y-0.1742
G01 X-0.5543 Y-0.2296
G01 X-0.5292 Y-0.2828
G01 X-0.4989 Y-0.3333
G01 X-0.4638 Y-0.3806
G01 X-0.4243 Y-0.4243
G01 X-0.3806 Y-0.4638
G01 X-0.3333 Y-0.4989
G01 X-0.2828 Y-0.5292
G01 X-0.2296 Y-0.5543
G01 X-0.1742 Y-0.5742
G01 X-0.1171 Y-0.5885
G01 X-0.0588 Y-0.5971
G01 X0.0000 Y-0.6000
G01 X60.9430 Y-0.6000
G00 X60.9430 Y-0.6000
G01 F60.00
G01 Z-1.8000
G01 F120.00
G01 X0.0000 Y-0.6000
G01 X-0.0588 Y-0.5971
G01 X-0.1171 Y-0.5885
G01 X-0.1742 Y-0.5742
G01 X-0.2296 Y-0.5543
G01 X-0.2828 Y-0.5292
G01 X-0.3333 Y-0.4989
G01 X-0.3806 Y-0.4638
G01 X-0.4243 Y-0.4243
G01 X-0.4638 Y-0.3806
G01 X-0.4989 Y-0.3333
G01 X-0.5292 Y-0.2828
G01 X-0.5543 Y-0.2296
G01 X-0.5742 Y-0.1742
G01 X-0.5885 Y-0.1171
G01 X-0.5971 Y-0.0588
G01 X-0.6000 Y0.0000
G01 X-0.6000 Y89.4580
G01 X-0.5971 Y89.5168
G01 X-0.5885 Y89.5751
G01 X-0.5742 Y89.6322
G01 X-0.5543 Y89.6876
G01 X-0.5292 Y89.7409
G01 X-0.4989 Y89.7914
G01 X-0.4638 Y89.8387
G01 X-0.4243 Y89.8823
G01 X-0.3806 Y89.9218
G01 X-0.3333 Y89.9569
G01 X-0.2828 Y89.9872
G01 X-0.2296 Y90.0124
G01 X-0.1742 Y90.0322
G01 X-0.1171 Y90.0465
G01 X-0.0588 Y90.0551
G01 X0.0000 Y90.0580
G01 X60.9430 Y90.0580
G00 Z2.0000
G00 X62.2430 Y90.0580
G01 F60.00
G01 Z-0.6000
G01 F120.00
G01 X122.9860 Y90.0580
G01 X123.0448 Y90.0551
G01 X123.1031 Y90.0465
G01 X123.1602 Y90.0322
G01 X123.2156 Y90.0124
G01 X123.2689 Y89.9872
G01 X123.3194 Y89.9569
G01 X123.3667 Y89.9218
G01 X123.4103 Y89.8823
G01 X123.4498 Y89.8387
G01 X123.4849 Y89.7914
G01 X123.5152 Y89.7409
G01 X123.5404 Y89.6876
G01 X123.5602 Y89.6322
G01 X123.5745 Y89.5751
G01 X123.5831 Y89.5168
G01 X123.5860 Y89.4580
G01 X123.5860 Y0.0000
G01 X123.5831 Y-0.0588
G01 X123.5745 Y-0.1171
G01 X123.5602 Y-0.1742
G01 X123.5404 Y-0.2296
G01 X123.5152 Y-0.2828
G01 X123.4849 Y-0.3333
G01 X123.4498 Y-0.3806
G01 X123.4103 Y-0.4243
G01 X123.3667 Y-0.4638
G01 X123.3194 Y-0.4989
G01 X123.2689 Y-0.5292
G01 X123.2156 Y-0.5543
G01 X123.1602 Y-0.5742
G01 X123.1031 Y-0.5885
G01 X123.0448 Y-0.5971
G01 X122.9860 Y-0.6000
G00 X122.9860 Y-0.6000
G01 F60.00
G01 Z-1.2000
G01 F120.00
G01 X123.0448 Y-0.5971
G01 X123.1031 Y-0.5885
G01 X123.1602 Y-0.5742
G01 X123.2156 Y-0.5543
G01 X123.2689 Y-0.5292
G01 X123.3194 Y-0.4989
G01 X123.3667 Y-0.4638
G01 X123.4103 Y-0.4243
G01 X123.4498 Y-0.3806
G01 X123.4849 Y-0.3333
G01 X123.5152 Y-0.2828
G01 X123.5404 Y-0.2296
G01 X123.5602 Y-0.1742
G01 X123.5745 Y-0.1171
G01 X123.5831 Y-0.0588
G01 X123.5860 Y0.0000
G01 X123.5860 Y89.4580
G01 X123.5831 Y89.5168
G01 X123.5745 Y89.5751
G01 X123.5602 Y89.6322
G01 X123.5404 Y89.6876
G01 X123.5152 Y89.7409
G01 X123.4849 Y89.7914
G01 X123.4498 Y89.8387
G01 X123.4103 Y89.8823
G01 X123.3667 Y89.9218
G01 X123.3194 Y89.9569
G01 X123.2689 Y89.9872
G01 X123.2156 Y90.0124
G01 X123.1602 Y90.0322
G01 X123.1031 Y90.0465
G01 X123.0448 Y90.0551
G01 X122.9860 Y90.0580
G01 X62.2430 Y90.0580
G00 X62.2430 Y90.0580
G01 F60.00
G01 Z-1.8000
G01 F120.00
G01 X122.9860 Y90.0580
G01 X123.0448 Y90.0551
G01 X123.1031 Y90.0465
G01 X123.1602 Y90.0322
G01 X123.2156 Y90.0124
G01 X123.2689 Y89.9872
G01 X123.3194 Y89.9569
G01 X123.3667 Y89.9218
G01 X123.4103 Y89.8823
G01 X123.4498 Y89.8387
G01 X123.4849 Y89.7914
G01 X123.5152 Y89.7409
G01 X123.5404 Y89.6876
G01 X123.5602 Y89.6322
G01 X123.5745 Y89.5751
G01 X123.5831 Y89.5168
G01 X123.5860 Y89.4580
G01 X123.5860 Y0.0000
G01 X123.5831 Y-0.0588
G01 X123.5745 Y-0.1171
G01 X123.5602 Y-0.1742
G01 X123.5404 Y-0.2296
G01 X123.5152 Y-0.2828
G01 X123.4849 Y-0.3333
G01 X123.4498 Y-0.3806
G01 X123.4103 Y-0.4243
G01 X123.3667 Y-0.4638
G01 X123.3194 Y-0.4989
G01 X123.2689 Y-0.5292
G01 X123.2156 Y-0.5543
G01 X123.1602 Y-0.5742
G01 X123.1031 Y-0.5885
G01 X123.0448 Y-0.5971
G01 X122.9860 Y-0.6000
G00 Z2.0000
G00 X122.9860 Y-0.6000
G01 F60.00
G01 Z-0.6000
G01 F120.00
G01 X62.2430 Y-0.6000
G00 X62.2430 Y-0.6000
G01 F60.00
G01 Z-1.2000
G01 F120.00
G01 X122.9860 Y-0.6000
G00 X122.9860 Y-0.6000
G01 F60.00
G01 Z-1.8000
G01 F120.00
G01 X62.2430 Y-0.6000
G00 Z2.0000
M05
G00 Z2.0000
G00 Z15.00

