(G-CODE GENERATED BY FLATCAM v8.993 - www.flatcam.org - Version Date: 2020/06/05)

(Name: drill_grandes2)
(Type: G-code from Geometry)
(Units: MM)

(Created on sexta, 31 julho 2020 at 11:15)

(This preprocessor is the default preprocessor used by FlatCAM.)
(It is made to work with MACH3 compatible motion controllers.)

(TOOL DIAMETER: 1.0 mm)
(Feedrate_XY: 120.0 mm/min)
(Feedrate_Z: 60.0 mm/min)
(Feedrate rapids 1500.0 mm/min)

(Z_Cut: -1.8 mm)
(DepthPerCut: 0.6000000000000001 mm <=>3 passes)
(Z_Move: 2.0 mm)
(Z Start: None mm)
(Z End: 15.0 mm)
(Steps per circle: 64)
(Preprocessor Geometry: default)

(X range:    2.9890 ...  119.9970  mm)
(Y range:    2.9890 ...   86.4690  mm)

(Spindle Speed: 12000 RPM)
G21
G90
G94



G01 F120.00
G00 Z2.0000

M03 S12000
G00 X5.1890 Y4.0890
G01 F60.00
G01 Z-0.6000
G01 F120.00
G01 X5.1837 Y3.9812
G01 X5.1679 Y3.8744
G01 X5.1416 Y3.7697
G01 X5.1053 Y3.6681
G01 X5.0591 Y3.5705
G01 X5.0036 Y3.4779
G01 X4.9393 Y3.3912
G01 X4.8668 Y3.3112
G01 X4.7868 Y3.2387
G01 X4.7001 Y3.1744
G01 X4.6075 Y3.1189
G01 X4.5100 Y3.0727
G01 X4.4083 Y3.0364
G01 X4.3036 Y3.0101
G01 X4.1968 Y2.9943
G01 X4.0890 Y2.9890
G01 X3.9812 Y2.9943
G01 X3.8744 Y3.0101
G01 X3.7697 Y3.0364
G01 X3.6681 Y3.0727
G01 X3.5705 Y3.1189
G01 X3.4779 Y3.1744
G01 X3.3912 Y3.2387
G01 X3.3112 Y3.3112
G01 X3.2387 Y3.3912
G01 X3.1744 Y3.4779
G01 X3.1189 Y3.5705
G01 X3.0727 Y3.6681
G01 X3.0364 Y3.7697
G01 X3.0101 Y3.8744
G01 X2.9943 Y3.9812
G01 X2.9890 Y4.0890
G01 X2.9943 Y4.1968
G01 X3.0101 Y4.3036
G01 X3.0364 Y4.4083
G01 X3.0727 Y4.5100
G01 X3.1189 Y4.6075
G01 X3.1744 Y4.7001
G01 X3.2387 Y4.7868
G01 X3.3112 Y4.8668
G01 X3.3912 Y4.9393
G01 X3.4779 Y5.0036
G01 X3.5705 Y5.0591
G01 X3.6681 Y5.1053
G01 X3.7697 Y5.1416
G01 X3.8744 Y5.1679
G01 X3.9812 Y5.1837
G01 X4.0890 Y5.1890
G01 X4.1968 Y5.1837
G01 X4.3036 Y5.1679
G01 X4.4083 Y5.1416
G01 X4.5100 Y5.1053
G01 X4.6075 Y5.0591
G01 X4.7001 Y5.0036
G01 X4.7868 Y4.9393
G01 X4.8668 Y4.8668
G01 X4.9393 Y4.7868
G01 X5.0036 Y4.7001
G01 X5.0591 Y4.6075
G01 X5.1053 Y4.5100
G01 X5.1416 Y4.4083
G01 X5.1679 Y4.3036
G01 X5.1837 Y4.1968
G01 X5.1890 Y4.0890
G00 X5.1890 Y4.0890
G01 F60.00
G01 Z-1.2000
G01 F120.00
G01 X5.1837 Y3.9812
G01 X5.1679 Y3.8744
G01 X5.1416 Y3.7697
G01 X5.1053 Y3.6681
G01 X5.0591 Y3.5705
G01 X5.0036 Y3.4779
G01 X4.9393 Y3.3912
G01 X4.8668 Y3.3112
G01 X4.7868 Y3.2387
G01 X4.7001 Y3.1744
G01 X4.6075 Y3.1189
G01 X4.5100 Y3.0727
G01 X4.4083 Y3.0364
G01 X4.3036 Y3.0101
G01 X4.1968 Y2.9943
G01 X4.0890 Y2.9890
G01 X3.9812 Y2.9943
G01 X3.8744 Y3.0101
G01 X3.7697 Y3.0364
G01 X3.6681 Y3.0727
G01 X3.5705 Y3.1189
G01 X3.4779 Y3.1744
G01 X3.3912 Y3.2387
G01 X3.3112 Y3.3112
G01 X3.2387 Y3.3912
G01 X3.1744 Y3.4779
G01 X3.1189 Y3.5705
G01 X3.0727 Y3.6681
G01 X3.0364 Y3.7697
G01 X3.0101 Y3.8744
G01 X2.9943 Y3.9812
G01 X2.9890 Y4.0890
G01 X2.9943 Y4.1968
G01 X3.0101 Y4.3036
G01 X3.0364 Y4.4083
G01 X3.0727 Y4.5100
G01 X3.1189 Y4.6075
G01 X3.1744 Y4.7001
G01 X3.2387 Y4.7868
G01 X3.3112 Y4.8668
G01 X3.3912 Y4.9393
G01 X3.4779 Y5.0036
G01 X3.5705 Y5.0591
G01 X3.6681 Y5.1053
G01 X3.7697 Y5.1416
G01 X3.8744 Y5.1679
G01 X3.9812 Y5.1837
G01 X4.0890 Y5.1890
G01 X4.1968 Y5.1837
G01 X4.3036 Y5.1679
G01 X4.4083 Y5.1416
G01 X4.5100 Y5.1053
G01 X4.6075 Y5.0591
G01 X4.7001 Y5.0036
G01 X4.7868 Y4.9393
G01 X4.8668 Y4.8668
G01 X4.9393 Y4.7868
G01 X5.0036 Y4.7001
G01 X5.0591 Y4.6075
G01 X5.1053 Y4.5100
G01 X5.1416 Y4.4083
G01 X5.1679 Y4.3036
G01 X5.1837 Y4.1968
G01 X5.1890 Y4.0890
G00 X5.1890 Y4.0890
G01 F60.00
G01 Z-1.8000
G01 F120.00
G01 X5.1837 Y3.9812
G01 X5.1679 Y3.8744
G01 X5.1416 Y3.7697
G01 X5.1053 Y3.6681
G01 X5.0591 Y3.5705
G01 X5.0036 Y3.4779
G01 X4.9393 Y3.3912
G01 X4.8668 Y3.3112
G01 X4.7868 Y3.2387
G01 X4.7001 Y3.1744
G01 X4.6075 Y3.1189
G01 X4.5100 Y3.0727
G01 X4.4083 Y3.0364
G01 X4.3036 Y3.0101
G01 X4.1968 Y2.9943
G01 X4.0890 Y2.9890
G01 X3.9812 Y2.9943
G01 X3.8744 Y3.0101
G01 X3.7697 Y3.0364
G01 X3.6681 Y3.0727
G01 X3.5705 Y3.1189
G01 X3.4779 Y3.1744
G01 X3.3912 Y3.2387
G01 X3.3112 Y3.3112
G01 X3.2387 Y3.3912
G01 X3.1744 Y3.4779
G01 X3.1189 Y3.5705
G01 X3.0727 Y3.6681
G01 X3.0364 Y3.7697
G01 X3.0101 Y3.8744
G01 X2.9943 Y3.9812
G01 X2.9890 Y4.0890
G01 X2.9943 Y4.1968
G01 X3.0101 Y4.3036
G01 X3.0364 Y4.4083
G01 X3.0727 Y4.5100
G01 X3.1189 Y4.6075
G01 X3.1744 Y4.7001
G01 X3.2387 Y4.7868
G01 X3.3112 Y4.8668
G01 X3.3912 Y4.9393
G01 X3.4779 Y5.0036
G01 X3.5705 Y5.0591
G01 X3.6681 Y5.1053
G01 X3.7697 Y5.1416
G01 X3.8744 Y5.1679
G01 X3.9812 Y5.1837
G01 X4.0890 Y5.1890
G01 X4.1968 Y5.1837
G01 X4.3036 Y5.1679
G01 X4.4083 Y5.1416
G01 X4.5100 Y5.1053
G01 X4.6075 Y5.0591
G01 X4.7001 Y5.0036
G01 X4.7868 Y4.9393
G01 X4.8668 Y4.8668
G01 X4.9393 Y4.7868
G01 X5.0036 Y4.7001
G01 X5.0591 Y4.6075
G01 X5.1053 Y4.5100
G01 X5.1416 Y4.4083
G01 X5.1679 Y4.3036
G01 X5.1837 Y4.1968
G01 X5.1890 Y4.0890
G00 Z2.0000
G00 X5.1890 Y85.3690
G01 F60.00
G01 Z-0.6000
G01 F120.00
G01 X5.1837 Y85.2612
G01 X5.1679 Y85.1544
G01 X5.1416 Y85.0497
G01 X5.1053 Y84.9481
G01 X5.0591 Y84.8505
G01 X5.0036 Y84.7579
G01 X4.9393 Y84.6712
G01 X4.8668 Y84.5912
G01 X4.7868 Y84.5187
G01 X4.7001 Y84.4544
G01 X4.6075 Y84.3989
G01 X4.5100 Y84.3527
G01 X4.4083 Y84.3164
G01 X4.3036 Y84.2901
G01 X4.1968 Y84.2743
G01 X4.0890 Y84.2690
G01 X3.9812 Y84.2743
G01 X3.8744 Y84.2901
G01 X3.7697 Y84.3164
G01 X3.6681 Y84.3527
G01 X3.5705 Y84.3989
G01 X3.4779 Y84.4544
G01 X3.3912 Y84.5187
G01 X3.3112 Y84.5912
G01 X3.2387 Y84.6712
G01 X3.1744 Y84.7579
G01 X3.1189 Y84.8505
G01 X3.0727 Y84.9481
G01 X3.0364 Y85.0497
G01 X3.0101 Y85.1544
G01 X2.9943 Y85.2612
G01 X2.9890 Y85.3690
G01 X2.9943 Y85.4768
G01 X3.0101 Y85.5836
G01 X3.0364 Y85.6883
G01 X3.0727 Y85.7900
G01 X3.1189 Y85.8875
G01 X3.1744 Y85.9801
G01 X3.2387 Y86.0668
G01 X3.3112 Y86.1468
G01 X3.3912 Y86.2193
G01 X3.4779 Y86.2836
G01 X3.5705 Y86.3391
G01 X3.6681 Y86.3853
G01 X3.7697 Y86.4216
G01 X3.8744 Y86.4479
G01 X3.9812 Y86.4637
G01 X4.0890 Y86.4690
G01 X4.1968 Y86.4637
G01 X4.3036 Y86.4479
G01 X4.4083 Y86.4216
G01 X4.5100 Y86.3853
G01 X4.6075 Y86.3391
G01 X4.7001 Y86.2836
G01 X4.7868 Y86.2193
G01 X4.8668 Y86.1468
G01 X4.9393 Y86.0668
G01 X5.0036 Y85.9801
G01 X5.0591 Y85.8875
G01 X5.1053 Y85.7900
G01 X5.1416 Y85.6883
G01 X5.1679 Y85.5836
G01 X5.1837 Y85.4768
G01 X5.1890 Y85.3690
G00 X5.1890 Y85.3690
G01 F60.00
G01 Z-1.2000
G01 F120.00
G01 X5.1837 Y85.2612
G01 X5.1679 Y85.1544
G01 X5.1416 Y85.0497
G01 X5.1053 Y84.9481
G01 X5.0591 Y84.8505
G01 X5.0036 Y84.7579
G01 X4.9393 Y84.6712
G01 X4.8668 Y84.5912
G01 X4.7868 Y84.5187
G01 X4.7001 Y84.4544
G01 X4.6075 Y84.3989
G01 X4.5100 Y84.3527
G01 X4.4083 Y84.3164
G01 X4.3036 Y84.2901
G01 X4.1968 Y84.2743
G01 X4.0890 Y84.2690
G01 X3.9812 Y84.2743
G01 X3.8744 Y84.2901
G01 X3.7697 Y84.3164
G01 X3.6681 Y84.3527
G01 X3.5705 Y84.3989
G01 X3.4779 Y84.4544
G01 X3.3912 Y84.5187
G01 X3.3112 Y84.5912
G01 X3.2387 Y84.6712
G01 X3.1744 Y84.7579
G01 X3.1189 Y84.8505
G01 X3.0727 Y84.9481
G01 X3.0364 Y85.0497
G01 X3.0101 Y85.1544
G01 X2.9943 Y85.2612
G01 X2.9890 Y85.3690
G01 X2.9943 Y85.4768
G01 X3.0101 Y85.5836
G01 X3.0364 Y85.6883
G01 X3.0727 Y85.7900
G01 X3.1189 Y85.8875
G01 X3.1744 Y85.9801
G01 X3.2387 Y86.0668
G01 X3.3112 Y86.1468
G01 X3.3912 Y86.2193
G01 X3.4779 Y86.2836
G01 X3.5705 Y86.3391
G01 X3.6681 Y86.3853
G01 X3.7697 Y86.4216
G01 X3.8744 Y86.4479
G01 X3.9812 Y86.4637
G01 X4.0890 Y86.4690
G01 X4.1968 Y86.4637
G01 X4.3036 Y86.4479
G01 X4.4083 Y86.4216
G01 X4.5100 Y86.3853
G01 X4.6075 Y86.3391
G01 X4.7001 Y86.2836
G01 X4.7868 Y86.2193
G01 X4.8668 Y86.1468
G01 X4.9393 Y86.0668
G01 X5.0036 Y85.9801
G01 X5.0591 Y85.8875
G01 X5.1053 Y85.7900
G01 X5.1416 Y85.6883
G01 X5.1679 Y85.5836
G01 X5.1837 Y85.4768
G01 X5.1890 Y85.3690
G00 X5.1890 Y85.3690
G01 F60.00
G01 Z-1.8000
G01 F120.00
G01 X5.1837 Y85.2612
G01 X5.1679 Y85.1544
G01 X5.1416 Y85.0497
G01 X5.1053 Y84.9481
G01 X5.0591 Y84.8505
G01 X5.0036 Y84.7579
G01 X4.9393 Y84.6712
G01 X4.8668 Y84.5912
G01 X4.7868 Y84.5187
G01 X4.7001 Y84.4544
G01 X4.6075 Y84.3989
G01 X4.5100 Y84.3527
G01 X4.4083 Y84.3164
G01 X4.3036 Y84.2901
G01 X4.1968 Y84.2743
G01 X4.0890 Y84.2690
G01 X3.9812 Y84.2743
G01 X3.8744 Y84.2901
G01 X3.7697 Y84.3164
G01 X3.6681 Y84.3527
G01 X3.5705 Y84.3989
G01 X3.4779 Y84.4544
G01 X3.3912 Y84.5187
G01 X3.3112 Y84.5912
G01 X3.2387 Y84.6712
G01 X3.1744 Y84.7579
G01 X3.1189 Y84.8505
G01 X3.0727 Y84.9481
G01 X3.0364 Y85.0497
G01 X3.0101 Y85.1544
G01 X2.9943 Y85.2612
G01 X2.9890 Y85.3690
G01 X2.9943 Y85.4768
G01 X3.0101 Y85.5836
G01 X3.0364 Y85.6883
G01 X3.0727 Y85.7900
G01 X3.1189 Y85.8875
G01 X3.1744 Y85.9801
G01 X3.2387 Y86.0668
G01 X3.3112 Y86.1468
G01 X3.3912 Y86.2193
G01 X3.4779 Y86.2836
G01 X3.5705 Y86.3391
G01 X3.6681 Y86.3853
G01 X3.7697 Y86.4216
G01 X3.8744 Y86.4479
G01 X3.9812 Y86.4637
G01 X4.0890 Y86.4690
G01 X4.1968 Y86.4637
G01 X4.3036 Y86.4479
G01 X4.4083 Y86.4216
G01 X4.5100 Y86.3853
G01 X4.6075 Y86.3391
G01 X4.7001 Y86.2836
G01 X4.7868 Y86.2193
G01 X4.8668 Y86.1468
G01 X4.9393 Y86.0668
G01 X5.0036 Y85.9801
G01 X5.0591 Y85.8875
G01 X5.1053 Y85.7900
G01 X5.1416 Y85.6883
G01 X5.1679 Y85.5836
G01 X5.1837 Y85.4768
G01 X5.1890 Y85.3690
G00 Z2.0000
G00 X119.9970 Y85.3690
G01 F60.00
G01 Z-0.6000
G01 F120.00
G01 X119.9917 Y85.2612
G01 X119.9759 Y85.1544
G01 X119.9496 Y85.0497
G01 X119.9133 Y84.9481
G01 X119.8671 Y84.8505
G01 X119.8116 Y84.7579
G01 X119.7473 Y84.6712
G01 X119.6748 Y84.5912
G01 X119.5948 Y84.5187
G01 X119.5081 Y84.4544
G01 X119.4155 Y84.3989
G01 X119.3180 Y84.3527
G01 X119.2163 Y84.3164
G01 X119.1116 Y84.2901
G01 X119.0048 Y84.2743
G01 X118.8970 Y84.2690
G01 X118.7892 Y84.2743
G01 X118.6824 Y84.2901
G01 X118.5777 Y84.3164
G01 X118.4761 Y84.3527
G01 X118.3785 Y84.3989
G01 X118.2859 Y84.4544
G01 X118.1992 Y84.5187
G01 X118.1192 Y84.5912
G01 X118.0467 Y84.6712
G01 X117.9824 Y84.7579
G01 X117.9269 Y84.8505
G01 X117.8807 Y84.9481
G01 X117.8444 Y85.0497
G01 X117.8181 Y85.1544
G01 X117.8023 Y85.2612
G01 X117.7970 Y85.3690
G01 X117.8023 Y85.4768
G01 X117.8181 Y85.5836
G01 X117.8444 Y85.6883
G01 X117.8807 Y85.7900
G01 X117.9269 Y85.8875
G01 X117.9824 Y85.9801
G01 X118.0467 Y86.0668
G01 X118.1192 Y86.1468
G01 X118.1992 Y86.2193
G01 X118.2859 Y86.2836
G01 X118.3785 Y86.3391
G01 X118.4761 Y86.3853
G01 X118.5777 Y86.4216
G01 X118.6824 Y86.4479
G01 X118.7892 Y86.4637
G01 X118.8970 Y86.4690
G01 X119.0048 Y86.4637
G01 X119.1116 Y86.4479
G01 X119.2163 Y86.4216
G01 X119.3180 Y86.3853
G01 X119.4155 Y86.3391
G01 X119.5081 Y86.2836
G01 X119.5948 Y86.2193
G01 X119.6748 Y86.1468
G01 X119.7473 Y86.0668
G01 X119.8116 Y85.9801
G01 X119.8671 Y85.8875
G01 X119.9133 Y85.7900
G01 X119.9496 Y85.6883
G01 X119.9759 Y85.5836
G01 X119.9917 Y85.4768
G01 X119.9970 Y85.3690
G00 X119.9970 Y85.3690
G01 F60.00
G01 Z-1.2000
G01 F120.00
G01 X119.9917 Y85.2612
G01 X119.9759 Y85.1544
G01 X119.9496 Y85.0497
G01 X119.9133 Y84.9481
G01 X119.8671 Y84.8505
G01 X119.8116 Y84.7579
G01 X119.7473 Y84.6712
G01 X119.6748 Y84.5912
G01 X119.5948 Y84.5187
G01 X119.5081 Y84.4544
G01 X119.4155 Y84.3989
G01 X119.3180 Y84.3527
G01 X119.2163 Y84.3164
G01 X119.1116 Y84.2901
G01 X119.0048 Y84.2743
G01 X118.8970 Y84.2690
G01 X118.7892 Y84.2743
G01 X118.6824 Y84.2901
G01 X118.5777 Y84.3164
G01 X118.4761 Y84.3527
G01 X118.3785 Y84.3989
G01 X118.2859 Y84.4544
G01 X118.1992 Y84.5187
G01 X118.1192 Y84.5912
G01 X118.0467 Y84.6712
G01 X117.9824 Y84.7579
G01 X117.9269 Y84.8505
G01 X117.8807 Y84.9481
G01 X117.8444 Y85.0497
G01 X117.8181 Y85.1544
G01 X117.8023 Y85.2612
G01 X117.7970 Y85.3690
G01 X117.8023 Y85.4768
G01 X117.8181 Y85.5836
G01 X117.8444 Y85.6883
G01 X117.8807 Y85.7900
G01 X117.9269 Y85.8875
G01 X117.9824 Y85.9801
G01 X118.0467 Y86.0668
G01 X118.1192 Y86.1468
G01 X118.1992 Y86.2193
G01 X118.2859 Y86.2836
G01 X118.3785 Y86.3391
G01 X118.4761 Y86.3853
G01 X118.5777 Y86.4216
G01 X118.6824 Y86.4479
G01 X118.7892 Y86.4637
G01 X118.8970 Y86.4690
G01 X119.0048 Y86.4637
G01 X119.1116 Y86.4479
G01 X119.2163 Y86.4216
G01 X119.3180 Y86.3853
G01 X119.4155 Y86.3391
G01 X119.5081 Y86.2836
G01 X119.5948 Y86.2193
G01 X119.6748 Y86.1468
G01 X119.7473 Y86.0668
G01 X119.8116 Y85.9801
G01 X119.8671 Y85.8875
G01 X119.9133 Y85.7900
G01 X119.9496 Y85.6883
G01 X119.9759 Y85.5836
G01 X119.9917 Y85.4768
G01 X119.9970 Y85.3690
G00 X119.9970 Y85.3690
G01 F60.00
G01 Z-1.8000
G01 F120.00
G01 X119.9917 Y85.2612
G01 X119.9759 Y85.1544
G01 X119.9496 Y85.0497
G01 X119.9133 Y84.9481
G01 X119.8671 Y84.8505
G01 X119.8116 Y84.7579
G01 X119.7473 Y84.6712
G01 X119.6748 Y84.5912
G01 X119.5948 Y84.5187
G01 X119.5081 Y84.4544
G01 X119.4155 Y84.3989
G01 X119.3180 Y84.3527
G01 X119.2163 Y84.3164
G01 X119.1116 Y84.2901
G01 X119.0048 Y84.2743
G01 X118.8970 Y84.2690
G01 X118.7892 Y84.2743
G01 X118.6824 Y84.2901
G01 X118.5777 Y84.3164
G01 X118.4761 Y84.3527
G01 X118.3785 Y84.3989
G01 X118.2859 Y84.4544
G01 X118.1992 Y84.5187
G01 X118.1192 Y84.5912
G01 X118.0467 Y84.6712
G01 X117.9824 Y84.7579
G01 X117.9269 Y84.8505
G01 X117.8807 Y84.9481
G01 X117.8444 Y85.0497
G01 X117.8181 Y85.1544
G01 X117.8023 Y85.2612
G01 X117.7970 Y85.3690
G01 X117.8023 Y85.4768
G01 X117.8181 Y85.5836
G01 X117.8444 Y85.6883
G01 X117.8807 Y85.7900
G01 X117.9269 Y85.8875
G01 X117.9824 Y85.9801
G01 X118.0467 Y86.0668
G01 X118.1192 Y86.1468
G01 X118.1992 Y86.2193
G01 X118.2859 Y86.2836
G01 X118.3785 Y86.3391
G01 X118.4761 Y86.3853
G01 X118.5777 Y86.4216
G01 X118.6824 Y86.4479
G01 X118.7892 Y86.4637
G01 X118.8970 Y86.4690
G01 X119.0048 Y86.4637
G01 X119.1116 Y86.4479
G01 X119.2163 Y86.4216
G01 X119.3180 Y86.3853
G01 X119.4155 Y86.3391
G01 X119.5081 Y86.2836
G01 X119.5948 Y86.2193
G01 X119.6748 Y86.1468
G01 X119.7473 Y86.0668
G01 X119.8116 Y85.9801
G01 X119.8671 Y85.8875
G01 X119.9133 Y85.7900
G01 X119.9496 Y85.6883
G01 X119.9759 Y85.5836
G01 X119.9917 Y85.4768
G01 X119.9970 Y85.3690
G00 Z2.0000
G00 X119.9970 Y4.0890
G01 F60.00
G01 Z-0.6000
G01 F120.00
G01 X119.9917 Y3.9812
G01 X119.9759 Y3.8744
G01 X119.9496 Y3.7697
G01 X119.9133 Y3.6681
G01 X119.8671 Y3.5705
G01 X119.8116 Y3.4779
G01 X119.7473 Y3.3912
G01 X119.6748 Y3.3112
G01 X119.5948 Y3.2387
G01 X119.5081 Y3.1744
G01 X119.4155 Y3.1189
G01 X119.3180 Y3.0727
G01 X119.2163 Y3.0364
G01 X119.1116 Y3.0101
G01 X119.0048 Y2.9943
G01 X118.8970 Y2.9890
G01 X118.7892 Y2.9943
G01 X118.6824 Y3.0101
G01 X118.5777 Y3.0364
G01 X118.4761 Y3.0727
G01 X118.3785 Y3.1189
G01 X118.2859 Y3.1744
G01 X118.1992 Y3.2387
G01 X118.1192 Y3.3112
G01 X118.0467 Y3.3912
G01 X117.9824 Y3.4779
G01 X117.9269 Y3.5705
G01 X117.8807 Y3.6681
G01 X117.8444 Y3.7697
G01 X117.8181 Y3.8744
G01 X117.8023 Y3.9812
G01 X117.7970 Y4.0890
G01 X117.8023 Y4.1968
G01 X117.8181 Y4.3036
G01 X117.8444 Y4.4083
G01 X117.8807 Y4.5100
G01 X117.9269 Y4.6075
G01 X117.9824 Y4.7001
G01 X118.0467 Y4.7868
G01 X118.1192 Y4.8668
G01 X118.1992 Y4.9393
G01 X118.2859 Y5.0036
G01 X118.3785 Y5.0591
G01 X118.4761 Y5.1053
G01 X118.5777 Y5.1416
G01 X118.6824 Y5.1679
G01 X118.7892 Y5.1837
G01 X118.8970 Y5.1890
G01 X119.0048 Y5.1837
G01 X119.1116 Y5.1679
G01 X119.2163 Y5.1416
G01 X119.3180 Y5.1053
G01 X119.4155 Y5.0591
G01 X119.5081 Y5.0036
G01 X119.5948 Y4.9393
G01 X119.6748 Y4.8668
G01 X119.7473 Y4.7868
G01 X119.8116 Y4.7001
G01 X119.8671 Y4.6075
G01 X119.9133 Y4.5100
G01 X119.9496 Y4.4083
G01 X119.9759 Y4.3036
G01 X119.9917 Y4.1968
G01 X119.9970 Y4.0890
G00 X119.9970 Y4.0890
G01 F60.00
G01 Z-1.2000
G01 F120.00
G01 X119.9917 Y3.9812
G01 X119.9759 Y3.8744
G01 X119.9496 Y3.7697
G01 X119.9133 Y3.6681
G01 X119.8671 Y3.5705
G01 X119.8116 Y3.4779
G01 X119.7473 Y3.3912
G01 X119.6748 Y3.3112
G01 X119.5948 Y3.2387
G01 X119.5081 Y3.1744
G01 X119.4155 Y3.1189
G01 X119.3180 Y3.0727
G01 X119.2163 Y3.0364
G01 X119.1116 Y3.0101
G01 X119.0048 Y2.9943
G01 X118.8970 Y2.9890
G01 X118.7892 Y2.9943
G01 X118.6824 Y3.0101
G01 X118.5777 Y3.0364
G01 X118.4761 Y3.0727
G01 X118.3785 Y3.1189
G01 X118.2859 Y3.1744
G01 X118.1992 Y3.2387
G01 X118.1192 Y3.3112
G01 X118.0467 Y3.3912
G01 X117.9824 Y3.4779
G01 X117.9269 Y3.5705
G01 X117.8807 Y3.6681
G01 X117.8444 Y3.7697
G01 X117.8181 Y3.8744
G01 X117.8023 Y3.9812
G01 X117.7970 Y4.0890
G01 X117.8023 Y4.1968
G01 X117.8181 Y4.3036
G01 X117.8444 Y4.4083
G01 X117.8807 Y4.5100
G01 X117.9269 Y4.6075
G01 X117.9824 Y4.7001
G01 X118.0467 Y4.7868
G01 X118.1192 Y4.8668
G01 X118.1992 Y4.9393
G01 X118.2859 Y5.0036
G01 X118.3785 Y5.0591
G01 X118.4761 Y5.1053
G01 X118.5777 Y5.1416
G01 X118.6824 Y5.1679
G01 X118.7892 Y5.1837
G01 X118.8970 Y5.1890
G01 X119.0048 Y5.1837
G01 X119.1116 Y5.1679
G01 X119.2163 Y5.1416
G01 X119.3180 Y5.1053
G01 X119.4155 Y5.0591
G01 X119.5081 Y5.0036
G01 X119.5948 Y4.9393
G01 X119.6748 Y4.8668
G01 X119.7473 Y4.7868
G01 X119.8116 Y4.7001
G01 X119.8671 Y4.6075
G01 X119.9133 Y4.5100
G01 X119.9496 Y4.4083
G01 X119.9759 Y4.3036
G01 X119.9917 Y4.1968
G01 X119.9970 Y4.0890
G00 X119.9970 Y4.0890
G01 F60.00
G01 Z-1.8000
G01 F120.00
G01 X119.9917 Y3.9812
G01 X119.9759 Y3.8744
G01 X119.9496 Y3.7697
G01 X119.9133 Y3.6681
G01 X119.8671 Y3.5705
G01 X119.8116 Y3.4779
G01 X119.7473 Y3.3912
G01 X119.6748 Y3.3112
G01 X119.5948 Y3.2387
G01 X119.5081 Y3.1744
G01 X119.4155 Y3.1189
G01 X119.3180 Y3.0727
G01 X119.2163 Y3.0364
G01 X119.1116 Y3.0101
G01 X119.0048 Y2.9943
G01 X118.8970 Y2.9890
G01 X118.7892 Y2.9943
G01 X118.6824 Y3.0101
G01 X118.5777 Y3.0364
G01 X118.4761 Y3.0727
G01 X118.3785 Y3.1189
G01 X118.2859 Y3.1744
G01 X118.1992 Y3.2387
G01 X118.1192 Y3.3112
G01 X118.0467 Y3.3912
G01 X117.9824 Y3.4779
G01 X117.9269 Y3.5705
G01 X117.8807 Y3.6681
G01 X117.8444 Y3.7697
G01 X117.8181 Y3.8744
G01 X117.8023 Y3.9812
G01 X117.7970 Y4.0890
G01 X117.8023 Y4.1968
G01 X117.8181 Y4.3036
G01 X117.8444 Y4.4083
G01 X117.8807 Y4.5100
G01 X117.9269 Y4.6075
G01 X117.9824 Y4.7001
G01 X118.0467 Y4.7868
G01 X118.1192 Y4.8668
G01 X118.1992 Y4.9393
G01 X118.2859 Y5.0036
G01 X118.3785 Y5.0591
G01 X118.4761 Y5.1053
G01 X118.5777 Y5.1416
G01 X118.6824 Y5.1679
G01 X118.7892 Y5.1837
G01 X118.8970 Y5.1890
G01 X119.0048 Y5.1837
G01 X119.1116 Y5.1679
G01 X119.2163 Y5.1416
G01 X119.3180 Y5.1053
G01 X119.4155 Y5.0591
G01 X119.5081 Y5.0036
G01 X119.5948 Y4.9393
G01 X119.6748 Y4.8668
G01 X119.7473 Y4.7868
G01 X119.8116 Y4.7001
G01 X119.8671 Y4.6075
G01 X119.9133 Y4.5100
G01 X119.9496 Y4.4083
G01 X119.9759 Y4.3036
G01 X119.9917 Y4.1968
G01 X119.9970 Y4.0890
G00 Z2.0000
M05
G00 Z2.0000
G00 Z15.00

