(G-CODE GENERATED BY FLATCAM v8.993 - www.flatcam.org - Version Date: 2020/06/05)

(Name: drill_grandes1)
(Type: G-code from Geometry)
(Units: MM)

(Created on sexta, 31 julho 2020 at 11:14)

(This preprocessor is the default preprocessor used by FlatCAM.)
(It is made to work with MACH3 compatible motion controllers.)

(TOOL DIAMETER: 1.0 mm)
(Feedrate_XY: 120.0 mm/min)
(Feedrate_Z: 60.0 mm/min)
(Feedrate rapids 1500.0 mm/min)

(Z_Cut: -1.8 mm)
(DepthPerCut: 0.6 mm <=>3 passes)
(Z_Move: 2.0 mm)
(Z Start: None mm)
(Z End: 15.0 mm)
(Steps per circle: 64)
(Preprocessor Geometry: default)

(X range:    7.0370 ...  113.5690  mm)
(Y range:    4.5470 ...   82.8950  mm)

(Spindle Speed: 12000 RPM)
G21
G90
G94



G01 F120.00
G00 Z2.0000

M03 S12000
G00 X18.8710 Y4.5970
G01 F60.00
G01 Z-0.6000
G01 F120.00
G01 X18.8701 Y4.5873
G01 X18.8672 Y4.5779
G01 X18.8626 Y4.5692
G01 X18.8564 Y4.5617
G01 X18.8488 Y4.5554
G01 X18.8401 Y4.5508
G01 X18.8308 Y4.5480
G01 X18.8210 Y4.5470
G01 X18.8113 Y4.5480
G01 X18.8019 Y4.5508
G01 X18.7932 Y4.5554
G01 X18.7857 Y4.5617
G01 X18.7794 Y4.5692
G01 X18.7748 Y4.5779
G01 X18.7720 Y4.5873
G01 X18.7710 Y4.5970
G01 X18.7720 Y4.6068
G01 X18.7748 Y4.6161
G01 X18.7794 Y4.6248
G01 X18.7857 Y4.6324
G01 X18.7932 Y4.6386
G01 X18.8019 Y4.6432
G01 X18.8113 Y4.6461
G01 X18.8210 Y4.6470
G01 X18.8308 Y4.6461
G01 X18.8401 Y4.6432
G01 X18.8488 Y4.6386
G01 X18.8564 Y4.6324
G01 X18.8626 Y4.6248
G01 X18.8672 Y4.6161
G01 X18.8701 Y4.6068
G01 X18.8710 Y4.5970
G00 X18.8710 Y4.5970
G01 F60.00
G01 Z-1.2000
G01 F120.00
G01 X18.8701 Y4.5873
G01 X18.8672 Y4.5779
G01 X18.8626 Y4.5692
G01 X18.8564 Y4.5617
G01 X18.8488 Y4.5554
G01 X18.8401 Y4.5508
G01 X18.8308 Y4.5480
G01 X18.8210 Y4.5470
G01 X18.8113 Y4.5480
G01 X18.8019 Y4.5508
G01 X18.7932 Y4.5554
G01 X18.7857 Y4.5617
G01 X18.7794 Y4.5692
G01 X18.7748 Y4.5779
G01 X18.7720 Y4.5873
G01 X18.7710 Y4.5970
G01 X18.7720 Y4.6068
G01 X18.7748 Y4.6161
G01 X18.7794 Y4.6248
G01 X18.7857 Y4.6324
G01 X18.7932 Y4.6386
G01 X18.8019 Y4.6432
G01 X18.8113 Y4.6461
G01 X18.8210 Y4.6470
G01 X18.8308 Y4.6461
G01 X18.8401 Y4.6432
G01 X18.8488 Y4.6386
G01 X18.8564 Y4.6324
G01 X18.8626 Y4.6248
G01 X18.8672 Y4.6161
G01 X18.8701 Y4.6068
G01 X18.8710 Y4.5970
G00 X18.8710 Y4.5970
G01 F60.00
G01 Z-1.8000
G01 F120.00
G01 X18.8701 Y4.5873
G01 X18.8672 Y4.5779
G01 X18.8626 Y4.5692
G01 X18.8564 Y4.5617
G01 X18.8488 Y4.5554
G01 X18.8401 Y4.5508
G01 X18.8308 Y4.5480
G01 X18.8210 Y4.5470
G01 X18.8113 Y4.5480
G01 X18.8019 Y4.5508
G01 X18.7932 Y4.5554
G01 X18.7857 Y4.5617
G01 X18.7794 Y4.5692
G01 X18.7748 Y4.5779
G01 X18.7720 Y4.5873
G01 X18.7710 Y4.5970
G01 X18.7720 Y4.6068
G01 X18.7748 Y4.6161
G01 X18.7794 Y4.6248
G01 X18.7857 Y4.6324
G01 X18.7932 Y4.6386
G01 X18.8019 Y4.6432
G01 X18.8113 Y4.6461
G01 X18.8210 Y4.6470
G01 X18.8308 Y4.6461
G01 X18.8401 Y4.6432
G01 X18.8488 Y4.6386
G01 X18.8564 Y4.6324
G01 X18.8626 Y4.6248
G01 X18.8672 Y4.6161
G01 X18.8701 Y4.6068
G01 X18.8710 Y4.5970
G00 Z2.0000
G00 X21.4110 Y4.5970
G01 F60.00
G01 Z-0.6000
G01 F120.00
G01 X21.4101 Y4.5873
G01 X21.4072 Y4.5779
G01 X21.4026 Y4.5692
G01 X21.3964 Y4.5617
G01 X21.3888 Y4.5554
G01 X21.3801 Y4.5508
G01 X21.3708 Y4.5480
G01 X21.3610 Y4.5470
G01 X21.3513 Y4.5480
G01 X21.3419 Y4.5508
G01 X21.3332 Y4.5554
G01 X21.3257 Y4.5617
G01 X21.3194 Y4.5692
G01 X21.3148 Y4.5779
G01 X21.3120 Y4.5873
G01 X21.3110 Y4.5970
G01 X21.3120 Y4.6068
G01 X21.3148 Y4.6161
G01 X21.3194 Y4.6248
G01 X21.3257 Y4.6324
G01 X21.3332 Y4.6386
G01 X21.3419 Y4.6432
G01 X21.3513 Y4.6461
G01 X21.3610 Y4.6470
G01 X21.3708 Y4.6461
G01 X21.3801 Y4.6432
G01 X21.3888 Y4.6386
G01 X21.3964 Y4.6324
G01 X21.4026 Y4.6248
G01 X21.4072 Y4.6161
G01 X21.4101 Y4.6068
G01 X21.4110 Y4.5970
G00 X21.4110 Y4.5970
G01 F60.00
G01 Z-1.2000
G01 F120.00
G01 X21.4101 Y4.5873
G01 X21.4072 Y4.5779
G01 X21.4026 Y4.5692
G01 X21.3964 Y4.5617
G01 X21.3888 Y4.5554
G01 X21.3801 Y4.5508
G01 X21.3708 Y4.5480
G01 X21.3610 Y4.5470
G01 X21.3513 Y4.5480
G01 X21.3419 Y4.5508
G01 X21.3332 Y4.5554
G01 X21.3257 Y4.5617
G01 X21.3194 Y4.5692
G01 X21.3148 Y4.5779
G01 X21.3120 Y4.5873
G01 X21.3110 Y4.5970
G01 X21.3120 Y4.6068
G01 X21.3148 Y4.6161
G01 X21.3194 Y4.6248
G01 X21.3257 Y4.6324
G01 X21.3332 Y4.6386
G01 X21.3419 Y4.6432
G01 X21.3513 Y4.6461
G01 X21.3610 Y4.6470
G01 X21.3708 Y4.6461
G01 X21.3801 Y4.6432
G01 X21.3888 Y4.6386
G01 X21.3964 Y4.6324
G01 X21.4026 Y4.6248
G01 X21.4072 Y4.6161
G01 X21.4101 Y4.6068
G01 X21.4110 Y4.5970
G00 X21.4110 Y4.5970
G01 F60.00
G01 Z-1.8000
G01 F120.00
G01 X21.4101 Y4.5873
G01 X21.4072 Y4.5779
G01 X21.4026 Y4.5692
G01 X21.3964 Y4.5617
G01 X21.3888 Y4.5554
G01 X21.3801 Y4.5508
G01 X21.3708 Y4.5480
G01 X21.3610 Y4.5470
G01 X21.3513 Y4.5480
G01 X21.3419 Y4.5508
G01 X21.3332 Y4.5554
G01 X21.3257 Y4.5617
G01 X21.3194 Y4.5692
G01 X21.3148 Y4.5779
G01 X21.3120 Y4.5873
G01 X21.3110 Y4.5970
G01 X21.3120 Y4.6068
G01 X21.3148 Y4.6161
G01 X21.3194 Y4.6248
G01 X21.3257 Y4.6324
G01 X21.3332 Y4.6386
G01 X21.3419 Y4.6432
G01 X21.3513 Y4.6461
G01 X21.3610 Y4.6470
G01 X21.3708 Y4.6461
G01 X21.3801 Y4.6432
G01 X21.3888 Y4.6386
G01 X21.3964 Y4.6324
G01 X21.4026 Y4.6248
G01 X21.4072 Y4.6161
G01 X21.4101 Y4.6068
G01 X21.4110 Y4.5970
G00 Z2.0000
G00 X23.9510 Y4.5970
G01 F60.00
G01 Z-0.6000
G01 F120.00
G01 X23.9501 Y4.5873
G01 X23.9472 Y4.5779
G01 X23.9426 Y4.5692
G01 X23.9364 Y4.5617
G01 X23.9288 Y4.5554
G01 X23.9201 Y4.5508
G01 X23.9108 Y4.5480
G01 X23.9010 Y4.5470
G01 X23.8913 Y4.5480
G01 X23.8819 Y4.5508
G01 X23.8732 Y4.5554
G01 X23.8657 Y4.5617
G01 X23.8594 Y4.5692
G01 X23.8548 Y4.5779
G01 X23.8520 Y4.5873
G01 X23.8510 Y4.5970
G01 X23.8520 Y4.6068
G01 X23.8548 Y4.6161
G01 X23.8594 Y4.6248
G01 X23.8657 Y4.6324
G01 X23.8732 Y4.6386
G01 X23.8819 Y4.6432
G01 X23.8913 Y4.6461
G01 X23.9010 Y4.6470
G01 X23.9108 Y4.6461
G01 X23.9201 Y4.6432
G01 X23.9288 Y4.6386
G01 X23.9364 Y4.6324
G01 X23.9426 Y4.6248
G01 X23.9472 Y4.6161
G01 X23.9501 Y4.6068
G01 X23.9510 Y4.5970
G00 X23.9510 Y4.5970
G01 F60.00
G01 Z-1.2000
G01 F120.00
G01 X23.9501 Y4.5873
G01 X23.9472 Y4.5779
G01 X23.9426 Y4.5692
G01 X23.9364 Y4.5617
G01 X23.9288 Y4.5554
G01 X23.9201 Y4.5508
G01 X23.9108 Y4.5480
G01 X23.9010 Y4.5470
G01 X23.8913 Y4.5480
G01 X23.8819 Y4.5508
G01 X23.8732 Y4.5554
G01 X23.8657 Y4.5617
G01 X23.8594 Y4.5692
G01 X23.8548 Y4.5779
G01 X23.8520 Y4.5873
G01 X23.8510 Y4.5970
G01 X23.8520 Y4.6068
G01 X23.8548 Y4.6161
G01 X23.8594 Y4.6248
G01 X23.8657 Y4.6324
G01 X23.8732 Y4.6386
G01 X23.8819 Y4.6432
G01 X23.8913 Y4.6461
G01 X23.9010 Y4.6470
G01 X23.9108 Y4.6461
G01 X23.9201 Y4.6432
G01 X23.9288 Y4.6386
G01 X23.9364 Y4.6324
G01 X23.9426 Y4.6248
G01 X23.9472 Y4.6161
G01 X23.9501 Y4.6068
G01 X23.9510 Y4.5970
G00 X23.9510 Y4.5970
G01 F60.00
G01 Z-1.8000
G01 F120.00
G01 X23.9501 Y4.5873
G01 X23.9472 Y4.5779
G01 X23.9426 Y4.5692
G01 X23.9364 Y4.5617
G01 X23.9288 Y4.5554
G01 X23.9201 Y4.5508
G01 X23.9108 Y4.5480
G01 X23.9010 Y4.5470
G01 X23.8913 Y4.5480
G01 X23.8819 Y4.5508
G01 X23.8732 Y4.5554
G01 X23.8657 Y4.5617
G01 X23.8594 Y4.5692
G01 X23.8548 Y4.5779
G01 X23.8520 Y4.5873
G01 X23.8510 Y4.5970
G01 X23.8520 Y4.6068
G01 X23.8548 Y4.6161
G01 X23.8594 Y4.6248
G01 X23.8657 Y4.6324
G01 X23.8732 Y4.6386
G01 X23.8819 Y4.6432
G01 X23.8913 Y4.6461
G01 X23.9010 Y4.6470
G01 X23.9108 Y4.6461
G01 X23.9201 Y4.6432
G01 X23.9288 Y4.6386
G01 X23.9364 Y4.6324
G01 X23.9426 Y4.6248
G01 X23.9472 Y4.6161
G01 X23.9501 Y4.6068
G01 X23.9510 Y4.5970
G00 Z2.0000
G00 X37.1590 Y4.5970
G01 F60.00
G01 Z-0.6000
G01 F120.00
G01 X37.1581 Y4.5873
G01 X37.1552 Y4.5779
G01 X37.1506 Y4.5692
G01 X37.1444 Y4.5617
G01 X37.1368 Y4.5554
G01 X37.1281 Y4.5508
G01 X37.1188 Y4.5480
G01 X37.1090 Y4.5470
G01 X37.0993 Y4.5480
G01 X37.0899 Y4.5508
G01 X37.0812 Y4.5554
G01 X37.0737 Y4.5617
G01 X37.0674 Y4.5692
G01 X37.0628 Y4.5779
G01 X37.0600 Y4.5873
G01 X37.0590 Y4.5970
G01 X37.0600 Y4.6068
G01 X37.0628 Y4.6161
G01 X37.0674 Y4.6248
G01 X37.0737 Y4.6324
G01 X37.0812 Y4.6386
G01 X37.0899 Y4.6432
G01 X37.0993 Y4.6461
G01 X37.1090 Y4.6470
G01 X37.1188 Y4.6461
G01 X37.1281 Y4.6432
G01 X37.1368 Y4.6386
G01 X37.1444 Y4.6324
G01 X37.1506 Y4.6248
G01 X37.1552 Y4.6161
G01 X37.1581 Y4.6068
G01 X37.1590 Y4.5970
G00 X37.1590 Y4.5970
G01 F60.00
G01 Z-1.2000
G01 F120.00
G01 X37.1581 Y4.5873
G01 X37.1552 Y4.5779
G01 X37.1506 Y4.5692
G01 X37.1444 Y4.5617
G01 X37.1368 Y4.5554
G01 X37.1281 Y4.5508
G01 X37.1188 Y4.5480
G01 X37.1090 Y4.5470
G01 X37.0993 Y4.5480
G01 X37.0899 Y4.5508
G01 X37.0812 Y4.5554
G01 X37.0737 Y4.5617
G01 X37.0674 Y4.5692
G01 X37.0628 Y4.5779
G01 X37.0600 Y4.5873
G01 X37.0590 Y4.5970
G01 X37.0600 Y4.6068
G01 X37.0628 Y4.6161
G01 X37.0674 Y4.6248
G01 X37.0737 Y4.6324
G01 X37.0812 Y4.6386
G01 X37.0899 Y4.6432
G01 X37.0993 Y4.6461
G01 X37.1090 Y4.6470
G01 X37.1188 Y4.6461
G01 X37.1281 Y4.6432
G01 X37.1368 Y4.6386
G01 X37.1444 Y4.6324
G01 X37.1506 Y4.6248
G01 X37.1552 Y4.6161
G01 X37.1581 Y4.6068
G01 X37.1590 Y4.5970
G00 X37.1590 Y4.5970
G01 F60.00
G01 Z-1.8000
G01 F120.00
G01 X37.1581 Y4.5873
G01 X37.1552 Y4.5779
G01 X37.1506 Y4.5692
G01 X37.1444 Y4.5617
G01 X37.1368 Y4.5554
G01 X37.1281 Y4.5508
G01 X37.1188 Y4.5480
G01 X37.1090 Y4.5470
G01 X37.0993 Y4.5480
G01 X37.0899 Y4.5508
G01 X37.0812 Y4.5554
G01 X37.0737 Y4.5617
G01 X37.0674 Y4.5692
G01 X37.0628 Y4.5779
G01 X37.0600 Y4.5873
G01 X37.0590 Y4.5970
G01 X37.0600 Y4.6068
G01 X37.0628 Y4.6161
G01 X37.0674 Y4.6248
G01 X37.0737 Y4.6324
G01 X37.0812 Y4.6386
G01 X37.0899 Y4.6432
G01 X37.0993 Y4.6461
G01 X37.1090 Y4.6470
G01 X37.1188 Y4.6461
G01 X37.1281 Y4.6432
G01 X37.1368 Y4.6386
G01 X37.1444 Y4.6324
G01 X37.1506 Y4.6248
G01 X37.1552 Y4.6161
G01 X37.1581 Y4.6068
G01 X37.1590 Y4.5970
G00 Z2.0000
G00 X39.6990 Y4.5970
G01 F60.00
G01 Z-0.6000
G01 F120.00
G01 X39.6981 Y4.5873
G01 X39.6952 Y4.5779
G01 X39.6906 Y4.5692
G01 X39.6844 Y4.5617
G01 X39.6768 Y4.5554
G01 X39.6681 Y4.5508
G01 X39.6588 Y4.5480
G01 X39.6490 Y4.5470
G01 X39.6393 Y4.5480
G01 X39.6299 Y4.5508
G01 X39.6212 Y4.5554
G01 X39.6137 Y4.5617
G01 X39.6074 Y4.5692
G01 X39.6028 Y4.5779
G01 X39.6000 Y4.5873
G01 X39.5990 Y4.5970
G01 X39.6000 Y4.6068
G01 X39.6028 Y4.6161
G01 X39.6074 Y4.6248
G01 X39.6137 Y4.6324
G01 X39.6212 Y4.6386
G01 X39.6299 Y4.6432
G01 X39.6393 Y4.6461
G01 X39.6490 Y4.6470
G01 X39.6588 Y4.6461
G01 X39.6681 Y4.6432
G01 X39.6768 Y4.6386
G01 X39.6844 Y4.6324
G01 X39.6906 Y4.6248
G01 X39.6952 Y4.6161
G01 X39.6981 Y4.6068
G01 X39.6990 Y4.5970
G00 X39.6990 Y4.5970
G01 F60.00
G01 Z-1.2000
G01 F120.00
G01 X39.6981 Y4.5873
G01 X39.6952 Y4.5779
G01 X39.6906 Y4.5692
G01 X39.6844 Y4.5617
G01 X39.6768 Y4.5554
G01 X39.6681 Y4.5508
G01 X39.6588 Y4.5480
G01 X39.6490 Y4.5470
G01 X39.6393 Y4.5480
G01 X39.6299 Y4.5508
G01 X39.6212 Y4.5554
G01 X39.6137 Y4.5617
G01 X39.6074 Y4.5692
G01 X39.6028 Y4.5779
G01 X39.6000 Y4.5873
G01 X39.5990 Y4.5970
G01 X39.6000 Y4.6068
G01 X39.6028 Y4.6161
G01 X39.6074 Y4.6248
G01 X39.6137 Y4.6324
G01 X39.6212 Y4.6386
G01 X39.6299 Y4.6432
G01 X39.6393 Y4.6461
G01 X39.6490 Y4.6470
G01 X39.6588 Y4.6461
G01 X39.6681 Y4.6432
G01 X39.6768 Y4.6386
G01 X39.6844 Y4.6324
G01 X39.6906 Y4.6248
G01 X39.6952 Y4.6161
G01 X39.6981 Y4.6068
G01 X39.6990 Y4.5970
G00 X39.6990 Y4.5970
G01 F60.00
G01 Z-1.8000
G01 F120.00
G01 X39.6981 Y4.5873
G01 X39.6952 Y4.5779
G01 X39.6906 Y4.5692
G01 X39.6844 Y4.5617
G01 X39.6768 Y4.5554
G01 X39.6681 Y4.5508
G01 X39.6588 Y4.5480
G01 X39.6490 Y4.5470
G01 X39.6393 Y4.5480
G01 X39.6299 Y4.5508
G01 X39.6212 Y4.5554
G01 X39.6137 Y4.5617
G01 X39.6074 Y4.5692
G01 X39.6028 Y4.5779
G01 X39.6000 Y4.5873
G01 X39.5990 Y4.5970
G01 X39.6000 Y4.6068
G01 X39.6028 Y4.6161
G01 X39.6074 Y4.6248
G01 X39.6137 Y4.6324
G01 X39.6212 Y4.6386
G01 X39.6299 Y4.6432
G01 X39.6393 Y4.6461
G01 X39.6490 Y4.6470
G01 X39.6588 Y4.6461
G01 X39.6681 Y4.6432
G01 X39.6768 Y4.6386
G01 X39.6844 Y4.6324
G01 X39.6906 Y4.6248
G01 X39.6952 Y4.6161
G01 X39.6981 Y4.6068
G01 X39.6990 Y4.5970
G00 Z2.0000
G00 X42.2390 Y4.5970
G01 F60.00
G01 Z-0.6000
G01 F120.00
G01 X42.2381 Y4.5873
G01 X42.2352 Y4.5779
G01 X42.2306 Y4.5692
G01 X42.2244 Y4.5617
G01 X42.2168 Y4.5554
G01 X42.2081 Y4.5508
G01 X42.1988 Y4.5480
G01 X42.1890 Y4.5470
G01 X42.1793 Y4.5480
G01 X42.1699 Y4.5508
G01 X42.1612 Y4.5554
G01 X42.1537 Y4.5617
G01 X42.1474 Y4.5692
G01 X42.1428 Y4.5779
G01 X42.1400 Y4.5873
G01 X42.1390 Y4.5970
G01 X42.1400 Y4.6068
G01 X42.1428 Y4.6161
G01 X42.1474 Y4.6248
G01 X42.1537 Y4.6324
G01 X42.1612 Y4.6386
G01 X42.1699 Y4.6432
G01 X42.1793 Y4.6461
G01 X42.1890 Y4.6470
G01 X42.1988 Y4.6461
G01 X42.2081 Y4.6432
G01 X42.2168 Y4.6386
G01 X42.2244 Y4.6324
G01 X42.2306 Y4.6248
G01 X42.2352 Y4.6161
G01 X42.2381 Y4.6068
G01 X42.2390 Y4.5970
G00 X42.2390 Y4.5970
G01 F60.00
G01 Z-1.2000
G01 F120.00
G01 X42.2381 Y4.5873
G01 X42.2352 Y4.5779
G01 X42.2306 Y4.5692
G01 X42.2244 Y4.5617
G01 X42.2168 Y4.5554
G01 X42.2081 Y4.5508
G01 X42.1988 Y4.5480
G01 X42.1890 Y4.5470
G01 X42.1793 Y4.5480
G01 X42.1699 Y4.5508
G01 X42.1612 Y4.5554
G01 X42.1537 Y4.5617
G01 X42.1474 Y4.5692
G01 X42.1428 Y4.5779
G01 X42.1400 Y4.5873
G01 X42.1390 Y4.5970
G01 X42.1400 Y4.6068
G01 X42.1428 Y4.6161
G01 X42.1474 Y4.6248
G01 X42.1537 Y4.6324
G01 X42.1612 Y4.6386
G01 X42.1699 Y4.6432
G01 X42.1793 Y4.6461
G01 X42.1890 Y4.6470
G01 X42.1988 Y4.6461
G01 X42.2081 Y4.6432
G01 X42.2168 Y4.6386
G01 X42.2244 Y4.6324
G01 X42.2306 Y4.6248
G01 X42.2352 Y4.6161
G01 X42.2381 Y4.6068
G01 X42.2390 Y4.5970
G00 X42.2390 Y4.5970
G01 F60.00
G01 Z-1.8000
G01 F120.00
G01 X42.2381 Y4.5873
G01 X42.2352 Y4.5779
G01 X42.2306 Y4.5692
G01 X42.2244 Y4.5617
G01 X42.2168 Y4.5554
G01 X42.2081 Y4.5508
G01 X42.1988 Y4.5480
G01 X42.1890 Y4.5470
G01 X42.1793 Y4.5480
G01 X42.1699 Y4.5508
G01 X42.1612 Y4.5554
G01 X42.1537 Y4.5617
G01 X42.1474 Y4.5692
G01 X42.1428 Y4.5779
G01 X42.1400 Y4.5873
G01 X42.1390 Y4.5970
G01 X42.1400 Y4.6068
G01 X42.1428 Y4.6161
G01 X42.1474 Y4.6248
G01 X42.1537 Y4.6324
G01 X42.1612 Y4.6386
G01 X42.1699 Y4.6432
G01 X42.1793 Y4.6461
G01 X42.1890 Y4.6470
G01 X42.1988 Y4.6461
G01 X42.2081 Y4.6432
G01 X42.2168 Y4.6386
G01 X42.2244 Y4.6324
G01 X42.2306 Y4.6248
G01 X42.2352 Y4.6161
G01 X42.2381 Y4.6068
G01 X42.2390 Y4.5970
G00 Z2.0000
G00 X51.7390 Y23.2900
G01 F60.00
G01 Z-0.6000
G01 F120.00
G01 X51.7366 Y23.2410
G01 X51.7294 Y23.1925
G01 X51.7175 Y23.1449
G01 X51.7010 Y23.0987
G01 X51.6800 Y23.0543
G01 X51.6547 Y23.0122
G01 X51.6255 Y22.9728
G01 X51.5926 Y22.9365
G01 X51.5562 Y22.9035
G01 X51.5168 Y22.8743
G01 X51.4747 Y22.8491
G01 X51.4304 Y22.8281
G01 X51.3842 Y22.8115
G01 X51.3366 Y22.7996
G01 X51.2880 Y22.7924
G01 X51.2390 Y22.7900
G01 X51.1900 Y22.7924
G01 X51.1415 Y22.7996
G01 X51.0939 Y22.8115
G01 X51.0477 Y22.8281
G01 X51.0033 Y22.8491
G01 X50.9612 Y22.8743
G01 X50.9218 Y22.9035
G01 X50.8855 Y22.9365
G01 X50.8525 Y22.9728
G01 X50.8233 Y23.0122
G01 X50.7981 Y23.0543
G01 X50.7771 Y23.0987
G01 X50.7605 Y23.1449
G01 X50.7486 Y23.1925
G01 X50.7414 Y23.2410
G01 X50.7390 Y23.2900
G01 X50.7414 Y23.3390
G01 X50.7486 Y23.3876
G01 X50.7605 Y23.4352
G01 X50.7771 Y23.4814
G01 X50.7981 Y23.5257
G01 X50.8233 Y23.5678
G01 X50.8525 Y23.6072
G01 X50.8855 Y23.6436
G01 X50.9218 Y23.6765
G01 X50.9612 Y23.7057
G01 X51.0033 Y23.7310
G01 X51.0477 Y23.7520
G01 X51.0939 Y23.7685
G01 X51.1415 Y23.7804
G01 X51.1900 Y23.7876
G01 X51.2390 Y23.7900
G01 X51.2880 Y23.7876
G01 X51.3366 Y23.7804
G01 X51.3842 Y23.7685
G01 X51.4304 Y23.7520
G01 X51.4747 Y23.7310
G01 X51.5168 Y23.7057
G01 X51.5562 Y23.6765
G01 X51.5926 Y23.6436
G01 X51.6255 Y23.6072
G01 X51.6547 Y23.5678
G01 X51.6800 Y23.5257
G01 X51.7010 Y23.4814
G01 X51.7175 Y23.4352
G01 X51.7294 Y23.3876
G01 X51.7366 Y23.3390
G01 X51.7390 Y23.2900
G00 X51.7390 Y23.2900
G01 F60.00
G01 Z-1.2000
G01 F120.00
G01 X51.7366 Y23.2410
G01 X51.7294 Y23.1925
G01 X51.7175 Y23.1449
G01 X51.7010 Y23.0987
G01 X51.6800 Y23.0543
G01 X51.6547 Y23.0122
G01 X51.6255 Y22.9728
G01 X51.5926 Y22.9365
G01 X51.5562 Y22.9035
G01 X51.5168 Y22.8743
G01 X51.4747 Y22.8491
G01 X51.4304 Y22.8281
G01 X51.3842 Y22.8115
G01 X51.3366 Y22.7996
G01 X51.2880 Y22.7924
G01 X51.2390 Y22.7900
G01 X51.1900 Y22.7924
G01 X51.1415 Y22.7996
G01 X51.0939 Y22.8115
G01 X51.0477 Y22.8281
G01 X51.0033 Y22.8491
G01 X50.9612 Y22.8743
G01 X50.9218 Y22.9035
G01 X50.8855 Y22.9365
G01 X50.8525 Y22.9728
G01 X50.8233 Y23.0122
G01 X50.7981 Y23.0543
G01 X50.7771 Y23.0987
G01 X50.7605 Y23.1449
G01 X50.7486 Y23.1925
G01 X50.7414 Y23.2410
G01 X50.7390 Y23.2900
G01 X50.7414 Y23.3390
G01 X50.7486 Y23.3876
G01 X50.7605 Y23.4352
G01 X50.7771 Y23.4814
G01 X50.7981 Y23.5257
G01 X50.8233 Y23.5678
G01 X50.8525 Y23.6072
G01 X50.8855 Y23.6436
G01 X50.9218 Y23.6765
G01 X50.9612 Y23.7057
G01 X51.0033 Y23.7310
G01 X51.0477 Y23.7520
G01 X51.0939 Y23.7685
G01 X51.1415 Y23.7804
G01 X51.1900 Y23.7876
G01 X51.2390 Y23.7900
G01 X51.2880 Y23.7876
G01 X51.3366 Y23.7804
G01 X51.3842 Y23.7685
G01 X51.4304 Y23.7520
G01 X51.4747 Y23.7310
G01 X51.5168 Y23.7057
G01 X51.5562 Y23.6765
G01 X51.5926 Y23.6436
G01 X51.6255 Y23.6072
G01 X51.6547 Y23.5678
G01 X51.6800 Y23.5257
G01 X51.7010 Y23.4814
G01 X51.7175 Y23.4352
G01 X51.7294 Y23.3876
G01 X51.7366 Y23.3390
G01 X51.7390 Y23.2900
G00 X51.7390 Y23.2900
G01 F60.00
G01 Z-1.8000
G01 F120.00
G01 X51.7366 Y23.2410
G01 X51.7294 Y23.1925
G01 X51.7175 Y23.1449
G01 X51.7010 Y23.0987
G01 X51.6800 Y23.0543
G01 X51.6547 Y23.0122
G01 X51.6255 Y22.9728
G01 X51.5926 Y22.9365
G01 X51.5562 Y22.9035
G01 X51.5168 Y22.8743
G01 X51.4747 Y22.8491
G01 X51.4304 Y22.8281
G01 X51.3842 Y22.8115
G01 X51.3366 Y22.7996
G01 X51.2880 Y22.7924
G01 X51.2390 Y22.7900
G01 X51.1900 Y22.7924
G01 X51.1415 Y22.7996
G01 X51.0939 Y22.8115
G01 X51.0477 Y22.8281
G01 X51.0033 Y22.8491
G01 X50.9612 Y22.8743
G01 X50.9218 Y22.9035
G01 X50.8855 Y22.9365
G01 X50.8525 Y22.9728
G01 X50.8233 Y23.0122
G01 X50.7981 Y23.0543
G01 X50.7771 Y23.0987
G01 X50.7605 Y23.1449
G01 X50.7486 Y23.1925
G01 X50.7414 Y23.2410
G01 X50.7390 Y23.2900
G01 X50.7414 Y23.3390
G01 X50.7486 Y23.3876
G01 X50.7605 Y23.4352
G01 X50.7771 Y23.4814
G01 X50.7981 Y23.5257
G01 X50.8233 Y23.5678
G01 X50.8525 Y23.6072
G01 X50.8855 Y23.6436
G01 X50.9218 Y23.6765
G01 X50.9612 Y23.7057
G01 X51.0033 Y23.7310
G01 X51.0477 Y23.7520
G01 X51.0939 Y23.7685
G01 X51.1415 Y23.7804
G01 X51.1900 Y23.7876
G01 X51.2390 Y23.7900
G01 X51.2880 Y23.7876
G01 X51.3366 Y23.7804
G01 X51.3842 Y23.7685
G01 X51.4304 Y23.7520
G01 X51.4747 Y23.7310
G01 X51.5168 Y23.7057
G01 X51.5562 Y23.6765
G01 X51.5926 Y23.6436
G01 X51.6255 Y23.6072
G01 X51.6547 Y23.5678
G01 X51.6800 Y23.5257
G01 X51.7010 Y23.4814
G01 X51.7175 Y23.4352
G01 X51.7294 Y23.3876
G01 X51.7366 Y23.3390
G01 X51.7390 Y23.2900
G00 Z2.0000
G00 X61.7390 Y23.2900
G01 F60.00
G01 Z-0.6000
G01 F120.00
G01 X61.7366 Y23.2410
G01 X61.7294 Y23.1925
G01 X61.7175 Y23.1449
G01 X61.7010 Y23.0987
G01 X61.6800 Y23.0543
G01 X61.6547 Y23.0122
G01 X61.6255 Y22.9728
G01 X61.5926 Y22.9365
G01 X61.5562 Y22.9035
G01 X61.5168 Y22.8743
G01 X61.4747 Y22.8491
G01 X61.4304 Y22.8281
G01 X61.3842 Y22.8115
G01 X61.3366 Y22.7996
G01 X61.2880 Y22.7924
G01 X61.2390 Y22.7900
G01 X61.1900 Y22.7924
G01 X61.1415 Y22.7996
G01 X61.0939 Y22.8115
G01 X61.0477 Y22.8281
G01 X61.0033 Y22.8491
G01 X60.9612 Y22.8743
G01 X60.9218 Y22.9035
G01 X60.8855 Y22.9365
G01 X60.8525 Y22.9728
G01 X60.8233 Y23.0122
G01 X60.7981 Y23.0543
G01 X60.7771 Y23.0987
G01 X60.7605 Y23.1449
G01 X60.7486 Y23.1925
G01 X60.7414 Y23.2410
G01 X60.7390 Y23.2900
G01 X60.7414 Y23.3390
G01 X60.7486 Y23.3876
G01 X60.7605 Y23.4352
G01 X60.7771 Y23.4814
G01 X60.7981 Y23.5257
G01 X60.8233 Y23.5678
G01 X60.8525 Y23.6072
G01 X60.8855 Y23.6436
G01 X60.9218 Y23.6765
G01 X60.9612 Y23.7057
G01 X61.0033 Y23.7310
G01 X61.0477 Y23.7520
G01 X61.0939 Y23.7685
G01 X61.1415 Y23.7804
G01 X61.1900 Y23.7876
G01 X61.2390 Y23.7900
G01 X61.2880 Y23.7876
G01 X61.3366 Y23.7804
G01 X61.3842 Y23.7685
G01 X61.4304 Y23.7520
G01 X61.4747 Y23.7310
G01 X61.5168 Y23.7057
G01 X61.5562 Y23.6765
G01 X61.5926 Y23.6436
G01 X61.6255 Y23.6072
G01 X61.6547 Y23.5678
G01 X61.6800 Y23.5257
G01 X61.7010 Y23.4814
G01 X61.7175 Y23.4352
G01 X61.7294 Y23.3876
G01 X61.7366 Y23.3390
G01 X61.7390 Y23.2900
G00 X61.7390 Y23.2900
G01 F60.00
G01 Z-1.2000
G01 F120.00
G01 X61.7366 Y23.2410
G01 X61.7294 Y23.1925
G01 X61.7175 Y23.1449
G01 X61.7010 Y23.0987
G01 X61.6800 Y23.0543
G01 X61.6547 Y23.0122
G01 X61.6255 Y22.9728
G01 X61.5926 Y22.9365
G01 X61.5562 Y22.9035
G01 X61.5168 Y22.8743
G01 X61.4747 Y22.8491
G01 X61.4304 Y22.8281
G01 X61.3842 Y22.8115
G01 X61.3366 Y22.7996
G01 X61.2880 Y22.7924
G01 X61.2390 Y22.7900
G01 X61.1900 Y22.7924
G01 X61.1415 Y22.7996
G01 X61.0939 Y22.8115
G01 X61.0477 Y22.8281
G01 X61.0033 Y22.8491
G01 X60.9612 Y22.8743
G01 X60.9218 Y22.9035
G01 X60.8855 Y22.9365
G01 X60.8525 Y22.9728
G01 X60.8233 Y23.0122
G01 X60.7981 Y23.0543
G01 X60.7771 Y23.0987
G01 X60.7605 Y23.1449
G01 X60.7486 Y23.1925
G01 X60.7414 Y23.2410
G01 X60.7390 Y23.2900
G01 X60.7414 Y23.3390
G01 X60.7486 Y23.3876
G01 X60.7605 Y23.4352
G01 X60.7771 Y23.4814
G01 X60.7981 Y23.5257
G01 X60.8233 Y23.5678
G01 X60.8525 Y23.6072
G01 X60.8855 Y23.6436
G01 X60.9218 Y23.6765
G01 X60.9612 Y23.7057
G01 X61.0033 Y23.7310
G01 X61.0477 Y23.7520
G01 X61.0939 Y23.7685
G01 X61.1415 Y23.7804
G01 X61.1900 Y23.7876
G01 X61.2390 Y23.7900
G01 X61.2880 Y23.7876
G01 X61.3366 Y23.7804
G01 X61.3842 Y23.7685
G01 X61.4304 Y23.7520
G01 X61.4747 Y23.7310
G01 X61.5168 Y23.7057
G01 X61.5562 Y23.6765
G01 X61.5926 Y23.6436
G01 X61.6255 Y23.6072
G01 X61.6547 Y23.5678
G01 X61.6800 Y23.5257
G01 X61.7010 Y23.4814
G01 X61.7175 Y23.4352
G01 X61.7294 Y23.3876
G01 X61.7366 Y23.3390
G01 X61.7390 Y23.2900
G00 X61.7390 Y23.2900
G01 F60.00
G01 Z-1.8000
G01 F120.00
G01 X61.7366 Y23.2410
G01 X61.7294 Y23.1925
G01 X61.7175 Y23.1449
G01 X61.7010 Y23.0987
G01 X61.6800 Y23.0543
G01 X61.6547 Y23.0122
G01 X61.6255 Y22.9728
G01 X61.5926 Y22.9365
G01 X61.5562 Y22.9035
G01 X61.5168 Y22.8743
G01 X61.4747 Y22.8491
G01 X61.4304 Y22.8281
G01 X61.3842 Y22.8115
G01 X61.3366 Y22.7996
G01 X61.2880 Y22.7924
G01 X61.2390 Y22.7900
G01 X61.1900 Y22.7924
G01 X61.1415 Y22.7996
G01 X61.0939 Y22.8115
G01 X61.0477 Y22.8281
G01 X61.0033 Y22.8491
G01 X60.9612 Y22.8743
G01 X60.9218 Y22.9035
G01 X60.8855 Y22.9365
G01 X60.8525 Y22.9728
G01 X60.8233 Y23.0122
G01 X60.7981 Y23.0543
G01 X60.7771 Y23.0987
G01 X60.7605 Y23.1449
G01 X60.7486 Y23.1925
G01 X60.7414 Y23.2410
G01 X60.7390 Y23.2900
G01 X60.7414 Y23.3390
G01 X60.7486 Y23.3876
G01 X60.7605 Y23.4352
G01 X60.7771 Y23.4814
G01 X60.7981 Y23.5257
G01 X60.8233 Y23.5678
G01 X60.8525 Y23.6072
G01 X60.8855 Y23.6436
G01 X60.9218 Y23.6765
G01 X60.9612 Y23.7057
G01 X61.0033 Y23.7310
G01 X61.0477 Y23.7520
G01 X61.0939 Y23.7685
G01 X61.1415 Y23.7804
G01 X61.1900 Y23.7876
G01 X61.2390 Y23.7900
G01 X61.2880 Y23.7876
G01 X61.3366 Y23.7804
G01 X61.3842 Y23.7685
G01 X61.4304 Y23.7520
G01 X61.4747 Y23.7310
G01 X61.5168 Y23.7057
G01 X61.5562 Y23.6765
G01 X61.5926 Y23.6436
G01 X61.6255 Y23.6072
G01 X61.6547 Y23.5678
G01 X61.6800 Y23.5257
G01 X61.7010 Y23.4814
G01 X61.7175 Y23.4352
G01 X61.7294 Y23.3876
G01 X61.7366 Y23.3390
G01 X61.7390 Y23.2900
G00 Z2.0000
G00 X37.7170 Y35.0770
G01 F60.00
G01 Z-0.6000
G01 F120.00
G01 X37.7165 Y35.0672
G01 X37.7151 Y35.0575
G01 X37.7127 Y35.0480
G01 X37.7094 Y35.0387
G01 X37.7052 Y35.0299
G01 X37.7002 Y35.0215
G01 X37.6943 Y35.0136
G01 X37.6877 Y35.0063
G01 X37.6805 Y34.9997
G01 X37.6726 Y34.9939
G01 X37.6642 Y34.9888
G01 X37.6553 Y34.9846
G01 X37.6460 Y34.9813
G01 X37.6365 Y34.9789
G01 X37.6268 Y34.9775
G01 X37.6170 Y34.9770
G01 X37.6072 Y34.9775
G01 X37.5975 Y34.9789
G01 X37.5880 Y34.9813
G01 X37.5787 Y34.9846
G01 X37.5699 Y34.9888
G01 X37.5615 Y34.9939
G01 X37.5536 Y34.9997
G01 X37.5463 Y35.0063
G01 X37.5397 Y35.0136
G01 X37.5339 Y35.0215
G01 X37.5288 Y35.0299
G01 X37.5246 Y35.0387
G01 X37.5213 Y35.0480
G01 X37.5189 Y35.0575
G01 X37.5175 Y35.0672
G01 X37.5170 Y35.0770
G01 X37.5175 Y35.0868
G01 X37.5189 Y35.0965
G01 X37.5213 Y35.1060
G01 X37.5246 Y35.1153
G01 X37.5288 Y35.1242
G01 X37.5339 Y35.1326
G01 X37.5397 Y35.1405
G01 X37.5463 Y35.1477
G01 X37.5536 Y35.1543
G01 X37.5615 Y35.1602
G01 X37.5699 Y35.1652
G01 X37.5787 Y35.1694
G01 X37.5880 Y35.1727
G01 X37.5975 Y35.1751
G01 X37.6072 Y35.1765
G01 X37.6170 Y35.1770
G01 X37.6268 Y35.1765
G01 X37.6365 Y35.1751
G01 X37.6460 Y35.1727
G01 X37.6553 Y35.1694
G01 X37.6642 Y35.1652
G01 X37.6726 Y35.1602
G01 X37.6805 Y35.1543
G01 X37.6877 Y35.1477
G01 X37.6943 Y35.1405
G01 X37.7002 Y35.1326
G01 X37.7052 Y35.1242
G01 X37.7094 Y35.1153
G01 X37.7127 Y35.1060
G01 X37.7151 Y35.0965
G01 X37.7165 Y35.0868
G01 X37.7170 Y35.0770
G00 X37.7170 Y35.0770
G01 F60.00
G01 Z-1.2000
G01 F120.00
G01 X37.7165 Y35.0672
G01 X37.7151 Y35.0575
G01 X37.7127 Y35.0480
G01 X37.7094 Y35.0387
G01 X37.7052 Y35.0299
G01 X37.7002 Y35.0215
G01 X37.6943 Y35.0136
G01 X37.6877 Y35.0063
G01 X37.6805 Y34.9997
G01 X37.6726 Y34.9939
G01 X37.6642 Y34.9888
G01 X37.6553 Y34.9846
G01 X37.6460 Y34.9813
G01 X37.6365 Y34.9789
G01 X37.6268 Y34.9775
G01 X37.6170 Y34.9770
G01 X37.6072 Y34.9775
G01 X37.5975 Y34.9789
G01 X37.5880 Y34.9813
G01 X37.5787 Y34.9846
G01 X37.5699 Y34.9888
G01 X37.5615 Y34.9939
G01 X37.5536 Y34.9997
G01 X37.5463 Y35.0063
G01 X37.5397 Y35.0136
G01 X37.5339 Y35.0215
G01 X37.5288 Y35.0299
G01 X37.5246 Y35.0387
G01 X37.5213 Y35.0480
G01 X37.5189 Y35.0575
G01 X37.5175 Y35.0672
G01 X37.5170 Y35.0770
G01 X37.5175 Y35.0868
G01 X37.5189 Y35.0965
G01 X37.5213 Y35.1060
G01 X37.5246 Y35.1153
G01 X37.5288 Y35.1242
G01 X37.5339 Y35.1326
G01 X37.5397 Y35.1405
G01 X37.5463 Y35.1477
G01 X37.5536 Y35.1543
G01 X37.5615 Y35.1602
G01 X37.5699 Y35.1652
G01 X37.5787 Y35.1694
G01 X37.5880 Y35.1727
G01 X37.5975 Y35.1751
G01 X37.6072 Y35.1765
G01 X37.6170 Y35.1770
G01 X37.6268 Y35.1765
G01 X37.6365 Y35.1751
G01 X37.6460 Y35.1727
G01 X37.6553 Y35.1694
G01 X37.6642 Y35.1652
G01 X37.6726 Y35.1602
G01 X37.6805 Y35.1543
G01 X37.6877 Y35.1477
G01 X37.6943 Y35.1405
G01 X37.7002 Y35.1326
G01 X37.7052 Y35.1242
G01 X37.7094 Y35.1153
G01 X37.7127 Y35.1060
G01 X37.7151 Y35.0965
G01 X37.7165 Y35.0868
G01 X37.7170 Y35.0770
G00 X37.7170 Y35.0770
G01 F60.00
G01 Z-1.8000
G01 F120.00
G01 X37.7165 Y35.0672
G01 X37.7151 Y35.0575
G01 X37.7127 Y35.0480
G01 X37.7094 Y35.0387
G01 X37.7052 Y35.0299
G01 X37.7002 Y35.0215
G01 X37.6943 Y35.0136
G01 X37.6877 Y35.0063
G01 X37.6805 Y34.9997
G01 X37.6726 Y34.9939
G01 X37.6642 Y34.9888
G01 X37.6553 Y34.9846
G01 X37.6460 Y34.9813
G01 X37.6365 Y34.9789
G01 X37.6268 Y34.9775
G01 X37.6170 Y34.9770
G01 X37.6072 Y34.9775
G01 X37.5975 Y34.9789
G01 X37.5880 Y34.9813
G01 X37.5787 Y34.9846
G01 X37.5699 Y34.9888
G01 X37.5615 Y34.9939
G01 X37.5536 Y34.9997
G01 X37.5463 Y35.0063
G01 X37.5397 Y35.0136
G01 X37.5339 Y35.0215
G01 X37.5288 Y35.0299
G01 X37.5246 Y35.0387
G01 X37.5213 Y35.0480
G01 X37.5189 Y35.0575
G01 X37.5175 Y35.0672
G01 X37.5170 Y35.0770
G01 X37.5175 Y35.0868
G01 X37.5189 Y35.0965
G01 X37.5213 Y35.1060
G01 X37.5246 Y35.1153
G01 X37.5288 Y35.1242
G01 X37.5339 Y35.1326
G01 X37.5397 Y35.1405
G01 X37.5463 Y35.1477
G01 X37.5536 Y35.1543
G01 X37.5615 Y35.1602
G01 X37.5699 Y35.1652
G01 X37.5787 Y35.1694
G01 X37.5880 Y35.1727
G01 X37.5975 Y35.1751
G01 X37.6072 Y35.1765
G01 X37.6170 Y35.1770
G01 X37.6268 Y35.1765
G01 X37.6365 Y35.1751
G01 X37.6460 Y35.1727
G01 X37.6553 Y35.1694
G01 X37.6642 Y35.1652
G01 X37.6726 Y35.1602
G01 X37.6805 Y35.1543
G01 X37.6877 Y35.1477
G01 X37.6943 Y35.1405
G01 X37.7002 Y35.1326
G01 X37.7052 Y35.1242
G01 X37.7094 Y35.1153
G01 X37.7127 Y35.1060
G01 X37.7151 Y35.0965
G01 X37.7165 Y35.0868
G01 X37.7170 Y35.0770
G00 Z2.0000
G00 X45.8450 Y45.2370
G01 F60.00
G01 Z-0.6000
G01 F120.00
G01 X45.8445 Y45.2272
G01 X45.8431 Y45.2175
G01 X45.8407 Y45.2080
G01 X45.8374 Y45.1987
G01 X45.8332 Y45.1899
G01 X45.8282 Y45.1815
G01 X45.8223 Y45.1736
G01 X45.8157 Y45.1663
G01 X45.8085 Y45.1597
G01 X45.8006 Y45.1539
G01 X45.7922 Y45.1488
G01 X45.7833 Y45.1446
G01 X45.7740 Y45.1413
G01 X45.7645 Y45.1389
G01 X45.7548 Y45.1375
G01 X45.7450 Y45.1370
G01 X45.7352 Y45.1375
G01 X45.7255 Y45.1389
G01 X45.7160 Y45.1413
G01 X45.7067 Y45.1446
G01 X45.6979 Y45.1488
G01 X45.6895 Y45.1539
G01 X45.6816 Y45.1597
G01 X45.6743 Y45.1663
G01 X45.6677 Y45.1736
G01 X45.6619 Y45.1815
G01 X45.6568 Y45.1899
G01 X45.6526 Y45.1987
G01 X45.6493 Y45.2080
G01 X45.6469 Y45.2175
G01 X45.6455 Y45.2272
G01 X45.6450 Y45.2370
G01 X45.6455 Y45.2468
G01 X45.6469 Y45.2565
G01 X45.6493 Y45.2660
G01 X45.6526 Y45.2753
G01 X45.6568 Y45.2842
G01 X45.6619 Y45.2926
G01 X45.6677 Y45.3005
G01 X45.6743 Y45.3077
G01 X45.6816 Y45.3143
G01 X45.6895 Y45.3202
G01 X45.6979 Y45.3252
G01 X45.7067 Y45.3294
G01 X45.7160 Y45.3327
G01 X45.7255 Y45.3351
G01 X45.7352 Y45.3365
G01 X45.7450 Y45.3370
G01 X45.7548 Y45.3365
G01 X45.7645 Y45.3351
G01 X45.7740 Y45.3327
G01 X45.7833 Y45.3294
G01 X45.7922 Y45.3252
G01 X45.8006 Y45.3202
G01 X45.8085 Y45.3143
G01 X45.8157 Y45.3077
G01 X45.8223 Y45.3005
G01 X45.8282 Y45.2926
G01 X45.8332 Y45.2842
G01 X45.8374 Y45.2753
G01 X45.8407 Y45.2660
G01 X45.8431 Y45.2565
G01 X45.8445 Y45.2468
G01 X45.8450 Y45.2370
G00 X45.8450 Y45.2370
G01 F60.00
G01 Z-1.2000
G01 F120.00
G01 X45.8445 Y45.2272
G01 X45.8431 Y45.2175
G01 X45.8407 Y45.2080
G01 X45.8374 Y45.1987
G01 X45.8332 Y45.1899
G01 X45.8282 Y45.1815
G01 X45.8223 Y45.1736
G01 X45.8157 Y45.1663
G01 X45.8085 Y45.1597
G01 X45.8006 Y45.1539
G01 X45.7922 Y45.1488
G01 X45.7833 Y45.1446
G01 X45.7740 Y45.1413
G01 X45.7645 Y45.1389
G01 X45.7548 Y45.1375
G01 X45.7450 Y45.1370
G01 X45.7352 Y45.1375
G01 X45.7255 Y45.1389
G01 X45.7160 Y45.1413
G01 X45.7067 Y45.1446
G01 X45.6979 Y45.1488
G01 X45.6895 Y45.1539
G01 X45.6816 Y45.1597
G01 X45.6743 Y45.1663
G01 X45.6677 Y45.1736
G01 X45.6619 Y45.1815
G01 X45.6568 Y45.1899
G01 X45.6526 Y45.1987
G01 X45.6493 Y45.2080
G01 X45.6469 Y45.2175
G01 X45.6455 Y45.2272
G01 X45.6450 Y45.2370
G01 X45.6455 Y45.2468
G01 X45.6469 Y45.2565
G01 X45.6493 Y45.2660
G01 X45.6526 Y45.2753
G01 X45.6568 Y45.2842
G01 X45.6619 Y45.2926
G01 X45.6677 Y45.3005
G01 X45.6743 Y45.3077
G01 X45.6816 Y45.3143
G01 X45.6895 Y45.3202
G01 X45.6979 Y45.3252
G01 X45.7067 Y45.3294
G01 X45.7160 Y45.3327
G01 X45.7255 Y45.3351
G01 X45.7352 Y45.3365
G01 X45.7450 Y45.3370
G01 X45.7548 Y45.3365
G01 X45.7645 Y45.3351
G01 X45.7740 Y45.3327
G01 X45.7833 Y45.3294
G01 X45.7922 Y45.3252
G01 X45.8006 Y45.3202
G01 X45.8085 Y45.3143
G01 X45.8157 Y45.3077
G01 X45.8223 Y45.3005
G01 X45.8282 Y45.2926
G01 X45.8332 Y45.2842
G01 X45.8374 Y45.2753
G01 X45.8407 Y45.2660
G01 X45.8431 Y45.2565
G01 X45.8445 Y45.2468
G01 X45.8450 Y45.2370
G00 X45.8450 Y45.2370
G01 F60.00
G01 Z-1.8000
G01 F120.00
G01 X45.8445 Y45.2272
G01 X45.8431 Y45.2175
G01 X45.8407 Y45.2080
G01 X45.8374 Y45.1987
G01 X45.8332 Y45.1899
G01 X45.8282 Y45.1815
G01 X45.8223 Y45.1736
G01 X45.8157 Y45.1663
G01 X45.8085 Y45.1597
G01 X45.8006 Y45.1539
G01 X45.7922 Y45.1488
G01 X45.7833 Y45.1446
G01 X45.7740 Y45.1413
G01 X45.7645 Y45.1389
G01 X45.7548 Y45.1375
G01 X45.7450 Y45.1370
G01 X45.7352 Y45.1375
G01 X45.7255 Y45.1389
G01 X45.7160 Y45.1413
G01 X45.7067 Y45.1446
G01 X45.6979 Y45.1488
G01 X45.6895 Y45.1539
G01 X45.6816 Y45.1597
G01 X45.6743 Y45.1663
G01 X45.6677 Y45.1736
G01 X45.6619 Y45.1815
G01 X45.6568 Y45.1899
G01 X45.6526 Y45.1987
G01 X45.6493 Y45.2080
G01 X45.6469 Y45.2175
G01 X45.6455 Y45.2272
G01 X45.6450 Y45.2370
G01 X45.6455 Y45.2468
G01 X45.6469 Y45.2565
G01 X45.6493 Y45.2660
G01 X45.6526 Y45.2753
G01 X45.6568 Y45.2842
G01 X45.6619 Y45.2926
G01 X45.6677 Y45.3005
G01 X45.6743 Y45.3077
G01 X45.6816 Y45.3143
G01 X45.6895 Y45.3202
G01 X45.6979 Y45.3252
G01 X45.7067 Y45.3294
G01 X45.7160 Y45.3327
G01 X45.7255 Y45.3351
G01 X45.7352 Y45.3365
G01 X45.7450 Y45.3370
G01 X45.7548 Y45.3365
G01 X45.7645 Y45.3351
G01 X45.7740 Y45.3327
G01 X45.7833 Y45.3294
G01 X45.7922 Y45.3252
G01 X45.8006 Y45.3202
G01 X45.8085 Y45.3143
G01 X45.8157 Y45.3077
G01 X45.8223 Y45.3005
G01 X45.8282 Y45.2926
G01 X45.8332 Y45.2842
G01 X45.8374 Y45.2753
G01 X45.8407 Y45.2660
G01 X45.8431 Y45.2565
G01 X45.8445 Y45.2468
G01 X45.8450 Y45.2370
G00 Z2.0000
G00 X51.7390 Y64.1550
G01 F60.00
G01 Z-0.6000
G01 F120.00
G01 X51.7366 Y64.1060
G01 X51.7294 Y64.0575
G01 X51.7175 Y64.0099
G01 X51.7010 Y63.9637
G01 X51.6800 Y63.9193
G01 X51.6547 Y63.8772
G01 X51.6255 Y63.8378
G01 X51.5926 Y63.8015
G01 X51.5562 Y63.7685
G01 X51.5168 Y63.7393
G01 X51.4747 Y63.7141
G01 X51.4304 Y63.6931
G01 X51.3842 Y63.6765
G01 X51.3366 Y63.6646
G01 X51.2880 Y63.6574
G01 X51.2390 Y63.6550
G01 X51.1900 Y63.6574
G01 X51.1415 Y63.6646
G01 X51.0939 Y63.6765
G01 X51.0477 Y63.6931
G01 X51.0033 Y63.7141
G01 X50.9612 Y63.7393
G01 X50.9218 Y63.7685
G01 X50.8855 Y63.8015
G01 X50.8525 Y63.8378
G01 X50.8233 Y63.8772
G01 X50.7981 Y63.9193
G01 X50.7771 Y63.9637
G01 X50.7605 Y64.0099
G01 X50.7486 Y64.0575
G01 X50.7414 Y64.1060
G01 X50.7390 Y64.1550
G01 X50.7414 Y64.2040
G01 X50.7486 Y64.2526
G01 X50.7605 Y64.3002
G01 X50.7771 Y64.3464
G01 X50.7981 Y64.3907
G01 X50.8233 Y64.4328
G01 X50.8525 Y64.4722
G01 X50.8855 Y64.5086
G01 X50.9218 Y64.5415
G01 X50.9612 Y64.5707
G01 X51.0033 Y64.5960
G01 X51.0477 Y64.6170
G01 X51.0939 Y64.6335
G01 X51.1415 Y64.6454
G01 X51.1900 Y64.6526
G01 X51.2390 Y64.6550
G01 X51.2880 Y64.6526
G01 X51.3366 Y64.6454
G01 X51.3842 Y64.6335
G01 X51.4304 Y64.6170
G01 X51.4747 Y64.5960
G01 X51.5168 Y64.5707
G01 X51.5562 Y64.5415
G01 X51.5926 Y64.5086
G01 X51.6255 Y64.4722
G01 X51.6547 Y64.4328
G01 X51.6800 Y64.3907
G01 X51.7010 Y64.3464
G01 X51.7175 Y64.3002
G01 X51.7294 Y64.2526
G01 X51.7366 Y64.2040
G01 X51.7390 Y64.1550
G00 X51.7390 Y64.1550
G01 F60.00
G01 Z-1.2000
G01 F120.00
G01 X51.7366 Y64.1060
G01 X51.7294 Y64.0575
G01 X51.7175 Y64.0099
G01 X51.7010 Y63.9637
G01 X51.6800 Y63.9193
G01 X51.6547 Y63.8772
G01 X51.6255 Y63.8378
G01 X51.5926 Y63.8015
G01 X51.5562 Y63.7685
G01 X51.5168 Y63.7393
G01 X51.4747 Y63.7141
G01 X51.4304 Y63.6931
G01 X51.3842 Y63.6765
G01 X51.3366 Y63.6646
G01 X51.2880 Y63.6574
G01 X51.2390 Y63.6550
G01 X51.1900 Y63.6574
G01 X51.1415 Y63.6646
G01 X51.0939 Y63.6765
G01 X51.0477 Y63.6931
G01 X51.0033 Y63.7141
G01 X50.9612 Y63.7393
G01 X50.9218 Y63.7685
G01 X50.8855 Y63.8015
G01 X50.8525 Y63.8378
G01 X50.8233 Y63.8772
G01 X50.7981 Y63.9193
G01 X50.7771 Y63.9637
G01 X50.7605 Y64.0099
G01 X50.7486 Y64.0575
G01 X50.7414 Y64.1060
G01 X50.7390 Y64.1550
G01 X50.7414 Y64.2040
G01 X50.7486 Y64.2526
G01 X50.7605 Y64.3002
G01 X50.7771 Y64.3464
G01 X50.7981 Y64.3907
G01 X50.8233 Y64.4328
G01 X50.8525 Y64.4722
G01 X50.8855 Y64.5086
G01 X50.9218 Y64.5415
G01 X50.9612 Y64.5707
G01 X51.0033 Y64.5960
G01 X51.0477 Y64.6170
G01 X51.0939 Y64.6335
G01 X51.1415 Y64.6454
G01 X51.1900 Y64.6526
G01 X51.2390 Y64.6550
G01 X51.2880 Y64.6526
G01 X51.3366 Y64.6454
G01 X51.3842 Y64.6335
G01 X51.4304 Y64.6170
G01 X51.4747 Y64.5960
G01 X51.5168 Y64.5707
G01 X51.5562 Y64.5415
G01 X51.5926 Y64.5086
G01 X51.6255 Y64.4722
G01 X51.6547 Y64.4328
G01 X51.6800 Y64.3907
G01 X51.7010 Y64.3464
G01 X51.7175 Y64.3002
G01 X51.7294 Y64.2526
G01 X51.7366 Y64.2040
G01 X51.7390 Y64.1550
G00 X51.7390 Y64.1550
G01 F60.00
G01 Z-1.8000
G01 F120.00
G01 X51.7366 Y64.1060
G01 X51.7294 Y64.0575
G01 X51.7175 Y64.0099
G01 X51.7010 Y63.9637
G01 X51.6800 Y63.9193
G01 X51.6547 Y63.8772
G01 X51.6255 Y63.8378
G01 X51.5926 Y63.8015
G01 X51.5562 Y63.7685
G01 X51.5168 Y63.7393
G01 X51.4747 Y63.7141
G01 X51.4304 Y63.6931
G01 X51.3842 Y63.6765
G01 X51.3366 Y63.6646
G01 X51.2880 Y63.6574
G01 X51.2390 Y63.6550
G01 X51.1900 Y63.6574
G01 X51.1415 Y63.6646
G01 X51.0939 Y63.6765
G01 X51.0477 Y63.6931
G01 X51.0033 Y63.7141
G01 X50.9612 Y63.7393
G01 X50.9218 Y63.7685
G01 X50.8855 Y63.8015
G01 X50.8525 Y63.8378
G01 X50.8233 Y63.8772
G01 X50.7981 Y63.9193
G01 X50.7771 Y63.9637
G01 X50.7605 Y64.0099
G01 X50.7486 Y64.0575
G01 X50.7414 Y64.1060
G01 X50.7390 Y64.1550
G01 X50.7414 Y64.2040
G01 X50.7486 Y64.2526
G01 X50.7605 Y64.3002
G01 X50.7771 Y64.3464
G01 X50.7981 Y64.3907
G01 X50.8233 Y64.4328
G01 X50.8525 Y64.4722
G01 X50.8855 Y64.5086
G01 X50.9218 Y64.5415
G01 X50.9612 Y64.5707
G01 X51.0033 Y64.5960
G01 X51.0477 Y64.6170
G01 X51.0939 Y64.6335
G01 X51.1415 Y64.6454
G01 X51.1900 Y64.6526
G01 X51.2390 Y64.6550
G01 X51.2880 Y64.6526
G01 X51.3366 Y64.6454
G01 X51.3842 Y64.6335
G01 X51.4304 Y64.6170
G01 X51.4747 Y64.5960
G01 X51.5168 Y64.5707
G01 X51.5562 Y64.5415
G01 X51.5926 Y64.5086
G01 X51.6255 Y64.4722
G01 X51.6547 Y64.4328
G01 X51.6800 Y64.3907
G01 X51.7010 Y64.3464
G01 X51.7175 Y64.3002
G01 X51.7294 Y64.2526
G01 X51.7366 Y64.2040
G01 X51.7390 Y64.1550
G00 Z2.0000
G00 X61.7390 Y64.1550
G01 F60.00
G01 Z-0.6000
G01 F120.00
G01 X61.7366 Y64.1060
G01 X61.7294 Y64.0575
G01 X61.7175 Y64.0099
G01 X61.7010 Y63.9637
G01 X61.6800 Y63.9193
G01 X61.6547 Y63.8772
G01 X61.6255 Y63.8378
G01 X61.5926 Y63.8015
G01 X61.5562 Y63.7685
G01 X61.5168 Y63.7393
G01 X61.4747 Y63.7141
G01 X61.4304 Y63.6931
G01 X61.3842 Y63.6765
G01 X61.3366 Y63.6646
G01 X61.2880 Y63.6574
G01 X61.2390 Y63.6550
G01 X61.1900 Y63.6574
G01 X61.1415 Y63.6646
G01 X61.0939 Y63.6765
G01 X61.0477 Y63.6931
G01 X61.0033 Y63.7141
G01 X60.9612 Y63.7393
G01 X60.9218 Y63.7685
G01 X60.8855 Y63.8015
G01 X60.8525 Y63.8378
G01 X60.8233 Y63.8772
G01 X60.7981 Y63.9193
G01 X60.7771 Y63.9637
G01 X60.7605 Y64.0099
G01 X60.7486 Y64.0575
G01 X60.7414 Y64.1060
G01 X60.7390 Y64.1550
G01 X60.7414 Y64.2040
G01 X60.7486 Y64.2526
G01 X60.7605 Y64.3002
G01 X60.7771 Y64.3464
G01 X60.7981 Y64.3907
G01 X60.8233 Y64.4328
G01 X60.8525 Y64.4722
G01 X60.8855 Y64.5086
G01 X60.9218 Y64.5415
G01 X60.9612 Y64.5707
G01 X61.0033 Y64.5960
G01 X61.0477 Y64.6170
G01 X61.0939 Y64.6335
G01 X61.1415 Y64.6454
G01 X61.1900 Y64.6526
G01 X61.2390 Y64.6550
G01 X61.2880 Y64.6526
G01 X61.3366 Y64.6454
G01 X61.3842 Y64.6335
G01 X61.4304 Y64.6170
G01 X61.4747 Y64.5960
G01 X61.5168 Y64.5707
G01 X61.5562 Y64.5415
G01 X61.5926 Y64.5086
G01 X61.6255 Y64.4722
G01 X61.6547 Y64.4328
G01 X61.6800 Y64.3907
G01 X61.7010 Y64.3464
G01 X61.7175 Y64.3002
G01 X61.7294 Y64.2526
G01 X61.7366 Y64.2040
G01 X61.7390 Y64.1550
G00 X61.7390 Y64.1550
G01 F60.00
G01 Z-1.2000
G01 F120.00
G01 X61.7366 Y64.1060
G01 X61.7294 Y64.0575
G01 X61.7175 Y64.0099
G01 X61.7010 Y63.9637
G01 X61.6800 Y63.9193
G01 X61.6547 Y63.8772
G01 X61.6255 Y63.8378
G01 X61.5926 Y63.8015
G01 X61.5562 Y63.7685
G01 X61.5168 Y63.7393
G01 X61.4747 Y63.7141
G01 X61.4304 Y63.6931
G01 X61.3842 Y63.6765
G01 X61.3366 Y63.6646
G01 X61.2880 Y63.6574
G01 X61.2390 Y63.6550
G01 X61.1900 Y63.6574
G01 X61.1415 Y63.6646
G01 X61.0939 Y63.6765
G01 X61.0477 Y63.6931
G01 X61.0033 Y63.7141
G01 X60.9612 Y63.7393
G01 X60.9218 Y63.7685
G01 X60.8855 Y63.8015
G01 X60.8525 Y63.8378
G01 X60.8233 Y63.8772
G01 X60.7981 Y63.9193
G01 X60.7771 Y63.9637
G01 X60.7605 Y64.0099
G01 X60.7486 Y64.0575
G01 X60.7414 Y64.1060
G01 X60.7390 Y64.1550
G01 X60.7414 Y64.2040
G01 X60.7486 Y64.2526
G01 X60.7605 Y64.3002
G01 X60.7771 Y64.3464
G01 X60.7981 Y64.3907
G01 X60.8233 Y64.4328
G01 X60.8525 Y64.4722
G01 X60.8855 Y64.5086
G01 X60.9218 Y64.5415
G01 X60.9612 Y64.5707
G01 X61.0033 Y64.5960
G01 X61.0477 Y64.6170
G01 X61.0939 Y64.6335
G01 X61.1415 Y64.6454
G01 X61.1900 Y64.6526
G01 X61.2390 Y64.6550
G01 X61.2880 Y64.6526
G01 X61.3366 Y64.6454
G01 X61.3842 Y64.6335
G01 X61.4304 Y64.6170
G01 X61.4747 Y64.5960
G01 X61.5168 Y64.5707
G01 X61.5562 Y64.5415
G01 X61.5926 Y64.5086
G01 X61.6255 Y64.4722
G01 X61.6547 Y64.4328
G01 X61.6800 Y64.3907
G01 X61.7010 Y64.3464
G01 X61.7175 Y64.3002
G01 X61.7294 Y64.2526
G01 X61.7366 Y64.2040
G01 X61.7390 Y64.1550
G00 X61.7390 Y64.1550
G01 F60.00
G01 Z-1.8000
G01 F120.00
G01 X61.7366 Y64.1060
G01 X61.7294 Y64.0575
G01 X61.7175 Y64.0099
G01 X61.7010 Y63.9637
G01 X61.6800 Y63.9193
G01 X61.6547 Y63.8772
G01 X61.6255 Y63.8378
G01 X61.5926 Y63.8015
G01 X61.5562 Y63.7685
G01 X61.5168 Y63.7393
G01 X61.4747 Y63.7141
G01 X61.4304 Y63.6931
G01 X61.3842 Y63.6765
G01 X61.3366 Y63.6646
G01 X61.2880 Y63.6574
G01 X61.2390 Y63.6550
G01 X61.1900 Y63.6574
G01 X61.1415 Y63.6646
G01 X61.0939 Y63.6765
G01 X61.0477 Y63.6931
G01 X61.0033 Y63.7141
G01 X60.9612 Y63.7393
G01 X60.9218 Y63.7685
G01 X60.8855 Y63.8015
G01 X60.8525 Y63.8378
G01 X60.8233 Y63.8772
G01 X60.7981 Y63.9193
G01 X60.7771 Y63.9637
G01 X60.7605 Y64.0099
G01 X60.7486 Y64.0575
G01 X60.7414 Y64.1060
G01 X60.7390 Y64.1550
G01 X60.7414 Y64.2040
G01 X60.7486 Y64.2526
G01 X60.7605 Y64.3002
G01 X60.7771 Y64.3464
G01 X60.7981 Y64.3907
G01 X60.8233 Y64.4328
G01 X60.8525 Y64.4722
G01 X60.8855 Y64.5086
G01 X60.9218 Y64.5415
G01 X60.9612 Y64.5707
G01 X61.0033 Y64.5960
G01 X61.0477 Y64.6170
G01 X61.0939 Y64.6335
G01 X61.1415 Y64.6454
G01 X61.1900 Y64.6526
G01 X61.2390 Y64.6550
G01 X61.2880 Y64.6526
G01 X61.3366 Y64.6454
G01 X61.3842 Y64.6335
G01 X61.4304 Y64.6170
G01 X61.4747 Y64.5960
G01 X61.5168 Y64.5707
G01 X61.5562 Y64.5415
G01 X61.5926 Y64.5086
G01 X61.6255 Y64.4722
G01 X61.6547 Y64.4328
G01 X61.6800 Y64.3907
G01 X61.7010 Y64.3464
G01 X61.7175 Y64.3002
G01 X61.7294 Y64.2526
G01 X61.7366 Y64.2040
G01 X61.7390 Y64.1550
G00 Z2.0000
G00 X42.2390 Y82.8450
G01 F60.00
G01 Z-0.6000
G01 F120.00
G01 X42.2381 Y82.8353
G01 X42.2352 Y82.8259
G01 X42.2306 Y82.8172
G01 X42.2244 Y82.8097
G01 X42.2168 Y82.8034
G01 X42.2081 Y82.7988
G01 X42.1988 Y82.7960
G01 X42.1890 Y82.7950
G01 X42.1793 Y82.7960
G01 X42.1699 Y82.7988
G01 X42.1612 Y82.8034
G01 X42.1537 Y82.8097
G01 X42.1474 Y82.8172
G01 X42.1428 Y82.8259
G01 X42.1400 Y82.8353
G01 X42.1390 Y82.8450
G01 X42.1400 Y82.8548
G01 X42.1428 Y82.8641
G01 X42.1474 Y82.8728
G01 X42.1537 Y82.8804
G01 X42.1612 Y82.8866
G01 X42.1699 Y82.8912
G01 X42.1793 Y82.8941
G01 X42.1890 Y82.8950
G01 X42.1988 Y82.8941
G01 X42.2081 Y82.8912
G01 X42.2168 Y82.8866
G01 X42.2244 Y82.8804
G01 X42.2306 Y82.8728
G01 X42.2352 Y82.8641
G01 X42.2381 Y82.8548
G01 X42.2390 Y82.8450
G00 X42.2390 Y82.8450
G01 F60.00
G01 Z-1.2000
G01 F120.00
G01 X42.2381 Y82.8353
G01 X42.2352 Y82.8259
G01 X42.2306 Y82.8172
G01 X42.2244 Y82.8097
G01 X42.2168 Y82.8034
G01 X42.2081 Y82.7988
G01 X42.1988 Y82.7960
G01 X42.1890 Y82.7950
G01 X42.1793 Y82.7960
G01 X42.1699 Y82.7988
G01 X42.1612 Y82.8034
G01 X42.1537 Y82.8097
G01 X42.1474 Y82.8172
G01 X42.1428 Y82.8259
G01 X42.1400 Y82.8353
G01 X42.1390 Y82.8450
G01 X42.1400 Y82.8548
G01 X42.1428 Y82.8641
G01 X42.1474 Y82.8728
G01 X42.1537 Y82.8804
G01 X42.1612 Y82.8866
G01 X42.1699 Y82.8912
G01 X42.1793 Y82.8941
G01 X42.1890 Y82.8950
G01 X42.1988 Y82.8941
G01 X42.2081 Y82.8912
G01 X42.2168 Y82.8866
G01 X42.2244 Y82.8804
G01 X42.2306 Y82.8728
G01 X42.2352 Y82.8641
G01 X42.2381 Y82.8548
G01 X42.2390 Y82.8450
G00 X42.2390 Y82.8450
G01 F60.00
G01 Z-1.8000
G01 F120.00
G01 X42.2381 Y82.8353
G01 X42.2352 Y82.8259
G01 X42.2306 Y82.8172
G01 X42.2244 Y82.8097
G01 X42.2168 Y82.8034
G01 X42.2081 Y82.7988
G01 X42.1988 Y82.7960
G01 X42.1890 Y82.7950
G01 X42.1793 Y82.7960
G01 X42.1699 Y82.7988
G01 X42.1612 Y82.8034
G01 X42.1537 Y82.8097
G01 X42.1474 Y82.8172
G01 X42.1428 Y82.8259
G01 X42.1400 Y82.8353
G01 X42.1390 Y82.8450
G01 X42.1400 Y82.8548
G01 X42.1428 Y82.8641
G01 X42.1474 Y82.8728
G01 X42.1537 Y82.8804
G01 X42.1612 Y82.8866
G01 X42.1699 Y82.8912
G01 X42.1793 Y82.8941
G01 X42.1890 Y82.8950
G01 X42.1988 Y82.8941
G01 X42.2081 Y82.8912
G01 X42.2168 Y82.8866
G01 X42.2244 Y82.8804
G01 X42.2306 Y82.8728
G01 X42.2352 Y82.8641
G01 X42.2381 Y82.8548
G01 X42.2390 Y82.8450
G00 Z2.0000
G00 X39.6990 Y82.8450
G01 F60.00
G01 Z-0.6000
G01 F120.00
G01 X39.6981 Y82.8353
G01 X39.6952 Y82.8259
G01 X39.6906 Y82.8172
G01 X39.6844 Y82.8097
G01 X39.6768 Y82.8034
G01 X39.6681 Y82.7988
G01 X39.6588 Y82.7960
G01 X39.6490 Y82.7950
G01 X39.6393 Y82.7960
G01 X39.6299 Y82.7988
G01 X39.6212 Y82.8034
G01 X39.6137 Y82.8097
G01 X39.6074 Y82.8172
G01 X39.6028 Y82.8259
G01 X39.6000 Y82.8353
G01 X39.5990 Y82.8450
G01 X39.6000 Y82.8548
G01 X39.6028 Y82.8641
G01 X39.6074 Y82.8728
G01 X39.6137 Y82.8804
G01 X39.6212 Y82.8866
G01 X39.6299 Y82.8912
G01 X39.6393 Y82.8941
G01 X39.6490 Y82.8950
G01 X39.6588 Y82.8941
G01 X39.6681 Y82.8912
G01 X39.6768 Y82.8866
G01 X39.6844 Y82.8804
G01 X39.6906 Y82.8728
G01 X39.6952 Y82.8641
G01 X39.6981 Y82.8548
G01 X39.6990 Y82.8450
G00 X39.6990 Y82.8450
G01 F60.00
G01 Z-1.2000
G01 F120.00
G01 X39.6981 Y82.8353
G01 X39.6952 Y82.8259
G01 X39.6906 Y82.8172
G01 X39.6844 Y82.8097
G01 X39.6768 Y82.8034
G01 X39.6681 Y82.7988
G01 X39.6588 Y82.7960
G01 X39.6490 Y82.7950
G01 X39.6393 Y82.7960
G01 X39.6299 Y82.7988
G01 X39.6212 Y82.8034
G01 X39.6137 Y82.8097
G01 X39.6074 Y82.8172
G01 X39.6028 Y82.8259
G01 X39.6000 Y82.8353
G01 X39.5990 Y82.8450
G01 X39.6000 Y82.8548
G01 X39.6028 Y82.8641
G01 X39.6074 Y82.8728
G01 X39.6137 Y82.8804
G01 X39.6212 Y82.8866
G01 X39.6299 Y82.8912
G01 X39.6393 Y82.8941
G01 X39.6490 Y82.8950
G01 X39.6588 Y82.8941
G01 X39.6681 Y82.8912
G01 X39.6768 Y82.8866
G01 X39.6844 Y82.8804
G01 X39.6906 Y82.8728
G01 X39.6952 Y82.8641
G01 X39.6981 Y82.8548
G01 X39.6990 Y82.8450
G00 X39.6990 Y82.8450
G01 F60.00
G01 Z-1.8000
G01 F120.00
G01 X39.6981 Y82.8353
G01 X39.6952 Y82.8259
G01 X39.6906 Y82.8172
G01 X39.6844 Y82.8097
G01 X39.6768 Y82.8034
G01 X39.6681 Y82.7988
G01 X39.6588 Y82.7960
G01 X39.6490 Y82.7950
G01 X39.6393 Y82.7960
G01 X39.6299 Y82.7988
G01 X39.6212 Y82.8034
G01 X39.6137 Y82.8097
G01 X39.6074 Y82.8172
G01 X39.6028 Y82.8259
G01 X39.6000 Y82.8353
G01 X39.5990 Y82.8450
G01 X39.6000 Y82.8548
G01 X39.6028 Y82.8641
G01 X39.6074 Y82.8728
G01 X39.6137 Y82.8804
G01 X39.6212 Y82.8866
G01 X39.6299 Y82.8912
G01 X39.6393 Y82.8941
G01 X39.6490 Y82.8950
G01 X39.6588 Y82.8941
G01 X39.6681 Y82.8912
G01 X39.6768 Y82.8866
G01 X39.6844 Y82.8804
G01 X39.6906 Y82.8728
G01 X39.6952 Y82.8641
G01 X39.6981 Y82.8548
G01 X39.6990 Y82.8450
G00 Z2.0000
G00 X37.1590 Y82.8450
G01 F60.00
G01 Z-0.6000
G01 F120.00
G01 X37.1581 Y82.8353
G01 X37.1552 Y82.8259
G01 X37.1506 Y82.8172
G01 X37.1444 Y82.8097
G01 X37.1368 Y82.8034
G01 X37.1281 Y82.7988
G01 X37.1188 Y82.7960
G01 X37.1090 Y82.7950
G01 X37.0993 Y82.7960
G01 X37.0899 Y82.7988
G01 X37.0812 Y82.8034
G01 X37.0737 Y82.8097
G01 X37.0674 Y82.8172
G01 X37.0628 Y82.8259
G01 X37.0600 Y82.8353
G01 X37.0590 Y82.8450
G01 X37.0600 Y82.8548
G01 X37.0628 Y82.8641
G01 X37.0674 Y82.8728
G01 X37.0737 Y82.8804
G01 X37.0812 Y82.8866
G01 X37.0899 Y82.8912
G01 X37.0993 Y82.8941
G01 X37.1090 Y82.8950
G01 X37.1188 Y82.8941
G01 X37.1281 Y82.8912
G01 X37.1368 Y82.8866
G01 X37.1444 Y82.8804
G01 X37.1506 Y82.8728
G01 X37.1552 Y82.8641
G01 X37.1581 Y82.8548
G01 X37.1590 Y82.8450
G00 X37.1590 Y82.8450
G01 F60.00
G01 Z-1.2000
G01 F120.00
G01 X37.1581 Y82.8353
G01 X37.1552 Y82.8259
G01 X37.1506 Y82.8172
G01 X37.1444 Y82.8097
G01 X37.1368 Y82.8034
G01 X37.1281 Y82.7988
G01 X37.1188 Y82.7960
G01 X37.1090 Y82.7950
G01 X37.0993 Y82.7960
G01 X37.0899 Y82.7988
G01 X37.0812 Y82.8034
G01 X37.0737 Y82.8097
G01 X37.0674 Y82.8172
G01 X37.0628 Y82.8259
G01 X37.0600 Y82.8353
G01 X37.0590 Y82.8450
G01 X37.0600 Y82.8548
G01 X37.0628 Y82.8641
G01 X37.0674 Y82.8728
G01 X37.0737 Y82.8804
G01 X37.0812 Y82.8866
G01 X37.0899 Y82.8912
G01 X37.0993 Y82.8941
G01 X37.1090 Y82.8950
G01 X37.1188 Y82.8941
G01 X37.1281 Y82.8912
G01 X37.1368 Y82.8866
G01 X37.1444 Y82.8804
G01 X37.1506 Y82.8728
G01 X37.1552 Y82.8641
G01 X37.1581 Y82.8548
G01 X37.1590 Y82.8450
G00 X37.1590 Y82.8450
G01 F60.00
G01 Z-1.8000
G01 F120.00
G01 X37.1581 Y82.8353
G01 X37.1552 Y82.8259
G01 X37.1506 Y82.8172
G01 X37.1444 Y82.8097
G01 X37.1368 Y82.8034
G01 X37.1281 Y82.7988
G01 X37.1188 Y82.7960
G01 X37.1090 Y82.7950
G01 X37.0993 Y82.7960
G01 X37.0899 Y82.7988
G01 X37.0812 Y82.8034
G01 X37.0737 Y82.8097
G01 X37.0674 Y82.8172
G01 X37.0628 Y82.8259
G01 X37.0600 Y82.8353
G01 X37.0590 Y82.8450
G01 X37.0600 Y82.8548
G01 X37.0628 Y82.8641
G01 X37.0674 Y82.8728
G01 X37.0737 Y82.8804
G01 X37.0812 Y82.8866
G01 X37.0899 Y82.8912
G01 X37.0993 Y82.8941
G01 X37.1090 Y82.8950
G01 X37.1188 Y82.8941
G01 X37.1281 Y82.8912
G01 X37.1368 Y82.8866
G01 X37.1444 Y82.8804
G01 X37.1506 Y82.8728
G01 X37.1552 Y82.8641
G01 X37.1581 Y82.8548
G01 X37.1590 Y82.8450
G00 Z2.0000
G00 X23.9510 Y82.8450
G01 F60.00
G01 Z-0.6000
G01 F120.00
G01 X23.9501 Y82.8353
G01 X23.9472 Y82.8259
G01 X23.9426 Y82.8172
G01 X23.9364 Y82.8097
G01 X23.9288 Y82.8034
G01 X23.9201 Y82.7988
G01 X23.9108 Y82.7960
G01 X23.9010 Y82.7950
G01 X23.8913 Y82.7960
G01 X23.8819 Y82.7988
G01 X23.8732 Y82.8034
G01 X23.8657 Y82.8097
G01 X23.8594 Y82.8172
G01 X23.8548 Y82.8259
G01 X23.8520 Y82.8353
G01 X23.8510 Y82.8450
G01 X23.8520 Y82.8548
G01 X23.8548 Y82.8641
G01 X23.8594 Y82.8728
G01 X23.8657 Y82.8804
G01 X23.8732 Y82.8866
G01 X23.8819 Y82.8912
G01 X23.8913 Y82.8941
G01 X23.9010 Y82.8950
G01 X23.9108 Y82.8941
G01 X23.9201 Y82.8912
G01 X23.9288 Y82.8866
G01 X23.9364 Y82.8804
G01 X23.9426 Y82.8728
G01 X23.9472 Y82.8641
G01 X23.9501 Y82.8548
G01 X23.9510 Y82.8450
G00 X23.9510 Y82.8450
G01 F60.00
G01 Z-1.2000
G01 F120.00
G01 X23.9501 Y82.8353
G01 X23.9472 Y82.8259
G01 X23.9426 Y82.8172
G01 X23.9364 Y82.8097
G01 X23.9288 Y82.8034
G01 X23.9201 Y82.7988
G01 X23.9108 Y82.7960
G01 X23.9010 Y82.7950
G01 X23.8913 Y82.7960
G01 X23.8819 Y82.7988
G01 X23.8732 Y82.8034
G01 X23.8657 Y82.8097
G01 X23.8594 Y82.8172
G01 X23.8548 Y82.8259
G01 X23.8520 Y82.8353
G01 X23.8510 Y82.8450
G01 X23.8520 Y82.8548
G01 X23.8548 Y82.8641
G01 X23.8594 Y82.8728
G01 X23.8657 Y82.8804
G01 X23.8732 Y82.8866
G01 X23.8819 Y82.8912
G01 X23.8913 Y82.8941
G01 X23.9010 Y82.8950
G01 X23.9108 Y82.8941
G01 X23.9201 Y82.8912
G01 X23.9288 Y82.8866
G01 X23.9364 Y82.8804
G01 X23.9426 Y82.8728
G01 X23.9472 Y82.8641
G01 X23.9501 Y82.8548
G01 X23.9510 Y82.8450
G00 X23.9510 Y82.8450
G01 F60.00
G01 Z-1.8000
G01 F120.00
G01 X23.9501 Y82.8353
G01 X23.9472 Y82.8259
G01 X23.9426 Y82.8172
G01 X23.9364 Y82.8097
G01 X23.9288 Y82.8034
G01 X23.9201 Y82.7988
G01 X23.9108 Y82.7960
G01 X23.9010 Y82.7950
G01 X23.8913 Y82.7960
G01 X23.8819 Y82.7988
G01 X23.8732 Y82.8034
G01 X23.8657 Y82.8097
G01 X23.8594 Y82.8172
G01 X23.8548 Y82.8259
G01 X23.8520 Y82.8353
G01 X23.8510 Y82.8450
G01 X23.8520 Y82.8548
G01 X23.8548 Y82.8641
G01 X23.8594 Y82.8728
G01 X23.8657 Y82.8804
G01 X23.8732 Y82.8866
G01 X23.8819 Y82.8912
G01 X23.8913 Y82.8941
G01 X23.9010 Y82.8950
G01 X23.9108 Y82.8941
G01 X23.9201 Y82.8912
G01 X23.9288 Y82.8866
G01 X23.9364 Y82.8804
G01 X23.9426 Y82.8728
G01 X23.9472 Y82.8641
G01 X23.9501 Y82.8548
G01 X23.9510 Y82.8450
G00 Z2.0000
G00 X21.4110 Y82.8450
G01 F60.00
G01 Z-0.6000
G01 F120.00
G01 X21.4101 Y82.8353
G01 X21.4072 Y82.8259
G01 X21.4026 Y82.8172
G01 X21.3964 Y82.8097
G01 X21.3888 Y82.8034
G01 X21.3801 Y82.7988
G01 X21.3708 Y82.7960
G01 X21.3610 Y82.7950
G01 X21.3513 Y82.7960
G01 X21.3419 Y82.7988
G01 X21.3332 Y82.8034
G01 X21.3257 Y82.8097
G01 X21.3194 Y82.8172
G01 X21.3148 Y82.8259
G01 X21.3120 Y82.8353
G01 X21.3110 Y82.8450
G01 X21.3120 Y82.8548
G01 X21.3148 Y82.8641
G01 X21.3194 Y82.8728
G01 X21.3257 Y82.8804
G01 X21.3332 Y82.8866
G01 X21.3419 Y82.8912
G01 X21.3513 Y82.8941
G01 X21.3610 Y82.8950
G01 X21.3708 Y82.8941
G01 X21.3801 Y82.8912
G01 X21.3888 Y82.8866
G01 X21.3964 Y82.8804
G01 X21.4026 Y82.8728
G01 X21.4072 Y82.8641
G01 X21.4101 Y82.8548
G01 X21.4110 Y82.8450
G00 X21.4110 Y82.8450
G01 F60.00
G01 Z-1.2000
G01 F120.00
G01 X21.4101 Y82.8353
G01 X21.4072 Y82.8259
G01 X21.4026 Y82.8172
G01 X21.3964 Y82.8097
G01 X21.3888 Y82.8034
G01 X21.3801 Y82.7988
G01 X21.3708 Y82.7960
G01 X21.3610 Y82.7950
G01 X21.3513 Y82.7960
G01 X21.3419 Y82.7988
G01 X21.3332 Y82.8034
G01 X21.3257 Y82.8097
G01 X21.3194 Y82.8172
G01 X21.3148 Y82.8259
G01 X21.3120 Y82.8353
G01 X21.3110 Y82.8450
G01 X21.3120 Y82.8548
G01 X21.3148 Y82.8641
G01 X21.3194 Y82.8728
G01 X21.3257 Y82.8804
G01 X21.3332 Y82.8866
G01 X21.3419 Y82.8912
G01 X21.3513 Y82.8941
G01 X21.3610 Y82.8950
G01 X21.3708 Y82.8941
G01 X21.3801 Y82.8912
G01 X21.3888 Y82.8866
G01 X21.3964 Y82.8804
G01 X21.4026 Y82.8728
G01 X21.4072 Y82.8641
G01 X21.4101 Y82.8548
G01 X21.4110 Y82.8450
G00 X21.4110 Y82.8450
G01 F60.00
G01 Z-1.8000
G01 F120.00
G01 X21.4101 Y82.8353
G01 X21.4072 Y82.8259
G01 X21.4026 Y82.8172
G01 X21.3964 Y82.8097
G01 X21.3888 Y82.8034
G01 X21.3801 Y82.7988
G01 X21.3708 Y82.7960
G01 X21.3610 Y82.7950
G01 X21.3513 Y82.7960
G01 X21.3419 Y82.7988
G01 X21.3332 Y82.8034
G01 X21.3257 Y82.8097
G01 X21.3194 Y82.8172
G01 X21.3148 Y82.8259
G01 X21.3120 Y82.8353
G01 X21.3110 Y82.8450
G01 X21.3120 Y82.8548
G01 X21.3148 Y82.8641
G01 X21.3194 Y82.8728
G01 X21.3257 Y82.8804
G01 X21.3332 Y82.8866
G01 X21.3419 Y82.8912
G01 X21.3513 Y82.8941
G01 X21.3610 Y82.8950
G01 X21.3708 Y82.8941
G01 X21.3801 Y82.8912
G01 X21.3888 Y82.8866
G01 X21.3964 Y82.8804
G01 X21.4026 Y82.8728
G01 X21.4072 Y82.8641
G01 X21.4101 Y82.8548
G01 X21.4110 Y82.8450
G00 Z2.0000
G00 X18.8710 Y82.8450
G01 F60.00
G01 Z-0.6000
G01 F120.00
G01 X18.8701 Y82.8353
G01 X18.8672 Y82.8259
G01 X18.8626 Y82.8172
G01 X18.8564 Y82.8097
G01 X18.8488 Y82.8034
G01 X18.8401 Y82.7988
G01 X18.8308 Y82.7960
G01 X18.8210 Y82.7950
G01 X18.8113 Y82.7960
G01 X18.8019 Y82.7988
G01 X18.7932 Y82.8034
G01 X18.7857 Y82.8097
G01 X18.7794 Y82.8172
G01 X18.7748 Y82.8259
G01 X18.7720 Y82.8353
G01 X18.7710 Y82.8450
G01 X18.7720 Y82.8548
G01 X18.7748 Y82.8641
G01 X18.7794 Y82.8728
G01 X18.7857 Y82.8804
G01 X18.7932 Y82.8866
G01 X18.8019 Y82.8912
G01 X18.8113 Y82.8941
G01 X18.8210 Y82.8950
G01 X18.8308 Y82.8941
G01 X18.8401 Y82.8912
G01 X18.8488 Y82.8866
G01 X18.8564 Y82.8804
G01 X18.8626 Y82.8728
G01 X18.8672 Y82.8641
G01 X18.8701 Y82.8548
G01 X18.8710 Y82.8450
G00 X18.8710 Y82.8450
G01 F60.00
G01 Z-1.2000
G01 F120.00
G01 X18.8701 Y82.8353
G01 X18.8672 Y82.8259
G01 X18.8626 Y82.8172
G01 X18.8564 Y82.8097
G01 X18.8488 Y82.8034
G01 X18.8401 Y82.7988
G01 X18.8308 Y82.7960
G01 X18.8210 Y82.7950
G01 X18.8113 Y82.7960
G01 X18.8019 Y82.7988
G01 X18.7932 Y82.8034
G01 X18.7857 Y82.8097
G01 X18.7794 Y82.8172
G01 X18.7748 Y82.8259
G01 X18.7720 Y82.8353
G01 X18.7710 Y82.8450
G01 X18.7720 Y82.8548
G01 X18.7748 Y82.8641
G01 X18.7794 Y82.8728
G01 X18.7857 Y82.8804
G01 X18.7932 Y82.8866
G01 X18.8019 Y82.8912
G01 X18.8113 Y82.8941
G01 X18.8210 Y82.8950
G01 X18.8308 Y82.8941
G01 X18.8401 Y82.8912
G01 X18.8488 Y82.8866
G01 X18.8564 Y82.8804
G01 X18.8626 Y82.8728
G01 X18.8672 Y82.8641
G01 X18.8701 Y82.8548
G01 X18.8710 Y82.8450
G00 X18.8710 Y82.8450
G01 F60.00
G01 Z-1.8000
G01 F120.00
G01 X18.8701 Y82.8353
G01 X18.8672 Y82.8259
G01 X18.8626 Y82.8172
G01 X18.8564 Y82.8097
G01 X18.8488 Y82.8034
G01 X18.8401 Y82.7988
G01 X18.8308 Y82.7960
G01 X18.8210 Y82.7950
G01 X18.8113 Y82.7960
G01 X18.8019 Y82.7988
G01 X18.7932 Y82.8034
G01 X18.7857 Y82.8097
G01 X18.7794 Y82.8172
G01 X18.7748 Y82.8259
G01 X18.7720 Y82.8353
G01 X18.7710 Y82.8450
G01 X18.7720 Y82.8548
G01 X18.7748 Y82.8641
G01 X18.7794 Y82.8728
G01 X18.7857 Y82.8804
G01 X18.7932 Y82.8866
G01 X18.8019 Y82.8912
G01 X18.8113 Y82.8941
G01 X18.8210 Y82.8950
G01 X18.8308 Y82.8941
G01 X18.8401 Y82.8912
G01 X18.8488 Y82.8866
G01 X18.8564 Y82.8804
G01 X18.8626 Y82.8728
G01 X18.8672 Y82.8641
G01 X18.8701 Y82.8548
G01 X18.8710 Y82.8450
G00 Z2.0000
G00 X8.9210 Y63.0170
G01 F60.00
G01 Z-0.6000
G01 F120.00
G01 X8.9198 Y62.9915
G01 X8.9160 Y62.9663
G01 X8.9098 Y62.9415
G01 X8.9012 Y62.9175
G01 X8.8903 Y62.8944
G01 X8.8772 Y62.8726
G01 X8.8620 Y62.8521
G01 X8.8449 Y62.8332
G01 X8.8260 Y62.8160
G01 X8.8055 Y62.8008
G01 X8.7836 Y62.7877
G01 X8.7605 Y62.7768
G01 X8.7365 Y62.7682
G01 X8.7117 Y62.7620
G01 X8.6865 Y62.7583
G01 X8.6610 Y62.7570
G01 X8.6355 Y62.7583
G01 X8.6103 Y62.7620
G01 X8.5855 Y62.7682
G01 X8.5615 Y62.7768
G01 X8.5384 Y62.7877
G01 X8.5166 Y62.8008
G01 X8.4961 Y62.8160
G01 X8.4772 Y62.8332
G01 X8.4600 Y62.8521
G01 X8.4448 Y62.8726
G01 X8.4317 Y62.8944
G01 X8.4208 Y62.9175
G01 X8.4122 Y62.9415
G01 X8.4060 Y62.9663
G01 X8.4023 Y62.9915
G01 X8.4010 Y63.0170
G01 X8.4023 Y63.0425
G01 X8.4060 Y63.0677
G01 X8.4122 Y63.0925
G01 X8.4208 Y63.1165
G01 X8.4317 Y63.1396
G01 X8.4448 Y63.1615
G01 X8.4600 Y63.1820
G01 X8.4772 Y63.2009
G01 X8.4961 Y63.2180
G01 X8.5166 Y63.2332
G01 X8.5384 Y63.2463
G01 X8.5615 Y63.2572
G01 X8.5855 Y63.2658
G01 X8.6103 Y63.2720
G01 X8.6355 Y63.2758
G01 X8.6610 Y63.2770
G01 X8.6865 Y63.2758
G01 X8.7117 Y63.2720
G01 X8.7365 Y63.2658
G01 X8.7605 Y63.2572
G01 X8.7836 Y63.2463
G01 X8.8055 Y63.2332
G01 X8.8260 Y63.2180
G01 X8.8449 Y63.2009
G01 X8.8620 Y63.1820
G01 X8.8772 Y63.1615
G01 X8.8903 Y63.1396
G01 X8.9012 Y63.1165
G01 X8.9098 Y63.0925
G01 X8.9160 Y63.0677
G01 X8.9198 Y63.0425
G01 X8.9210 Y63.0170
G00 X8.9210 Y63.0170
G01 F60.00
G01 Z-1.2000
G01 F120.00
G01 X8.9198 Y62.9915
G01 X8.9160 Y62.9663
G01 X8.9098 Y62.9415
G01 X8.9012 Y62.9175
G01 X8.8903 Y62.8944
G01 X8.8772 Y62.8726
G01 X8.8620 Y62.8521
G01 X8.8449 Y62.8332
G01 X8.8260 Y62.8160
G01 X8.8055 Y62.8008
G01 X8.7836 Y62.7877
G01 X8.7605 Y62.7768
G01 X8.7365 Y62.7682
G01 X8.7117 Y62.7620
G01 X8.6865 Y62.7583
G01 X8.6610 Y62.7570
G01 X8.6355 Y62.7583
G01 X8.6103 Y62.7620
G01 X8.5855 Y62.7682
G01 X8.5615 Y62.7768
G01 X8.5384 Y62.7877
G01 X8.5166 Y62.8008
G01 X8.4961 Y62.8160
G01 X8.4772 Y62.8332
G01 X8.4600 Y62.8521
G01 X8.4448 Y62.8726
G01 X8.4317 Y62.8944
G01 X8.4208 Y62.9175
G01 X8.4122 Y62.9415
G01 X8.4060 Y62.9663
G01 X8.4023 Y62.9915
G01 X8.4010 Y63.0170
G01 X8.4023 Y63.0425
G01 X8.4060 Y63.0677
G01 X8.4122 Y63.0925
G01 X8.4208 Y63.1165
G01 X8.4317 Y63.1396
G01 X8.4448 Y63.1615
G01 X8.4600 Y63.1820
G01 X8.4772 Y63.2009
G01 X8.4961 Y63.2180
G01 X8.5166 Y63.2332
G01 X8.5384 Y63.2463
G01 X8.5615 Y63.2572
G01 X8.5855 Y63.2658
G01 X8.6103 Y63.2720
G01 X8.6355 Y63.2758
G01 X8.6610 Y63.2770
G01 X8.6865 Y63.2758
G01 X8.7117 Y63.2720
G01 X8.7365 Y63.2658
G01 X8.7605 Y63.2572
G01 X8.7836 Y63.2463
G01 X8.8055 Y63.2332
G01 X8.8260 Y63.2180
G01 X8.8449 Y63.2009
G01 X8.8620 Y63.1820
G01 X8.8772 Y63.1615
G01 X8.8903 Y63.1396
G01 X8.9012 Y63.1165
G01 X8.9098 Y63.0925
G01 X8.9160 Y63.0677
G01 X8.9198 Y63.0425
G01 X8.9210 Y63.0170
G00 X8.9210 Y63.0170
G01 F60.00
G01 Z-1.8000
G01 F120.00
G01 X8.9198 Y62.9915
G01 X8.9160 Y62.9663
G01 X8.9098 Y62.9415
G01 X8.9012 Y62.9175
G01 X8.8903 Y62.8944
G01 X8.8772 Y62.8726
G01 X8.8620 Y62.8521
G01 X8.8449 Y62.8332
G01 X8.8260 Y62.8160
G01 X8.8055 Y62.8008
G01 X8.7836 Y62.7877
G01 X8.7605 Y62.7768
G01 X8.7365 Y62.7682
G01 X8.7117 Y62.7620
G01 X8.6865 Y62.7583
G01 X8.6610 Y62.7570
G01 X8.6355 Y62.7583
G01 X8.6103 Y62.7620
G01 X8.5855 Y62.7682
G01 X8.5615 Y62.7768
G01 X8.5384 Y62.7877
G01 X8.5166 Y62.8008
G01 X8.4961 Y62.8160
G01 X8.4772 Y62.8332
G01 X8.4600 Y62.8521
G01 X8.4448 Y62.8726
G01 X8.4317 Y62.8944
G01 X8.4208 Y62.9175
G01 X8.4122 Y62.9415
G01 X8.4060 Y62.9663
G01 X8.4023 Y62.9915
G01 X8.4010 Y63.0170
G01 X8.4023 Y63.0425
G01 X8.4060 Y63.0677
G01 X8.4122 Y63.0925
G01 X8.4208 Y63.1165
G01 X8.4317 Y63.1396
G01 X8.4448 Y63.1615
G01 X8.4600 Y63.1820
G01 X8.4772 Y63.2009
G01 X8.4961 Y63.2180
G01 X8.5166 Y63.2332
G01 X8.5384 Y63.2463
G01 X8.5615 Y63.2572
G01 X8.5855 Y63.2658
G01 X8.6103 Y63.2720
G01 X8.6355 Y63.2758
G01 X8.6610 Y63.2770
G01 X8.6865 Y63.2758
G01 X8.7117 Y63.2720
G01 X8.7365 Y63.2658
G01 X8.7605 Y63.2572
G01 X8.7836 Y63.2463
G01 X8.8055 Y63.2332
G01 X8.8260 Y63.2180
G01 X8.8449 Y63.2009
G01 X8.8620 Y63.1820
G01 X8.8772 Y63.1615
G01 X8.8903 Y63.1396
G01 X8.9012 Y63.1165
G01 X8.9098 Y63.0925
G01 X8.9160 Y63.0677
G01 X8.9198 Y63.0425
G01 X8.9210 Y63.0170
G00 Z2.0000
G00 X8.9210 Y57.9370
G01 F60.00
G01 Z-0.6000
G01 F120.00
G01 X8.9198 Y57.9115
G01 X8.9160 Y57.8863
G01 X8.9098 Y57.8615
G01 X8.9012 Y57.8375
G01 X8.8903 Y57.8144
G01 X8.8772 Y57.7926
G01 X8.8620 Y57.7721
G01 X8.8449 Y57.7532
G01 X8.8260 Y57.7360
G01 X8.8055 Y57.7208
G01 X8.7836 Y57.7077
G01 X8.7605 Y57.6968
G01 X8.7365 Y57.6882
G01 X8.7117 Y57.6820
G01 X8.6865 Y57.6783
G01 X8.6610 Y57.6770
G01 X8.6355 Y57.6783
G01 X8.6103 Y57.6820
G01 X8.5855 Y57.6882
G01 X8.5615 Y57.6968
G01 X8.5384 Y57.7077
G01 X8.5166 Y57.7208
G01 X8.4961 Y57.7360
G01 X8.4772 Y57.7532
G01 X8.4600 Y57.7721
G01 X8.4448 Y57.7926
G01 X8.4317 Y57.8144
G01 X8.4208 Y57.8375
G01 X8.4122 Y57.8615
G01 X8.4060 Y57.8863
G01 X8.4023 Y57.9115
G01 X8.4010 Y57.9370
G01 X8.4023 Y57.9625
G01 X8.4060 Y57.9877
G01 X8.4122 Y58.0125
G01 X8.4208 Y58.0365
G01 X8.4317 Y58.0596
G01 X8.4448 Y58.0815
G01 X8.4600 Y58.1020
G01 X8.4772 Y58.1209
G01 X8.4961 Y58.1380
G01 X8.5166 Y58.1532
G01 X8.5384 Y58.1663
G01 X8.5615 Y58.1772
G01 X8.5855 Y58.1858
G01 X8.6103 Y58.1920
G01 X8.6355 Y58.1958
G01 X8.6610 Y58.1970
G01 X8.6865 Y58.1958
G01 X8.7117 Y58.1920
G01 X8.7365 Y58.1858
G01 X8.7605 Y58.1772
G01 X8.7836 Y58.1663
G01 X8.8055 Y58.1532
G01 X8.8260 Y58.1380
G01 X8.8449 Y58.1209
G01 X8.8620 Y58.1020
G01 X8.8772 Y58.0815
G01 X8.8903 Y58.0596
G01 X8.9012 Y58.0365
G01 X8.9098 Y58.0125
G01 X8.9160 Y57.9877
G01 X8.9198 Y57.9625
G01 X8.9210 Y57.9370
G00 X8.9210 Y57.9370
G01 F60.00
G01 Z-1.2000
G01 F120.00
G01 X8.9198 Y57.9115
G01 X8.9160 Y57.8863
G01 X8.9098 Y57.8615
G01 X8.9012 Y57.8375
G01 X8.8903 Y57.8144
G01 X8.8772 Y57.7926
G01 X8.8620 Y57.7721
G01 X8.8449 Y57.7532
G01 X8.8260 Y57.7360
G01 X8.8055 Y57.7208
G01 X8.7836 Y57.7077
G01 X8.7605 Y57.6968
G01 X8.7365 Y57.6882
G01 X8.7117 Y57.6820
G01 X8.6865 Y57.6783
G01 X8.6610 Y57.6770
G01 X8.6355 Y57.6783
G01 X8.6103 Y57.6820
G01 X8.5855 Y57.6882
G01 X8.5615 Y57.6968
G01 X8.5384 Y57.7077
G01 X8.5166 Y57.7208
G01 X8.4961 Y57.7360
G01 X8.4772 Y57.7532
G01 X8.4600 Y57.7721
G01 X8.4448 Y57.7926
G01 X8.4317 Y57.8144
G01 X8.4208 Y57.8375
G01 X8.4122 Y57.8615
G01 X8.4060 Y57.8863
G01 X8.4023 Y57.9115
G01 X8.4010 Y57.9370
G01 X8.4023 Y57.9625
G01 X8.4060 Y57.9877
G01 X8.4122 Y58.0125
G01 X8.4208 Y58.0365
G01 X8.4317 Y58.0596
G01 X8.4448 Y58.0815
G01 X8.4600 Y58.1020
G01 X8.4772 Y58.1209
G01 X8.4961 Y58.1380
G01 X8.5166 Y58.1532
G01 X8.5384 Y58.1663
G01 X8.5615 Y58.1772
G01 X8.5855 Y58.1858
G01 X8.6103 Y58.1920
G01 X8.6355 Y58.1958
G01 X8.6610 Y58.1970
G01 X8.6865 Y58.1958
G01 X8.7117 Y58.1920
G01 X8.7365 Y58.1858
G01 X8.7605 Y58.1772
G01 X8.7836 Y58.1663
G01 X8.8055 Y58.1532
G01 X8.8260 Y58.1380
G01 X8.8449 Y58.1209
G01 X8.8620 Y58.1020
G01 X8.8772 Y58.0815
G01 X8.8903 Y58.0596
G01 X8.9012 Y58.0365
G01 X8.9098 Y58.0125
G01 X8.9160 Y57.9877
G01 X8.9198 Y57.9625
G01 X8.9210 Y57.9370
G00 X8.9210 Y57.9370
G01 F60.00
G01 Z-1.8000
G01 F120.00
G01 X8.9198 Y57.9115
G01 X8.9160 Y57.8863
G01 X8.9098 Y57.8615
G01 X8.9012 Y57.8375
G01 X8.8903 Y57.8144
G01 X8.8772 Y57.7926
G01 X8.8620 Y57.7721
G01 X8.8449 Y57.7532
G01 X8.8260 Y57.7360
G01 X8.8055 Y57.7208
G01 X8.7836 Y57.7077
G01 X8.7605 Y57.6968
G01 X8.7365 Y57.6882
G01 X8.7117 Y57.6820
G01 X8.6865 Y57.6783
G01 X8.6610 Y57.6770
G01 X8.6355 Y57.6783
G01 X8.6103 Y57.6820
G01 X8.5855 Y57.6882
G01 X8.5615 Y57.6968
G01 X8.5384 Y57.7077
G01 X8.5166 Y57.7208
G01 X8.4961 Y57.7360
G01 X8.4772 Y57.7532
G01 X8.4600 Y57.7721
G01 X8.4448 Y57.7926
G01 X8.4317 Y57.8144
G01 X8.4208 Y57.8375
G01 X8.4122 Y57.8615
G01 X8.4060 Y57.8863
G01 X8.4023 Y57.9115
G01 X8.4010 Y57.9370
G01 X8.4023 Y57.9625
G01 X8.4060 Y57.9877
G01 X8.4122 Y58.0125
G01 X8.4208 Y58.0365
G01 X8.4317 Y58.0596
G01 X8.4448 Y58.0815
G01 X8.4600 Y58.1020
G01 X8.4772 Y58.1209
G01 X8.4961 Y58.1380
G01 X8.5166 Y58.1532
G01 X8.5384 Y58.1663
G01 X8.5615 Y58.1772
G01 X8.5855 Y58.1858
G01 X8.6103 Y58.1920
G01 X8.6355 Y58.1958
G01 X8.6610 Y58.1970
G01 X8.6865 Y58.1958
G01 X8.7117 Y58.1920
G01 X8.7365 Y58.1858
G01 X8.7605 Y58.1772
G01 X8.7836 Y58.1663
G01 X8.8055 Y58.1532
G01 X8.8260 Y58.1380
G01 X8.8449 Y58.1209
G01 X8.8620 Y58.1020
G01 X8.8772 Y58.0815
G01 X8.8903 Y58.0596
G01 X8.9012 Y58.0365
G01 X8.9098 Y58.0125
G01 X8.9160 Y57.9877
G01 X8.9198 Y57.9625
G01 X8.9210 Y57.9370
G00 Z2.0000
G00 X15.3650 Y45.2370
G01 F60.00
G01 Z-0.6000
G01 F120.00
G01 X15.3645 Y45.2272
G01 X15.3631 Y45.2175
G01 X15.3607 Y45.2080
G01 X15.3574 Y45.1987
G01 X15.3532 Y45.1899
G01 X15.3482 Y45.1815
G01 X15.3423 Y45.1736
G01 X15.3357 Y45.1663
G01 X15.3285 Y45.1597
G01 X15.3206 Y45.1539
G01 X15.3122 Y45.1488
G01 X15.3033 Y45.1446
G01 X15.2940 Y45.1413
G01 X15.2845 Y45.1389
G01 X15.2748 Y45.1375
G01 X15.2650 Y45.1370
G01 X15.2552 Y45.1375
G01 X15.2455 Y45.1389
G01 X15.2360 Y45.1413
G01 X15.2267 Y45.1446
G01 X15.2179 Y45.1488
G01 X15.2095 Y45.1539
G01 X15.2016 Y45.1597
G01 X15.1943 Y45.1663
G01 X15.1877 Y45.1736
G01 X15.1819 Y45.1815
G01 X15.1768 Y45.1899
G01 X15.1726 Y45.1987
G01 X15.1693 Y45.2080
G01 X15.1669 Y45.2175
G01 X15.1655 Y45.2272
G01 X15.1650 Y45.2370
G01 X15.1655 Y45.2468
G01 X15.1669 Y45.2565
G01 X15.1693 Y45.2660
G01 X15.1726 Y45.2753
G01 X15.1768 Y45.2842
G01 X15.1819 Y45.2926
G01 X15.1877 Y45.3005
G01 X15.1943 Y45.3077
G01 X15.2016 Y45.3143
G01 X15.2095 Y45.3202
G01 X15.2179 Y45.3252
G01 X15.2267 Y45.3294
G01 X15.2360 Y45.3327
G01 X15.2455 Y45.3351
G01 X15.2552 Y45.3365
G01 X15.2650 Y45.3370
G01 X15.2748 Y45.3365
G01 X15.2845 Y45.3351
G01 X15.2940 Y45.3327
G01 X15.3033 Y45.3294
G01 X15.3122 Y45.3252
G01 X15.3206 Y45.3202
G01 X15.3285 Y45.3143
G01 X15.3357 Y45.3077
G01 X15.3423 Y45.3005
G01 X15.3482 Y45.2926
G01 X15.3532 Y45.2842
G01 X15.3574 Y45.2753
G01 X15.3607 Y45.2660
G01 X15.3631 Y45.2565
G01 X15.3645 Y45.2468
G01 X15.3650 Y45.2370
G00 X15.3650 Y45.2370
G01 F60.00
G01 Z-1.2000
G01 F120.00
G01 X15.3645 Y45.2272
G01 X15.3631 Y45.2175
G01 X15.3607 Y45.2080
G01 X15.3574 Y45.1987
G01 X15.3532 Y45.1899
G01 X15.3482 Y45.1815
G01 X15.3423 Y45.1736
G01 X15.3357 Y45.1663
G01 X15.3285 Y45.1597
G01 X15.3206 Y45.1539
G01 X15.3122 Y45.1488
G01 X15.3033 Y45.1446
G01 X15.2940 Y45.1413
G01 X15.2845 Y45.1389
G01 X15.2748 Y45.1375
G01 X15.2650 Y45.1370
G01 X15.2552 Y45.1375
G01 X15.2455 Y45.1389
G01 X15.2360 Y45.1413
G01 X15.2267 Y45.1446
G01 X15.2179 Y45.1488
G01 X15.2095 Y45.1539
G01 X15.2016 Y45.1597
G01 X15.1943 Y45.1663
G01 X15.1877 Y45.1736
G01 X15.1819 Y45.1815
G01 X15.1768 Y45.1899
G01 X15.1726 Y45.1987
G01 X15.1693 Y45.2080
G01 X15.1669 Y45.2175
G01 X15.1655 Y45.2272
G01 X15.1650 Y45.2370
G01 X15.1655 Y45.2468
G01 X15.1669 Y45.2565
G01 X15.1693 Y45.2660
G01 X15.1726 Y45.2753
G01 X15.1768 Y45.2842
G01 X15.1819 Y45.2926
G01 X15.1877 Y45.3005
G01 X15.1943 Y45.3077
G01 X15.2016 Y45.3143
G01 X15.2095 Y45.3202
G01 X15.2179 Y45.3252
G01 X15.2267 Y45.3294
G01 X15.2360 Y45.3327
G01 X15.2455 Y45.3351
G01 X15.2552 Y45.3365
G01 X15.2650 Y45.3370
G01 X15.2748 Y45.3365
G01 X15.2845 Y45.3351
G01 X15.2940 Y45.3327
G01 X15.3033 Y45.3294
G01 X15.3122 Y45.3252
G01 X15.3206 Y45.3202
G01 X15.3285 Y45.3143
G01 X15.3357 Y45.3077
G01 X15.3423 Y45.3005
G01 X15.3482 Y45.2926
G01 X15.3532 Y45.2842
G01 X15.3574 Y45.2753
G01 X15.3607 Y45.2660
G01 X15.3631 Y45.2565
G01 X15.3645 Y45.2468
G01 X15.3650 Y45.2370
G00 X15.3650 Y45.2370
G01 F60.00
G01 Z-1.8000
G01 F120.00
G01 X15.3645 Y45.2272
G01 X15.3631 Y45.2175
G01 X15.3607 Y45.2080
G01 X15.3574 Y45.1987
G01 X15.3532 Y45.1899
G01 X15.3482 Y45.1815
G01 X15.3423 Y45.1736
G01 X15.3357 Y45.1663
G01 X15.3285 Y45.1597
G01 X15.3206 Y45.1539
G01 X15.3122 Y45.1488
G01 X15.3033 Y45.1446
G01 X15.2940 Y45.1413
G01 X15.2845 Y45.1389
G01 X15.2748 Y45.1375
G01 X15.2650 Y45.1370
G01 X15.2552 Y45.1375
G01 X15.2455 Y45.1389
G01 X15.2360 Y45.1413
G01 X15.2267 Y45.1446
G01 X15.2179 Y45.1488
G01 X15.2095 Y45.1539
G01 X15.2016 Y45.1597
G01 X15.1943 Y45.1663
G01 X15.1877 Y45.1736
G01 X15.1819 Y45.1815
G01 X15.1768 Y45.1899
G01 X15.1726 Y45.1987
G01 X15.1693 Y45.2080
G01 X15.1669 Y45.2175
G01 X15.1655 Y45.2272
G01 X15.1650 Y45.2370
G01 X15.1655 Y45.2468
G01 X15.1669 Y45.2565
G01 X15.1693 Y45.2660
G01 X15.1726 Y45.2753
G01 X15.1768 Y45.2842
G01 X15.1819 Y45.2926
G01 X15.1877 Y45.3005
G01 X15.1943 Y45.3077
G01 X15.2016 Y45.3143
G01 X15.2095 Y45.3202
G01 X15.2179 Y45.3252
G01 X15.2267 Y45.3294
G01 X15.2360 Y45.3327
G01 X15.2455 Y45.3351
G01 X15.2552 Y45.3365
G01 X15.2650 Y45.3370
G01 X15.2748 Y45.3365
G01 X15.2845 Y45.3351
G01 X15.2940 Y45.3327
G01 X15.3033 Y45.3294
G01 X15.3122 Y45.3252
G01 X15.3206 Y45.3202
G01 X15.3285 Y45.3143
G01 X15.3357 Y45.3077
G01 X15.3423 Y45.3005
G01 X15.3482 Y45.2926
G01 X15.3532 Y45.2842
G01 X15.3574 Y45.2753
G01 X15.3607 Y45.2660
G01 X15.3631 Y45.2565
G01 X15.3645 Y45.2468
G01 X15.3650 Y45.2370
G00 Z2.0000
G00 X7.2370 Y35.0770
G01 F60.00
G01 Z-0.6000
G01 F120.00
G01 X7.2365 Y35.0672
G01 X7.2351 Y35.0575
G01 X7.2327 Y35.0480
G01 X7.2294 Y35.0387
G01 X7.2252 Y35.0299
G01 X7.2202 Y35.0215
G01 X7.2143 Y35.0136
G01 X7.2077 Y35.0063
G01 X7.2005 Y34.9997
G01 X7.1926 Y34.9939
G01 X7.1842 Y34.9888
G01 X7.1753 Y34.9846
G01 X7.1660 Y34.9813
G01 X7.1565 Y34.9789
G01 X7.1468 Y34.9775
G01 X7.1370 Y34.9770
G01 X7.1272 Y34.9775
G01 X7.1175 Y34.9789
G01 X7.1080 Y34.9813
G01 X7.0987 Y34.9846
G01 X7.0899 Y34.9888
G01 X7.0815 Y34.9939
G01 X7.0736 Y34.9997
G01 X7.0663 Y35.0063
G01 X7.0597 Y35.0136
G01 X7.0539 Y35.0215
G01 X7.0488 Y35.0299
G01 X7.0446 Y35.0387
G01 X7.0413 Y35.0480
G01 X7.0389 Y35.0575
G01 X7.0375 Y35.0672
G01 X7.0370 Y35.0770
G01 X7.0375 Y35.0868
G01 X7.0389 Y35.0965
G01 X7.0413 Y35.1060
G01 X7.0446 Y35.1153
G01 X7.0488 Y35.1242
G01 X7.0539 Y35.1326
G01 X7.0597 Y35.1405
G01 X7.0663 Y35.1477
G01 X7.0736 Y35.1543
G01 X7.0815 Y35.1602
G01 X7.0899 Y35.1652
G01 X7.0987 Y35.1694
G01 X7.1080 Y35.1727
G01 X7.1175 Y35.1751
G01 X7.1272 Y35.1765
G01 X7.1370 Y35.1770
G01 X7.1468 Y35.1765
G01 X7.1565 Y35.1751
G01 X7.1660 Y35.1727
G01 X7.1753 Y35.1694
G01 X7.1842 Y35.1652
G01 X7.1926 Y35.1602
G01 X7.2005 Y35.1543
G01 X7.2077 Y35.1477
G01 X7.2143 Y35.1405
G01 X7.2202 Y35.1326
G01 X7.2252 Y35.1242
G01 X7.2294 Y35.1153
G01 X7.2327 Y35.1060
G01 X7.2351 Y35.0965
G01 X7.2365 Y35.0868
G01 X7.2370 Y35.0770
G00 X7.2370 Y35.0770
G01 F60.00
G01 Z-1.2000
G01 F120.00
G01 X7.2365 Y35.0672
G01 X7.2351 Y35.0575
G01 X7.2327 Y35.0480
G01 X7.2294 Y35.0387
G01 X7.2252 Y35.0299
G01 X7.2202 Y35.0215
G01 X7.2143 Y35.0136
G01 X7.2077 Y35.0063
G01 X7.2005 Y34.9997
G01 X7.1926 Y34.9939
G01 X7.1842 Y34.9888
G01 X7.1753 Y34.9846
G01 X7.1660 Y34.9813
G01 X7.1565 Y34.9789
G01 X7.1468 Y34.9775
G01 X7.1370 Y34.9770
G01 X7.1272 Y34.9775
G01 X7.1175 Y34.9789
G01 X7.1080 Y34.9813
G01 X7.0987 Y34.9846
G01 X7.0899 Y34.9888
G01 X7.0815 Y34.9939
G01 X7.0736 Y34.9997
G01 X7.0663 Y35.0063
G01 X7.0597 Y35.0136
G01 X7.0539 Y35.0215
G01 X7.0488 Y35.0299
G01 X7.0446 Y35.0387
G01 X7.0413 Y35.0480
G01 X7.0389 Y35.0575
G01 X7.0375 Y35.0672
G01 X7.0370 Y35.0770
G01 X7.0375 Y35.0868
G01 X7.0389 Y35.0965
G01 X7.0413 Y35.1060
G01 X7.0446 Y35.1153
G01 X7.0488 Y35.1242
G01 X7.0539 Y35.1326
G01 X7.0597 Y35.1405
G01 X7.0663 Y35.1477
G01 X7.0736 Y35.1543
G01 X7.0815 Y35.1602
G01 X7.0899 Y35.1652
G01 X7.0987 Y35.1694
G01 X7.1080 Y35.1727
G01 X7.1175 Y35.1751
G01 X7.1272 Y35.1765
G01 X7.1370 Y35.1770
G01 X7.1468 Y35.1765
G01 X7.1565 Y35.1751
G01 X7.1660 Y35.1727
G01 X7.1753 Y35.1694
G01 X7.1842 Y35.1652
G01 X7.1926 Y35.1602
G01 X7.2005 Y35.1543
G01 X7.2077 Y35.1477
G01 X7.2143 Y35.1405
G01 X7.2202 Y35.1326
G01 X7.2252 Y35.1242
G01 X7.2294 Y35.1153
G01 X7.2327 Y35.1060
G01 X7.2351 Y35.0965
G01 X7.2365 Y35.0868
G01 X7.2370 Y35.0770
G00 X7.2370 Y35.0770
G01 F60.00
G01 Z-1.8000
G01 F120.00
G01 X7.2365 Y35.0672
G01 X7.2351 Y35.0575
G01 X7.2327 Y35.0480
G01 X7.2294 Y35.0387
G01 X7.2252 Y35.0299
G01 X7.2202 Y35.0215
G01 X7.2143 Y35.0136
G01 X7.2077 Y35.0063
G01 X7.2005 Y34.9997
G01 X7.1926 Y34.9939
G01 X7.1842 Y34.9888
G01 X7.1753 Y34.9846
G01 X7.1660 Y34.9813
G01 X7.1565 Y34.9789
G01 X7.1468 Y34.9775
G01 X7.1370 Y34.9770
G01 X7.1272 Y34.9775
G01 X7.1175 Y34.9789
G01 X7.1080 Y34.9813
G01 X7.0987 Y34.9846
G01 X7.0899 Y34.9888
G01 X7.0815 Y34.9939
G01 X7.0736 Y34.9997
G01 X7.0663 Y35.0063
G01 X7.0597 Y35.0136
G01 X7.0539 Y35.0215
G01 X7.0488 Y35.0299
G01 X7.0446 Y35.0387
G01 X7.0413 Y35.0480
G01 X7.0389 Y35.0575
G01 X7.0375 Y35.0672
G01 X7.0370 Y35.0770
G01 X7.0375 Y35.0868
G01 X7.0389 Y35.0965
G01 X7.0413 Y35.1060
G01 X7.0446 Y35.1153
G01 X7.0488 Y35.1242
G01 X7.0539 Y35.1326
G01 X7.0597 Y35.1405
G01 X7.0663 Y35.1477
G01 X7.0736 Y35.1543
G01 X7.0815 Y35.1602
G01 X7.0899 Y35.1652
G01 X7.0987 Y35.1694
G01 X7.1080 Y35.1727
G01 X7.1175 Y35.1751
G01 X7.1272 Y35.1765
G01 X7.1370 Y35.1770
G01 X7.1468 Y35.1765
G01 X7.1565 Y35.1751
G01 X7.1660 Y35.1727
G01 X7.1753 Y35.1694
G01 X7.1842 Y35.1652
G01 X7.1926 Y35.1602
G01 X7.2005 Y35.1543
G01 X7.2077 Y35.1477
G01 X7.2143 Y35.1405
G01 X7.2202 Y35.1326
G01 X7.2252 Y35.1242
G01 X7.2294 Y35.1153
G01 X7.2327 Y35.1060
G01 X7.2351 Y35.0965
G01 X7.2365 Y35.0868
G01 X7.2370 Y35.0770
G00 Z2.0000
G00 X88.0090 Y33.0450
G01 F60.00
G01 Z-0.6000
G01 F120.00
G01 X88.0085 Y33.0352
G01 X88.0071 Y33.0255
G01 X88.0047 Y33.0160
G01 X88.0014 Y33.0067
G01 X87.9972 Y32.9979
G01 X87.9922 Y32.9895
G01 X87.9863 Y32.9816
G01 X87.9797 Y32.9743
G01 X87.9725 Y32.9677
G01 X87.9646 Y32.9619
G01 X87.9562 Y32.9568
G01 X87.9473 Y32.9526
G01 X87.9380 Y32.9493
G01 X87.9285 Y32.9469
G01 X87.9188 Y32.9455
G01 X87.9090 Y32.9450
G01 X87.8992 Y32.9455
G01 X87.8895 Y32.9469
G01 X87.8800 Y32.9493
G01 X87.8707 Y32.9526
G01 X87.8619 Y32.9568
G01 X87.8535 Y32.9619
G01 X87.8456 Y32.9677
G01 X87.8383 Y32.9743
G01 X87.8317 Y32.9816
G01 X87.8259 Y32.9895
G01 X87.8208 Y32.9979
G01 X87.8166 Y33.0067
G01 X87.8133 Y33.0160
G01 X87.8109 Y33.0255
G01 X87.8095 Y33.0352
G01 X87.8090 Y33.0450
G01 X87.8095 Y33.0548
G01 X87.8109 Y33.0645
G01 X87.8133 Y33.0740
G01 X87.8166 Y33.0833
G01 X87.8208 Y33.0922
G01 X87.8259 Y33.1006
G01 X87.8317 Y33.1085
G01 X87.8383 Y33.1157
G01 X87.8456 Y33.1223
G01 X87.8535 Y33.1282
G01 X87.8619 Y33.1332
G01 X87.8707 Y33.1374
G01 X87.8800 Y33.1407
G01 X87.8895 Y33.1431
G01 X87.8992 Y33.1445
G01 X87.9090 Y33.1450
G01 X87.9188 Y33.1445
G01 X87.9285 Y33.1431
G01 X87.9380 Y33.1407
G01 X87.9473 Y33.1374
G01 X87.9562 Y33.1332
G01 X87.9646 Y33.1282
G01 X87.9725 Y33.1223
G01 X87.9797 Y33.1157
G01 X87.9863 Y33.1085
G01 X87.9922 Y33.1006
G01 X87.9972 Y33.0922
G01 X88.0014 Y33.0833
G01 X88.0047 Y33.0740
G01 X88.0071 Y33.0645
G01 X88.0085 Y33.0548
G01 X88.0090 Y33.0450
G00 X88.0090 Y33.0450
G01 F60.00
G01 Z-1.2000
G01 F120.00
G01 X88.0085 Y33.0352
G01 X88.0071 Y33.0255
G01 X88.0047 Y33.0160
G01 X88.0014 Y33.0067
G01 X87.9972 Y32.9979
G01 X87.9922 Y32.9895
G01 X87.9863 Y32.9816
G01 X87.9797 Y32.9743
G01 X87.9725 Y32.9677
G01 X87.9646 Y32.9619
G01 X87.9562 Y32.9568
G01 X87.9473 Y32.9526
G01 X87.9380 Y32.9493
G01 X87.9285 Y32.9469
G01 X87.9188 Y32.9455
G01 X87.9090 Y32.9450
G01 X87.8992 Y32.9455
G01 X87.8895 Y32.9469
G01 X87.8800 Y32.9493
G01 X87.8707 Y32.9526
G01 X87.8619 Y32.9568
G01 X87.8535 Y32.9619
G01 X87.8456 Y32.9677
G01 X87.8383 Y32.9743
G01 X87.8317 Y32.9816
G01 X87.8259 Y32.9895
G01 X87.8208 Y32.9979
G01 X87.8166 Y33.0067
G01 X87.8133 Y33.0160
G01 X87.8109 Y33.0255
G01 X87.8095 Y33.0352
G01 X87.8090 Y33.0450
G01 X87.8095 Y33.0548
G01 X87.8109 Y33.0645
G01 X87.8133 Y33.0740
G01 X87.8166 Y33.0833
G01 X87.8208 Y33.0922
G01 X87.8259 Y33.1006
G01 X87.8317 Y33.1085
G01 X87.8383 Y33.1157
G01 X87.8456 Y33.1223
G01 X87.8535 Y33.1282
G01 X87.8619 Y33.1332
G01 X87.8707 Y33.1374
G01 X87.8800 Y33.1407
G01 X87.8895 Y33.1431
G01 X87.8992 Y33.1445
G01 X87.9090 Y33.1450
G01 X87.9188 Y33.1445
G01 X87.9285 Y33.1431
G01 X87.9380 Y33.1407
G01 X87.9473 Y33.1374
G01 X87.9562 Y33.1332
G01 X87.9646 Y33.1282
G01 X87.9725 Y33.1223
G01 X87.9797 Y33.1157
G01 X87.9863 Y33.1085
G01 X87.9922 Y33.1006
G01 X87.9972 Y33.0922
G01 X88.0014 Y33.0833
G01 X88.0047 Y33.0740
G01 X88.0071 Y33.0645
G01 X88.0085 Y33.0548
G01 X88.0090 Y33.0450
G00 X88.0090 Y33.0450
G01 F60.00
G01 Z-1.8000
G01 F120.00
G01 X88.0085 Y33.0352
G01 X88.0071 Y33.0255
G01 X88.0047 Y33.0160
G01 X88.0014 Y33.0067
G01 X87.9972 Y32.9979
G01 X87.9922 Y32.9895
G01 X87.9863 Y32.9816
G01 X87.9797 Y32.9743
G01 X87.9725 Y32.9677
G01 X87.9646 Y32.9619
G01 X87.9562 Y32.9568
G01 X87.9473 Y32.9526
G01 X87.9380 Y32.9493
G01 X87.9285 Y32.9469
G01 X87.9188 Y32.9455
G01 X87.9090 Y32.9450
G01 X87.8992 Y32.9455
G01 X87.8895 Y32.9469
G01 X87.8800 Y32.9493
G01 X87.8707 Y32.9526
G01 X87.8619 Y32.9568
G01 X87.8535 Y32.9619
G01 X87.8456 Y32.9677
G01 X87.8383 Y32.9743
G01 X87.8317 Y32.9816
G01 X87.8259 Y32.9895
G01 X87.8208 Y32.9979
G01 X87.8166 Y33.0067
G01 X87.8133 Y33.0160
G01 X87.8109 Y33.0255
G01 X87.8095 Y33.0352
G01 X87.8090 Y33.0450
G01 X87.8095 Y33.0548
G01 X87.8109 Y33.0645
G01 X87.8133 Y33.0740
G01 X87.8166 Y33.0833
G01 X87.8208 Y33.0922
G01 X87.8259 Y33.1006
G01 X87.8317 Y33.1085
G01 X87.8383 Y33.1157
G01 X87.8456 Y33.1223
G01 X87.8535 Y33.1282
G01 X87.8619 Y33.1332
G01 X87.8707 Y33.1374
G01 X87.8800 Y33.1407
G01 X87.8895 Y33.1431
G01 X87.8992 Y33.1445
G01 X87.9090 Y33.1450
G01 X87.9188 Y33.1445
G01 X87.9285 Y33.1431
G01 X87.9380 Y33.1407
G01 X87.9473 Y33.1374
G01 X87.9562 Y33.1332
G01 X87.9646 Y33.1282
G01 X87.9725 Y33.1223
G01 X87.9797 Y33.1157
G01 X87.9863 Y33.1085
G01 X87.9922 Y33.1006
G01 X87.9972 Y33.0922
G01 X88.0014 Y33.0833
G01 X88.0047 Y33.0740
G01 X88.0071 Y33.0645
G01 X88.0085 Y33.0548
G01 X88.0090 Y33.0450
G00 Z2.0000
G00 X95.6290 Y33.0450
G01 F60.00
G01 Z-0.6000
G01 F120.00
G01 X95.6285 Y33.0352
G01 X95.6271 Y33.0255
G01 X95.6247 Y33.0160
G01 X95.6214 Y33.0067
G01 X95.6172 Y32.9979
G01 X95.6122 Y32.9895
G01 X95.6063 Y32.9816
G01 X95.5997 Y32.9743
G01 X95.5925 Y32.9677
G01 X95.5846 Y32.9619
G01 X95.5762 Y32.9568
G01 X95.5673 Y32.9526
G01 X95.5580 Y32.9493
G01 X95.5485 Y32.9469
G01 X95.5388 Y32.9455
G01 X95.5290 Y32.9450
G01 X95.5192 Y32.9455
G01 X95.5095 Y32.9469
G01 X95.5000 Y32.9493
G01 X95.4907 Y32.9526
G01 X95.4819 Y32.9568
G01 X95.4735 Y32.9619
G01 X95.4656 Y32.9677
G01 X95.4583 Y32.9743
G01 X95.4517 Y32.9816
G01 X95.4459 Y32.9895
G01 X95.4408 Y32.9979
G01 X95.4366 Y33.0067
G01 X95.4333 Y33.0160
G01 X95.4309 Y33.0255
G01 X95.4295 Y33.0352
G01 X95.4290 Y33.0450
G01 X95.4295 Y33.0548
G01 X95.4309 Y33.0645
G01 X95.4333 Y33.0740
G01 X95.4366 Y33.0833
G01 X95.4408 Y33.0922
G01 X95.4459 Y33.1006
G01 X95.4517 Y33.1085
G01 X95.4583 Y33.1157
G01 X95.4656 Y33.1223
G01 X95.4735 Y33.1282
G01 X95.4819 Y33.1332
G01 X95.4907 Y33.1374
G01 X95.5000 Y33.1407
G01 X95.5095 Y33.1431
G01 X95.5192 Y33.1445
G01 X95.5290 Y33.1450
G01 X95.5388 Y33.1445
G01 X95.5485 Y33.1431
G01 X95.5580 Y33.1407
G01 X95.5673 Y33.1374
G01 X95.5762 Y33.1332
G01 X95.5846 Y33.1282
G01 X95.5925 Y33.1223
G01 X95.5997 Y33.1157
G01 X95.6063 Y33.1085
G01 X95.6122 Y33.1006
G01 X95.6172 Y33.0922
G01 X95.6214 Y33.0833
G01 X95.6247 Y33.0740
G01 X95.6271 Y33.0645
G01 X95.6285 Y33.0548
G01 X95.6290 Y33.0450
G00 X95.6290 Y33.0450
G01 F60.00
G01 Z-1.2000
G01 F120.00
G01 X95.6285 Y33.0352
G01 X95.6271 Y33.0255
G01 X95.6247 Y33.0160
G01 X95.6214 Y33.0067
G01 X95.6172 Y32.9979
G01 X95.6122 Y32.9895
G01 X95.6063 Y32.9816
G01 X95.5997 Y32.9743
G01 X95.5925 Y32.9677
G01 X95.5846 Y32.9619
G01 X95.5762 Y32.9568
G01 X95.5673 Y32.9526
G01 X95.5580 Y32.9493
G01 X95.5485 Y32.9469
G01 X95.5388 Y32.9455
G01 X95.5290 Y32.9450
G01 X95.5192 Y32.9455
G01 X95.5095 Y32.9469
G01 X95.5000 Y32.9493
G01 X95.4907 Y32.9526
G01 X95.4819 Y32.9568
G01 X95.4735 Y32.9619
G01 X95.4656 Y32.9677
G01 X95.4583 Y32.9743
G01 X95.4517 Y32.9816
G01 X95.4459 Y32.9895
G01 X95.4408 Y32.9979
G01 X95.4366 Y33.0067
G01 X95.4333 Y33.0160
G01 X95.4309 Y33.0255
G01 X95.4295 Y33.0352
G01 X95.4290 Y33.0450
G01 X95.4295 Y33.0548
G01 X95.4309 Y33.0645
G01 X95.4333 Y33.0740
G01 X95.4366 Y33.0833
G01 X95.4408 Y33.0922
G01 X95.4459 Y33.1006
G01 X95.4517 Y33.1085
G01 X95.4583 Y33.1157
G01 X95.4656 Y33.1223
G01 X95.4735 Y33.1282
G01 X95.4819 Y33.1332
G01 X95.4907 Y33.1374
G01 X95.5000 Y33.1407
G01 X95.5095 Y33.1431
G01 X95.5192 Y33.1445
G01 X95.5290 Y33.1450
G01 X95.5388 Y33.1445
G01 X95.5485 Y33.1431
G01 X95.5580 Y33.1407
G01 X95.5673 Y33.1374
G01 X95.5762 Y33.1332
G01 X95.5846 Y33.1282
G01 X95.5925 Y33.1223
G01 X95.5997 Y33.1157
G01 X95.6063 Y33.1085
G01 X95.6122 Y33.1006
G01 X95.6172 Y33.0922
G01 X95.6214 Y33.0833
G01 X95.6247 Y33.0740
G01 X95.6271 Y33.0645
G01 X95.6285 Y33.0548
G01 X95.6290 Y33.0450
G00 X95.6290 Y33.0450
G01 F60.00
G01 Z-1.8000
G01 F120.00
G01 X95.6285 Y33.0352
G01 X95.6271 Y33.0255
G01 X95.6247 Y33.0160
G01 X95.6214 Y33.0067
G01 X95.6172 Y32.9979
G01 X95.6122 Y32.9895
G01 X95.6063 Y32.9816
G01 X95.5997 Y32.9743
G01 X95.5925 Y32.9677
G01 X95.5846 Y32.9619
G01 X95.5762 Y32.9568
G01 X95.5673 Y32.9526
G01 X95.5580 Y32.9493
G01 X95.5485 Y32.9469
G01 X95.5388 Y32.9455
G01 X95.5290 Y32.9450
G01 X95.5192 Y32.9455
G01 X95.5095 Y32.9469
G01 X95.5000 Y32.9493
G01 X95.4907 Y32.9526
G01 X95.4819 Y32.9568
G01 X95.4735 Y32.9619
G01 X95.4656 Y32.9677
G01 X95.4583 Y32.9743
G01 X95.4517 Y32.9816
G01 X95.4459 Y32.9895
G01 X95.4408 Y32.9979
G01 X95.4366 Y33.0067
G01 X95.4333 Y33.0160
G01 X95.4309 Y33.0255
G01 X95.4295 Y33.0352
G01 X95.4290 Y33.0450
G01 X95.4295 Y33.0548
G01 X95.4309 Y33.0645
G01 X95.4333 Y33.0740
G01 X95.4366 Y33.0833
G01 X95.4408 Y33.0922
G01 X95.4459 Y33.1006
G01 X95.4517 Y33.1085
G01 X95.4583 Y33.1157
G01 X95.4656 Y33.1223
G01 X95.4735 Y33.1282
G01 X95.4819 Y33.1332
G01 X95.4907 Y33.1374
G01 X95.5000 Y33.1407
G01 X95.5095 Y33.1431
G01 X95.5192 Y33.1445
G01 X95.5290 Y33.1450
G01 X95.5388 Y33.1445
G01 X95.5485 Y33.1431
G01 X95.5580 Y33.1407
G01 X95.5673 Y33.1374
G01 X95.5762 Y33.1332
G01 X95.5846 Y33.1282
G01 X95.5925 Y33.1223
G01 X95.5997 Y33.1157
G01 X95.6063 Y33.1085
G01 X95.6122 Y33.1006
G01 X95.6172 Y33.0922
G01 X95.6214 Y33.0833
G01 X95.6247 Y33.0740
G01 X95.6271 Y33.0645
G01 X95.6285 Y33.0548
G01 X95.6290 Y33.0450
G00 Z2.0000
G00 X113.5690 Y33.0450
G01 F60.00
G01 Z-0.6000
G01 F120.00
G01 X113.5678 Y33.0195
G01 X113.5640 Y32.9943
G01 X113.5578 Y32.9695
G01 X113.5492 Y32.9455
G01 X113.5383 Y32.9224
G01 X113.5252 Y32.9006
G01 X113.5100 Y32.8801
G01 X113.4929 Y32.8612
G01 X113.4740 Y32.8440
G01 X113.4535 Y32.8288
G01 X113.4316 Y32.8157
G01 X113.4085 Y32.8048
G01 X113.3845 Y32.7962
G01 X113.3597 Y32.7900
G01 X113.3345 Y32.7863
G01 X113.3090 Y32.7850
G01 X113.2835 Y32.7863
G01 X113.2583 Y32.7900
G01 X113.2335 Y32.7962
G01 X113.2095 Y32.8048
G01 X113.1864 Y32.8157
G01 X113.1646 Y32.8288
G01 X113.1441 Y32.8440
G01 X113.1252 Y32.8612
G01 X113.1080 Y32.8801
G01 X113.0928 Y32.9006
G01 X113.0797 Y32.9224
G01 X113.0688 Y32.9455
G01 X113.0602 Y32.9695
G01 X113.0540 Y32.9943
G01 X113.0503 Y33.0195
G01 X113.0490 Y33.0450
G01 X113.0503 Y33.0705
G01 X113.0540 Y33.0957
G01 X113.0602 Y33.1205
G01 X113.0688 Y33.1445
G01 X113.0797 Y33.1676
G01 X113.0928 Y33.1895
G01 X113.1080 Y33.2100
G01 X113.1252 Y33.2289
G01 X113.1441 Y33.2460
G01 X113.1646 Y33.2612
G01 X113.1864 Y33.2743
G01 X113.2095 Y33.2852
G01 X113.2335 Y33.2938
G01 X113.2583 Y33.3000
G01 X113.2835 Y33.3038
G01 X113.3090 Y33.3050
G01 X113.3345 Y33.3038
G01 X113.3597 Y33.3000
G01 X113.3845 Y33.2938
G01 X113.4085 Y33.2852
G01 X113.4316 Y33.2743
G01 X113.4535 Y33.2612
G01 X113.4740 Y33.2460
G01 X113.4929 Y33.2289
G01 X113.5100 Y33.2100
G01 X113.5252 Y33.1895
G01 X113.5383 Y33.1676
G01 X113.5492 Y33.1445
G01 X113.5578 Y33.1205
G01 X113.5640 Y33.0957
G01 X113.5678 Y33.0705
G01 X113.5690 Y33.0450
G00 X113.5690 Y33.0450
G01 F60.00
G01 Z-1.2000
G01 F120.00
G01 X113.5678 Y33.0195
G01 X113.5640 Y32.9943
G01 X113.5578 Y32.9695
G01 X113.5492 Y32.9455
G01 X113.5383 Y32.9224
G01 X113.5252 Y32.9006
G01 X113.5100 Y32.8801
G01 X113.4929 Y32.8612
G01 X113.4740 Y32.8440
G01 X113.4535 Y32.8288
G01 X113.4316 Y32.8157
G01 X113.4085 Y32.8048
G01 X113.3845 Y32.7962
G01 X113.3597 Y32.7900
G01 X113.3345 Y32.7863
G01 X113.3090 Y32.7850
G01 X113.2835 Y32.7863
G01 X113.2583 Y32.7900
G01 X113.2335 Y32.7962
G01 X113.2095 Y32.8048
G01 X113.1864 Y32.8157
G01 X113.1646 Y32.8288
G01 X113.1441 Y32.8440
G01 X113.1252 Y32.8612
G01 X113.1080 Y32.8801
G01 X113.0928 Y32.9006
G01 X113.0797 Y32.9224
G01 X113.0688 Y32.9455
G01 X113.0602 Y32.9695
G01 X113.0540 Y32.9943
G01 X113.0503 Y33.0195
G01 X113.0490 Y33.0450
G01 X113.0503 Y33.0705
G01 X113.0540 Y33.0957
G01 X113.0602 Y33.1205
G01 X113.0688 Y33.1445
G01 X113.0797 Y33.1676
G01 X113.0928 Y33.1895
G01 X113.1080 Y33.2100
G01 X113.1252 Y33.2289
G01 X113.1441 Y33.2460
G01 X113.1646 Y33.2612
G01 X113.1864 Y33.2743
G01 X113.2095 Y33.2852
G01 X113.2335 Y33.2938
G01 X113.2583 Y33.3000
G01 X113.2835 Y33.3038
G01 X113.3090 Y33.3050
G01 X113.3345 Y33.3038
G01 X113.3597 Y33.3000
G01 X113.3845 Y33.2938
G01 X113.4085 Y33.2852
G01 X113.4316 Y33.2743
G01 X113.4535 Y33.2612
G01 X113.4740 Y33.2460
G01 X113.4929 Y33.2289
G01 X113.5100 Y33.2100
G01 X113.5252 Y33.1895
G01 X113.5383 Y33.1676
G01 X113.5492 Y33.1445
G01 X113.5578 Y33.1205
G01 X113.5640 Y33.0957
G01 X113.5678 Y33.0705
G01 X113.5690 Y33.0450
G00 X113.5690 Y33.0450
G01 F60.00
G01 Z-1.8000
G01 F120.00
G01 X113.5678 Y33.0195
G01 X113.5640 Y32.9943
G01 X113.5578 Y32.9695
G01 X113.5492 Y32.9455
G01 X113.5383 Y32.9224
G01 X113.5252 Y32.9006
G01 X113.5100 Y32.8801
G01 X113.4929 Y32.8612
G01 X113.4740 Y32.8440
G01 X113.4535 Y32.8288
G01 X113.4316 Y32.8157
G01 X113.4085 Y32.8048
G01 X113.3845 Y32.7962
G01 X113.3597 Y32.7900
G01 X113.3345 Y32.7863
G01 X113.3090 Y32.7850
G01 X113.2835 Y32.7863
G01 X113.2583 Y32.7900
G01 X113.2335 Y32.7962
G01 X113.2095 Y32.8048
G01 X113.1864 Y32.8157
G01 X113.1646 Y32.8288
G01 X113.1441 Y32.8440
G01 X113.1252 Y32.8612
G01 X113.1080 Y32.8801
G01 X113.0928 Y32.9006
G01 X113.0797 Y32.9224
G01 X113.0688 Y32.9455
G01 X113.0602 Y32.9695
G01 X113.0540 Y32.9943
G01 X113.0503 Y33.0195
G01 X113.0490 Y33.0450
G01 X113.0503 Y33.0705
G01 X113.0540 Y33.0957
G01 X113.0602 Y33.1205
G01 X113.0688 Y33.1445
G01 X113.0797 Y33.1676
G01 X113.0928 Y33.1895
G01 X113.1080 Y33.2100
G01 X113.1252 Y33.2289
G01 X113.1441 Y33.2460
G01 X113.1646 Y33.2612
G01 X113.1864 Y33.2743
G01 X113.2095 Y33.2852
G01 X113.2335 Y33.2938
G01 X113.2583 Y33.3000
G01 X113.2835 Y33.3038
G01 X113.3090 Y33.3050
G01 X113.3345 Y33.3038
G01 X113.3597 Y33.3000
G01 X113.3845 Y33.2938
G01 X113.4085 Y33.2852
G01 X113.4316 Y33.2743
G01 X113.4535 Y33.2612
G01 X113.4740 Y33.2460
G01 X113.4929 Y33.2289
G01 X113.5100 Y33.2100
G01 X113.5252 Y33.1895
G01 X113.5383 Y33.1676
G01 X113.5492 Y33.1445
G01 X113.5578 Y33.1205
G01 X113.5640 Y33.0957
G01 X113.5678 Y33.0705
G01 X113.5690 Y33.0450
G00 Z2.0000
G00 X113.5690 Y27.9650
G01 F60.00
G01 Z-0.6000
G01 F120.00
G01 X113.5678 Y27.9395
G01 X113.5640 Y27.9143
G01 X113.5578 Y27.8895
G01 X113.5492 Y27.8655
G01 X113.5383 Y27.8424
G01 X113.5252 Y27.8206
G01 X113.5100 Y27.8001
G01 X113.4929 Y27.7812
G01 X113.4740 Y27.7640
G01 X113.4535 Y27.7488
G01 X113.4316 Y27.7357
G01 X113.4085 Y27.7248
G01 X113.3845 Y27.7162
G01 X113.3597 Y27.7100
G01 X113.3345 Y27.7063
G01 X113.3090 Y27.7050
G01 X113.2835 Y27.7063
G01 X113.2583 Y27.7100
G01 X113.2335 Y27.7162
G01 X113.2095 Y27.7248
G01 X113.1864 Y27.7357
G01 X113.1646 Y27.7488
G01 X113.1441 Y27.7640
G01 X113.1252 Y27.7812
G01 X113.1080 Y27.8001
G01 X113.0928 Y27.8206
G01 X113.0797 Y27.8424
G01 X113.0688 Y27.8655
G01 X113.0602 Y27.8895
G01 X113.0540 Y27.9143
G01 X113.0503 Y27.9395
G01 X113.0490 Y27.9650
G01 X113.0503 Y27.9905
G01 X113.0540 Y28.0157
G01 X113.0602 Y28.0405
G01 X113.0688 Y28.0645
G01 X113.0797 Y28.0876
G01 X113.0928 Y28.1095
G01 X113.1080 Y28.1300
G01 X113.1252 Y28.1489
G01 X113.1441 Y28.1660
G01 X113.1646 Y28.1812
G01 X113.1864 Y28.1943
G01 X113.2095 Y28.2052
G01 X113.2335 Y28.2138
G01 X113.2583 Y28.2200
G01 X113.2835 Y28.2238
G01 X113.3090 Y28.2250
G01 X113.3345 Y28.2238
G01 X113.3597 Y28.2200
G01 X113.3845 Y28.2138
G01 X113.4085 Y28.2052
G01 X113.4316 Y28.1943
G01 X113.4535 Y28.1812
G01 X113.4740 Y28.1660
G01 X113.4929 Y28.1489
G01 X113.5100 Y28.1300
G01 X113.5252 Y28.1095
G01 X113.5383 Y28.0876
G01 X113.5492 Y28.0645
G01 X113.5578 Y28.0405
G01 X113.5640 Y28.0157
G01 X113.5678 Y27.9905
G01 X113.5690 Y27.9650
G00 X113.5690 Y27.9650
G01 F60.00
G01 Z-1.2000
G01 F120.00
G01 X113.5678 Y27.9395
G01 X113.5640 Y27.9143
G01 X113.5578 Y27.8895
G01 X113.5492 Y27.8655
G01 X113.5383 Y27.8424
G01 X113.5252 Y27.8206
G01 X113.5100 Y27.8001
G01 X113.4929 Y27.7812
G01 X113.4740 Y27.7640
G01 X113.4535 Y27.7488
G01 X113.4316 Y27.7357
G01 X113.4085 Y27.7248
G01 X113.3845 Y27.7162
G01 X113.3597 Y27.7100
G01 X113.3345 Y27.7063
G01 X113.3090 Y27.7050
G01 X113.2835 Y27.7063
G01 X113.2583 Y27.7100
G01 X113.2335 Y27.7162
G01 X113.2095 Y27.7248
G01 X113.1864 Y27.7357
G01 X113.1646 Y27.7488
G01 X113.1441 Y27.7640
G01 X113.1252 Y27.7812
G01 X113.1080 Y27.8001
G01 X113.0928 Y27.8206
G01 X113.0797 Y27.8424
G01 X113.0688 Y27.8655
G01 X113.0602 Y27.8895
G01 X113.0540 Y27.9143
G01 X113.0503 Y27.9395
G01 X113.0490 Y27.9650
G01 X113.0503 Y27.9905
G01 X113.0540 Y28.0157
G01 X113.0602 Y28.0405
G01 X113.0688 Y28.0645
G01 X113.0797 Y28.0876
G01 X113.0928 Y28.1095
G01 X113.1080 Y28.1300
G01 X113.1252 Y28.1489
G01 X113.1441 Y28.1660
G01 X113.1646 Y28.1812
G01 X113.1864 Y28.1943
G01 X113.2095 Y28.2052
G01 X113.2335 Y28.2138
G01 X113.2583 Y28.2200
G01 X113.2835 Y28.2238
G01 X113.3090 Y28.2250
G01 X113.3345 Y28.2238
G01 X113.3597 Y28.2200
G01 X113.3845 Y28.2138
G01 X113.4085 Y28.2052
G01 X113.4316 Y28.1943
G01 X113.4535 Y28.1812
G01 X113.4740 Y28.1660
G01 X113.4929 Y28.1489
G01 X113.5100 Y28.1300
G01 X113.5252 Y28.1095
G01 X113.5383 Y28.0876
G01 X113.5492 Y28.0645
G01 X113.5578 Y28.0405
G01 X113.5640 Y28.0157
G01 X113.5678 Y27.9905
G01 X113.5690 Y27.9650
G00 X113.5690 Y27.9650
G01 F60.00
G01 Z-1.8000
G01 F120.00
G01 X113.5678 Y27.9395
G01 X113.5640 Y27.9143
G01 X113.5578 Y27.8895
G01 X113.5492 Y27.8655
G01 X113.5383 Y27.8424
G01 X113.5252 Y27.8206
G01 X113.5100 Y27.8001
G01 X113.4929 Y27.7812
G01 X113.4740 Y27.7640
G01 X113.4535 Y27.7488
G01 X113.4316 Y27.7357
G01 X113.4085 Y27.7248
G01 X113.3845 Y27.7162
G01 X113.3597 Y27.7100
G01 X113.3345 Y27.7063
G01 X113.3090 Y27.7050
G01 X113.2835 Y27.7063
G01 X113.2583 Y27.7100
G01 X113.2335 Y27.7162
G01 X113.2095 Y27.7248
G01 X113.1864 Y27.7357
G01 X113.1646 Y27.7488
G01 X113.1441 Y27.7640
G01 X113.1252 Y27.7812
G01 X113.1080 Y27.8001
G01 X113.0928 Y27.8206
G01 X113.0797 Y27.8424
G01 X113.0688 Y27.8655
G01 X113.0602 Y27.8895
G01 X113.0540 Y27.9143
G01 X113.0503 Y27.9395
G01 X113.0490 Y27.9650
G01 X113.0503 Y27.9905
G01 X113.0540 Y28.0157
G01 X113.0602 Y28.0405
G01 X113.0688 Y28.0645
G01 X113.0797 Y28.0876
G01 X113.0928 Y28.1095
G01 X113.1080 Y28.1300
G01 X113.1252 Y28.1489
G01 X113.1441 Y28.1660
G01 X113.1646 Y28.1812
G01 X113.1864 Y28.1943
G01 X113.2095 Y28.2052
G01 X113.2335 Y28.2138
G01 X113.2583 Y28.2200
G01 X113.2835 Y28.2238
G01 X113.3090 Y28.2250
G01 X113.3345 Y28.2238
G01 X113.3597 Y28.2200
G01 X113.3845 Y28.2138
G01 X113.4085 Y28.2052
G01 X113.4316 Y28.1943
G01 X113.4535 Y28.1812
G01 X113.4740 Y28.1660
G01 X113.4929 Y28.1489
G01 X113.5100 Y28.1300
G01 X113.5252 Y28.1095
G01 X113.5383 Y28.0876
G01 X113.5492 Y28.0645
G01 X113.5578 Y28.0405
G01 X113.5640 Y28.0157
G01 X113.5678 Y27.9905
G01 X113.5690 Y27.9650
G00 Z2.0000
G00 X113.5690 Y22.8850
G01 F60.00
G01 Z-0.6000
G01 F120.00
G01 X113.5678 Y22.8595
G01 X113.5640 Y22.8343
G01 X113.5578 Y22.8095
G01 X113.5492 Y22.7855
G01 X113.5383 Y22.7624
G01 X113.5252 Y22.7406
G01 X113.5100 Y22.7201
G01 X113.4929 Y22.7012
G01 X113.4740 Y22.6840
G01 X113.4535 Y22.6688
G01 X113.4316 Y22.6557
G01 X113.4085 Y22.6448
G01 X113.3845 Y22.6362
G01 X113.3597 Y22.6300
G01 X113.3345 Y22.6263
G01 X113.3090 Y22.6250
G01 X113.2835 Y22.6263
G01 X113.2583 Y22.6300
G01 X113.2335 Y22.6362
G01 X113.2095 Y22.6448
G01 X113.1864 Y22.6557
G01 X113.1646 Y22.6688
G01 X113.1441 Y22.6840
G01 X113.1252 Y22.7012
G01 X113.1080 Y22.7201
G01 X113.0928 Y22.7406
G01 X113.0797 Y22.7624
G01 X113.0688 Y22.7855
G01 X113.0602 Y22.8095
G01 X113.0540 Y22.8343
G01 X113.0503 Y22.8595
G01 X113.0490 Y22.8850
G01 X113.0503 Y22.9105
G01 X113.0540 Y22.9357
G01 X113.0602 Y22.9605
G01 X113.0688 Y22.9845
G01 X113.0797 Y23.0076
G01 X113.0928 Y23.0295
G01 X113.1080 Y23.0500
G01 X113.1252 Y23.0689
G01 X113.1441 Y23.0860
G01 X113.1646 Y23.1012
G01 X113.1864 Y23.1143
G01 X113.2095 Y23.1252
G01 X113.2335 Y23.1338
G01 X113.2583 Y23.1400
G01 X113.2835 Y23.1438
G01 X113.3090 Y23.1450
G01 X113.3345 Y23.1438
G01 X113.3597 Y23.1400
G01 X113.3845 Y23.1338
G01 X113.4085 Y23.1252
G01 X113.4316 Y23.1143
G01 X113.4535 Y23.1012
G01 X113.4740 Y23.0860
G01 X113.4929 Y23.0689
G01 X113.5100 Y23.0500
G01 X113.5252 Y23.0295
G01 X113.5383 Y23.0076
G01 X113.5492 Y22.9845
G01 X113.5578 Y22.9605
G01 X113.5640 Y22.9357
G01 X113.5678 Y22.9105
G01 X113.5690 Y22.8850
G00 X113.5690 Y22.8850
G01 F60.00
G01 Z-1.2000
G01 F120.00
G01 X113.5678 Y22.8595
G01 X113.5640 Y22.8343
G01 X113.5578 Y22.8095
G01 X113.5492 Y22.7855
G01 X113.5383 Y22.7624
G01 X113.5252 Y22.7406
G01 X113.5100 Y22.7201
G01 X113.4929 Y22.7012
G01 X113.4740 Y22.6840
G01 X113.4535 Y22.6688
G01 X113.4316 Y22.6557
G01 X113.4085 Y22.6448
G01 X113.3845 Y22.6362
G01 X113.3597 Y22.6300
G01 X113.3345 Y22.6263
G01 X113.3090 Y22.6250
G01 X113.2835 Y22.6263
G01 X113.2583 Y22.6300
G01 X113.2335 Y22.6362
G01 X113.2095 Y22.6448
G01 X113.1864 Y22.6557
G01 X113.1646 Y22.6688
G01 X113.1441 Y22.6840
G01 X113.1252 Y22.7012
G01 X113.1080 Y22.7201
G01 X113.0928 Y22.7406
G01 X113.0797 Y22.7624
G01 X113.0688 Y22.7855
G01 X113.0602 Y22.8095
G01 X113.0540 Y22.8343
G01 X113.0503 Y22.8595
G01 X113.0490 Y22.8850
G01 X113.0503 Y22.9105
G01 X113.0540 Y22.9357
G01 X113.0602 Y22.9605
G01 X113.0688 Y22.9845
G01 X113.0797 Y23.0076
G01 X113.0928 Y23.0295
G01 X113.1080 Y23.0500
G01 X113.1252 Y23.0689
G01 X113.1441 Y23.0860
G01 X113.1646 Y23.1012
G01 X113.1864 Y23.1143
G01 X113.2095 Y23.1252
G01 X113.2335 Y23.1338
G01 X113.2583 Y23.1400
G01 X113.2835 Y23.1438
G01 X113.3090 Y23.1450
G01 X113.3345 Y23.1438
G01 X113.3597 Y23.1400
G01 X113.3845 Y23.1338
G01 X113.4085 Y23.1252
G01 X113.4316 Y23.1143
G01 X113.4535 Y23.1012
G01 X113.4740 Y23.0860
G01 X113.4929 Y23.0689
G01 X113.5100 Y23.0500
G01 X113.5252 Y23.0295
G01 X113.5383 Y23.0076
G01 X113.5492 Y22.9845
G01 X113.5578 Y22.9605
G01 X113.5640 Y22.9357
G01 X113.5678 Y22.9105
G01 X113.5690 Y22.8850
G00 X113.5690 Y22.8850
G01 F60.00
G01 Z-1.8000
G01 F120.00
G01 X113.5678 Y22.8595
G01 X113.5640 Y22.8343
G01 X113.5578 Y22.8095
G01 X113.5492 Y22.7855
G01 X113.5383 Y22.7624
G01 X113.5252 Y22.7406
G01 X113.5100 Y22.7201
G01 X113.4929 Y22.7012
G01 X113.4740 Y22.6840
G01 X113.4535 Y22.6688
G01 X113.4316 Y22.6557
G01 X113.4085 Y22.6448
G01 X113.3845 Y22.6362
G01 X113.3597 Y22.6300
G01 X113.3345 Y22.6263
G01 X113.3090 Y22.6250
G01 X113.2835 Y22.6263
G01 X113.2583 Y22.6300
G01 X113.2335 Y22.6362
G01 X113.2095 Y22.6448
G01 X113.1864 Y22.6557
G01 X113.1646 Y22.6688
G01 X113.1441 Y22.6840
G01 X113.1252 Y22.7012
G01 X113.1080 Y22.7201
G01 X113.0928 Y22.7406
G01 X113.0797 Y22.7624
G01 X113.0688 Y22.7855
G01 X113.0602 Y22.8095
G01 X113.0540 Y22.8343
G01 X113.0503 Y22.8595
G01 X113.0490 Y22.8850
G01 X113.0503 Y22.9105
G01 X113.0540 Y22.9357
G01 X113.0602 Y22.9605
G01 X113.0688 Y22.9845
G01 X113.0797 Y23.0076
G01 X113.0928 Y23.0295
G01 X113.1080 Y23.0500
G01 X113.1252 Y23.0689
G01 X113.1441 Y23.0860
G01 X113.1646 Y23.1012
G01 X113.1864 Y23.1143
G01 X113.2095 Y23.1252
G01 X113.2335 Y23.1338
G01 X113.2583 Y23.1400
G01 X113.2835 Y23.1438
G01 X113.3090 Y23.1450
G01 X113.3345 Y23.1438
G01 X113.3597 Y23.1400
G01 X113.3845 Y23.1338
G01 X113.4085 Y23.1252
G01 X113.4316 Y23.1143
G01 X113.4535 Y23.1012
G01 X113.4740 Y23.0860
G01 X113.4929 Y23.0689
G01 X113.5100 Y23.0500
G01 X113.5252 Y23.0295
G01 X113.5383 Y23.0076
G01 X113.5492 Y22.9845
G01 X113.5578 Y22.9605
G01 X113.5640 Y22.9357
G01 X113.5678 Y22.9105
G01 X113.5690 Y22.8850
G00 Z2.0000
G00 X95.6290 Y12.7250
G01 F60.00
G01 Z-0.6000
G01 F120.00
G01 X95.6285 Y12.7152
G01 X95.6271 Y12.7055
G01 X95.6247 Y12.6960
G01 X95.6214 Y12.6867
G01 X95.6172 Y12.6779
G01 X95.6122 Y12.6695
G01 X95.6063 Y12.6616
G01 X95.5997 Y12.6543
G01 X95.5925 Y12.6477
G01 X95.5846 Y12.6419
G01 X95.5762 Y12.6368
G01 X95.5673 Y12.6326
G01 X95.5580 Y12.6293
G01 X95.5485 Y12.6269
G01 X95.5388 Y12.6255
G01 X95.5290 Y12.6250
G01 X95.5192 Y12.6255
G01 X95.5095 Y12.6269
G01 X95.5000 Y12.6293
G01 X95.4907 Y12.6326
G01 X95.4819 Y12.6368
G01 X95.4735 Y12.6419
G01 X95.4656 Y12.6477
G01 X95.4583 Y12.6543
G01 X95.4517 Y12.6616
G01 X95.4459 Y12.6695
G01 X95.4408 Y12.6779
G01 X95.4366 Y12.6867
G01 X95.4333 Y12.6960
G01 X95.4309 Y12.7055
G01 X95.4295 Y12.7152
G01 X95.4290 Y12.7250
G01 X95.4295 Y12.7348
G01 X95.4309 Y12.7445
G01 X95.4333 Y12.7540
G01 X95.4366 Y12.7633
G01 X95.4408 Y12.7722
G01 X95.4459 Y12.7806
G01 X95.4517 Y12.7885
G01 X95.4583 Y12.7957
G01 X95.4656 Y12.8023
G01 X95.4735 Y12.8082
G01 X95.4819 Y12.8132
G01 X95.4907 Y12.8174
G01 X95.5000 Y12.8207
G01 X95.5095 Y12.8231
G01 X95.5192 Y12.8245
G01 X95.5290 Y12.8250
G01 X95.5388 Y12.8245
G01 X95.5485 Y12.8231
G01 X95.5580 Y12.8207
G01 X95.5673 Y12.8174
G01 X95.5762 Y12.8132
G01 X95.5846 Y12.8082
G01 X95.5925 Y12.8023
G01 X95.5997 Y12.7957
G01 X95.6063 Y12.7885
G01 X95.6122 Y12.7806
G01 X95.6172 Y12.7722
G01 X95.6214 Y12.7633
G01 X95.6247 Y12.7540
G01 X95.6271 Y12.7445
G01 X95.6285 Y12.7348
G01 X95.6290 Y12.7250
G00 X95.6290 Y12.7250
G01 F60.00
G01 Z-1.2000
G01 F120.00
G01 X95.6285 Y12.7152
G01 X95.6271 Y12.7055
G01 X95.6247 Y12.6960
G01 X95.6214 Y12.6867
G01 X95.6172 Y12.6779
G01 X95.6122 Y12.6695
G01 X95.6063 Y12.6616
G01 X95.5997 Y12.6543
G01 X95.5925 Y12.6477
G01 X95.5846 Y12.6419
G01 X95.5762 Y12.6368
G01 X95.5673 Y12.6326
G01 X95.5580 Y12.6293
G01 X95.5485 Y12.6269
G01 X95.5388 Y12.6255
G01 X95.5290 Y12.6250
G01 X95.5192 Y12.6255
G01 X95.5095 Y12.6269
G01 X95.5000 Y12.6293
G01 X95.4907 Y12.6326
G01 X95.4819 Y12.6368
G01 X95.4735 Y12.6419
G01 X95.4656 Y12.6477
G01 X95.4583 Y12.6543
G01 X95.4517 Y12.6616
G01 X95.4459 Y12.6695
G01 X95.4408 Y12.6779
G01 X95.4366 Y12.6867
G01 X95.4333 Y12.6960
G01 X95.4309 Y12.7055
G01 X95.4295 Y12.7152
G01 X95.4290 Y12.7250
G01 X95.4295 Y12.7348
G01 X95.4309 Y12.7445
G01 X95.4333 Y12.7540
G01 X95.4366 Y12.7633
G01 X95.4408 Y12.7722
G01 X95.4459 Y12.7806
G01 X95.4517 Y12.7885
G01 X95.4583 Y12.7957
G01 X95.4656 Y12.8023
G01 X95.4735 Y12.8082
G01 X95.4819 Y12.8132
G01 X95.4907 Y12.8174
G01 X95.5000 Y12.8207
G01 X95.5095 Y12.8231
G01 X95.5192 Y12.8245
G01 X95.5290 Y12.8250
G01 X95.5388 Y12.8245
G01 X95.5485 Y12.8231
G01 X95.5580 Y12.8207
G01 X95.5673 Y12.8174
G01 X95.5762 Y12.8132
G01 X95.5846 Y12.8082
G01 X95.5925 Y12.8023
G01 X95.5997 Y12.7957
G01 X95.6063 Y12.7885
G01 X95.6122 Y12.7806
G01 X95.6172 Y12.7722
G01 X95.6214 Y12.7633
G01 X95.6247 Y12.7540
G01 X95.6271 Y12.7445
G01 X95.6285 Y12.7348
G01 X95.6290 Y12.7250
G00 X95.6290 Y12.7250
G01 F60.00
G01 Z-1.8000
G01 F120.00
G01 X95.6285 Y12.7152
G01 X95.6271 Y12.7055
G01 X95.6247 Y12.6960
G01 X95.6214 Y12.6867
G01 X95.6172 Y12.6779
G01 X95.6122 Y12.6695
G01 X95.6063 Y12.6616
G01 X95.5997 Y12.6543
G01 X95.5925 Y12.6477
G01 X95.5846 Y12.6419
G01 X95.5762 Y12.6368
G01 X95.5673 Y12.6326
G01 X95.5580 Y12.6293
G01 X95.5485 Y12.6269
G01 X95.5388 Y12.6255
G01 X95.5290 Y12.6250
G01 X95.5192 Y12.6255
G01 X95.5095 Y12.6269
G01 X95.5000 Y12.6293
G01 X95.4907 Y12.6326
G01 X95.4819 Y12.6368
G01 X95.4735 Y12.6419
G01 X95.4656 Y12.6477
G01 X95.4583 Y12.6543
G01 X95.4517 Y12.6616
G01 X95.4459 Y12.6695
G01 X95.4408 Y12.6779
G01 X95.4366 Y12.6867
G01 X95.4333 Y12.6960
G01 X95.4309 Y12.7055
G01 X95.4295 Y12.7152
G01 X95.4290 Y12.7250
G01 X95.4295 Y12.7348
G01 X95.4309 Y12.7445
G01 X95.4333 Y12.7540
G01 X95.4366 Y12.7633
G01 X95.4408 Y12.7722
G01 X95.4459 Y12.7806
G01 X95.4517 Y12.7885
G01 X95.4583 Y12.7957
G01 X95.4656 Y12.8023
G01 X95.4735 Y12.8082
G01 X95.4819 Y12.8132
G01 X95.4907 Y12.8174
G01 X95.5000 Y12.8207
G01 X95.5095 Y12.8231
G01 X95.5192 Y12.8245
G01 X95.5290 Y12.8250
G01 X95.5388 Y12.8245
G01 X95.5485 Y12.8231
G01 X95.5580 Y12.8207
G01 X95.5673 Y12.8174
G01 X95.5762 Y12.8132
G01 X95.5846 Y12.8082
G01 X95.5925 Y12.8023
G01 X95.5997 Y12.7957
G01 X95.6063 Y12.7885
G01 X95.6122 Y12.7806
G01 X95.6172 Y12.7722
G01 X95.6214 Y12.7633
G01 X95.6247 Y12.7540
G01 X95.6271 Y12.7445
G01 X95.6285 Y12.7348
G01 X95.6290 Y12.7250
G00 Z2.0000
G00 X88.0090 Y12.7250
G01 F60.00
G01 Z-0.6000
G01 F120.00
G01 X88.0085 Y12.7152
G01 X88.0071 Y12.7055
G01 X88.0047 Y12.6960
G01 X88.0014 Y12.6867
G01 X87.9972 Y12.6779
G01 X87.9922 Y12.6695
G01 X87.9863 Y12.6616
G01 X87.9797 Y12.6543
G01 X87.9725 Y12.6477
G01 X87.9646 Y12.6419
G01 X87.9562 Y12.6368
G01 X87.9473 Y12.6326
G01 X87.9380 Y12.6293
G01 X87.9285 Y12.6269
G01 X87.9188 Y12.6255
G01 X87.9090 Y12.6250
G01 X87.8992 Y12.6255
G01 X87.8895 Y12.6269
G01 X87.8800 Y12.6293
G01 X87.8707 Y12.6326
G01 X87.8619 Y12.6368
G01 X87.8535 Y12.6419
G01 X87.8456 Y12.6477
G01 X87.8383 Y12.6543
G01 X87.8317 Y12.6616
G01 X87.8259 Y12.6695
G01 X87.8208 Y12.6779
G01 X87.8166 Y12.6867
G01 X87.8133 Y12.6960
G01 X87.8109 Y12.7055
G01 X87.8095 Y12.7152
G01 X87.8090 Y12.7250
G01 X87.8095 Y12.7348
G01 X87.8109 Y12.7445
G01 X87.8133 Y12.7540
G01 X87.8166 Y12.7633
G01 X87.8208 Y12.7722
G01 X87.8259 Y12.7806
G01 X87.8317 Y12.7885
G01 X87.8383 Y12.7957
G01 X87.8456 Y12.8023
G01 X87.8535 Y12.8082
G01 X87.8619 Y12.8132
G01 X87.8707 Y12.8174
G01 X87.8800 Y12.8207
G01 X87.8895 Y12.8231
G01 X87.8992 Y12.8245
G01 X87.9090 Y12.8250
G01 X87.9188 Y12.8245
G01 X87.9285 Y12.8231
G01 X87.9380 Y12.8207
G01 X87.9473 Y12.8174
G01 X87.9562 Y12.8132
G01 X87.9646 Y12.8082
G01 X87.9725 Y12.8023
G01 X87.9797 Y12.7957
G01 X87.9863 Y12.7885
G01 X87.9922 Y12.7806
G01 X87.9972 Y12.7722
G01 X88.0014 Y12.7633
G01 X88.0047 Y12.7540
G01 X88.0071 Y12.7445
G01 X88.0085 Y12.7348
G01 X88.0090 Y12.7250
G00 X88.0090 Y12.7250
G01 F60.00
G01 Z-1.2000
G01 F120.00
G01 X88.0085 Y12.7152
G01 X88.0071 Y12.7055
G01 X88.0047 Y12.6960
G01 X88.0014 Y12.6867
G01 X87.9972 Y12.6779
G01 X87.9922 Y12.6695
G01 X87.9863 Y12.6616
G01 X87.9797 Y12.6543
