(G-CODE GENERATED BY FLATCAM v8.993 - www.flatcam.org - Version Date: 2020/06/05)

(Name: top)
(Type: G-code from Geometry)
(Units: MM)

(Created on sexta, 31 julho 2020 at 11:10)

(This preprocessor is the default preprocessor used by FlatCAM.)
(It is made to work with MACH3 compatible motion controllers.)

(TOOL DIAMETER: 0.2657 mm)
(Feedrate_XY: 160.0 mm/min)
(Feedrate_Z: 60.0 mm/min)
(Feedrate rapids 1500.0 mm/min)

(Z_Cut: -0.2 mm)
(Z_Move: 2.0 mm)
(Z Start: None mm)
(Z End: 15.0 mm)
(Steps per circle: 64)
(Preprocessor Geometry: default)

(X range:   -0.1079 ...  123.0940  mm)
(Y range:   -0.1079 ...   89.5660  mm)

(Spindle Speed: 12000 RPM)
G21
G90
G94



G01 F160.00
G00 Z2.0000

M03 S12000
G00 X6.0641 Y4.2835
G01 F60.00
G01 Z-0.2000
G01 F160.00
G01 X5.9882 Y4.6651
G01 X5.8393 Y5.0245
G01 X5.6231 Y5.3480
G01 X5.3480 Y5.6231
G01 X5.0245 Y5.8393
G01 X4.6651 Y5.9882
G01 X4.2835 Y6.0641
G01 X3.8945 Y6.0641
G01 X3.5129 Y5.9882
G01 X3.1535 Y5.8393
G01 X2.8300 Y5.6231
G01 X2.5549 Y5.3480
G01 X2.3387 Y5.0245
G01 X2.1899 Y4.6651
G01 X2.1140 Y4.2835
G01 X2.1140 Y3.8945
G01 X2.1899 Y3.5129
G01 X2.3387 Y3.1535
G01 X2.5549 Y2.8300
G01 X2.8300 Y2.5549
G01 X3.1535 Y2.3387
G01 X3.5129 Y2.1899
G01 X3.8945 Y2.1140
G01 X4.2835 Y2.1140
G01 X4.6651 Y2.1899
G01 X5.0245 Y2.3387
G01 X5.3480 Y2.5549
G01 X5.6231 Y2.8300
G01 X5.8393 Y3.1535
G01 X5.9882 Y3.5129
G01 X6.0641 Y3.8945
G01 X6.0641 Y4.2835
G00 Z2.0000
G00 X19.7735 Y3.2642
G01 F60.00
G01 Z-0.2000
G01 F160.00
G01 X19.7865 Y3.2648
G01 X19.7994 Y3.2667
G01 X19.8121 Y3.2699
G01 X19.8244 Y3.2743
G01 X19.8361 Y3.2798
G01 X19.8473 Y3.2866
G01 X19.8552 Y3.2923
G01 X19.8651 Y3.3008
G01 X19.8741 Y3.3102
G01 X19.8821 Y3.3205
G01 X19.8891 Y3.3315
G01 X19.8950 Y3.3432
G01 X19.8997 Y3.3553
G01 X19.9031 Y3.3679
G01 X19.9049 Y3.3775
G01 X19.9062 Y3.3905
G01 X19.9064 Y5.7970
G01 X19.9057 Y5.8100
G01 X19.9044 Y5.8197
G01 X19.9024 Y5.8293
G01 X19.8997 Y5.8387
G01 X19.8962 Y5.8479
G01 X19.8922 Y5.8567
G01 X19.8858 Y5.8681
G01 X19.8802 Y5.8762
G01 X19.8697 Y5.8886
G01 X19.8603 Y5.8976
G01 X19.8473 Y5.9075
G01 X19.8361 Y5.9142
G01 X19.8213 Y5.9210
G01 X19.8058 Y5.9259
G01 X19.7930 Y5.9284
G01 X19.7768 Y5.9298
G01 X17.8653 Y5.9298
G01 X17.8555 Y5.9292
G01 X17.8458 Y5.9279
G01 X17.8331 Y5.9250
G01 X17.8238 Y5.9221
G01 X17.8147 Y5.9185
G01 X17.8059 Y5.9142
G01 X17.7974 Y5.9093
G01 X17.7894 Y5.9037
G01 X17.7793 Y5.8954
G01 X17.7679 Y5.8838
G01 X17.7581 Y5.8708
G01 X17.7498 Y5.8567
G01 X17.7434 Y5.8418
G01 X17.7396 Y5.8293
G01 X17.7367 Y5.8133
G01 X17.7357 Y5.7970
G01 X17.7357 Y3.3970
G01 X17.7360 Y3.3872
G01 X17.7371 Y3.3775
G01 X17.7389 Y3.3679
G01 X17.7424 Y3.3553
G01 X17.7458 Y3.3462
G01 X17.7498 Y3.3373
G01 X17.7546 Y3.3287
G01 X17.7618 Y3.3179
G01 X17.7701 Y3.3078
G01 X17.7817 Y3.2964
G01 X17.7920 Y3.2884
G01 X17.8059 Y3.2798
G01 X17.8177 Y3.2743
G01 X17.8331 Y3.2690
G01 X17.8490 Y3.2656
G01 X17.8653 Y3.2642
G01 X19.7735 Y3.2642
G00 Z2.0000
G00 X21.3545 Y3.2643
G01 F60.00
G01 Z-0.2000
G01 F160.00
G01 X21.3675 Y3.2643
G01 X21.4674 Y3.2694
G01 X21.5728 Y3.2850
G01 X21.6761 Y3.3109
G01 X21.7764 Y3.3468
G01 X21.8726 Y3.3923
G01 X21.9640 Y3.4471
G01 X22.0496 Y3.5105
G01 X22.1285 Y3.5821
G01 X22.2000 Y3.6610
G01 X22.2634 Y3.7465
G01 X22.3182 Y3.8379
G01 X22.3637 Y3.9342
G01 X22.3996 Y4.0345
G01 X22.4255 Y4.1378
G01 X22.4411 Y4.2431
G01 X22.4464 Y4.3495
G01 X22.4463 Y4.8478
G01 X22.4411 Y4.9509
G01 X22.4261 Y5.0530
G01 X22.4241 Y5.0626
G01 X22.3996 Y5.1596
G01 X22.3637 Y5.2599
G01 X22.3182 Y5.3561
G01 X22.2669 Y5.4420
G01 X22.2616 Y5.4502
G01 X22.2040 Y5.5279
G01 X22.1957 Y5.5380
G01 X22.1285 Y5.6120
G01 X22.0545 Y5.6792
G01 X22.0444 Y5.6875
G01 X21.9640 Y5.7469
G01 X21.8726 Y5.8017
G01 X21.7823 Y5.8446
G01 X21.7703 Y5.8496
G01 X21.6761 Y5.8831
G01 X21.5791 Y5.9076
G01 X21.5663 Y5.9101
G01 X21.4674 Y5.9246
G01 X21.3610 Y5.9299
G01 X21.2546 Y5.9246
G01 X21.1493 Y5.9090
G01 X21.0460 Y5.8831
G01 X20.9457 Y5.8472
G01 X20.8494 Y5.8017
G01 X20.7580 Y5.7469
G01 X20.6725 Y5.6835
G01 X20.5936 Y5.6120
G01 X20.5220 Y5.5331
G01 X20.4586 Y5.4475
G01 X20.4038 Y5.3561
G01 X20.3583 Y5.2599
G01 X20.3224 Y5.1596
G01 X20.2965 Y5.0563
G01 X20.2809 Y4.9509
G01 X20.2757 Y4.8445
G01 X20.2757 Y4.3463
G01 X20.2809 Y4.2431
G01 X20.2959 Y4.1410
G01 X20.2979 Y4.1314
G01 X20.3224 Y4.0345
G01 X20.3583 Y3.9342
G01 X20.4038 Y3.8379
G01 X20.4586 Y3.7465
G01 X20.5220 Y3.6610
G01 X20.5891 Y3.5868
G01 X20.5983 Y3.5776
G01 X20.6725 Y3.5105
G01 X20.7527 Y3.4508
G01 X20.7635 Y3.4436
G01 X20.8494 Y3.3923
G01 X20.9457 Y3.3468
G01 X21.0398 Y3.3129
G01 X21.0522 Y3.3092
G01 X21.1493 Y3.2850
G01 X21.2482 Y3.2702
G01 X21.2611 Y3.2689
G01 X21.3545 Y3.2643
G00 Z2.0000
G00 X23.5141 Y3.3364
G01 F60.00
G01 Z-0.2000
G01 F160.00
G01 X23.4918 Y3.3444
G01 X23.4827 Y3.3481
G01 X23.3923 Y3.3908
G01 X23.3837 Y3.3955
G01 X23.3008 Y3.4453
G01 X23.2927 Y3.4508
G01 X23.2125 Y3.5105
G01 X23.1359 Y3.5798
G01 X23.1291 Y3.5868
G01 X23.0620 Y3.6610
G01 X22.9986 Y3.7465
G01 X22.9438 Y3.8379
G01 X22.9009 Y3.9282
G01 X22.8959 Y3.9403
G01 X22.8644 Y4.0283
G01 X22.8607 Y4.0407
G01 X22.8365 Y4.1378
G01 X22.8209 Y4.2431
G01 X22.8157 Y4.3495
G01 X22.8157 Y4.8445
G01 X22.8204 Y4.9444
G01 X22.8217 Y4.9574
G01 X22.8365 Y5.0563
G01 X22.8607 Y5.1533
G01 X22.8644 Y5.1658
G01 X22.8983 Y5.2599
G01 X22.9409 Y5.3503
G01 X22.9454 Y5.3590
G01 X22.9986 Y5.4475
G01 X23.0620 Y5.5331
G01 X23.1336 Y5.6120
G01 X23.2100 Y5.6814
G01 X23.2176 Y5.6875
G01 X23.2980 Y5.7469
G01 X23.3865 Y5.8001
G01 X23.3952 Y5.8046
G01 X23.4827 Y5.8460
G01 X23.4918 Y5.8496
G01 X23.5141 Y5.8576
G01 X23.5141 Y6.1090
G01 X23.4348 Y6.0869
G01 X23.2001 Y5.9711
G01 X22.9938 Y5.8127
G01 X22.8858 Y5.6896
G01 X22.8681 Y5.6710
G01 X22.8588 Y5.6622
G01 X22.8392 Y5.6457
G01 X22.8182 Y5.6308
G01 X22.8102 Y5.6256
G01 X22.7850 Y5.6115
G01 X22.7615 Y5.6010
G01 X22.7496 Y5.5964
G01 X22.7252 Y5.5884
G01 X22.7002 Y5.5825
G01 X22.6876 Y5.5803
G01 X22.6621 Y5.5772
G01 X22.6365 Y5.5762
G01 X22.6237 Y5.5764
G01 X22.5949 Y5.5786
G01 X22.5664 Y5.5833
G01 X22.5384 Y5.5906
G01 X22.5112 Y5.6002
G01 X22.4995 Y5.6052
G01 X22.4764 Y5.6165
G01 X22.4517 Y5.6314
G01 X22.4438 Y5.6369
G01 X22.4233 Y5.6524
G01 X22.4042 Y5.6696
G01 X22.3974 Y5.6763
G01 X22.3781 Y5.6978
G01 X22.3043 Y5.7878
G01 X22.1021 Y5.9537
G01 X21.8715 Y6.0769
G01 X21.6213 Y6.1529
G01 X21.3610 Y6.1785
G01 X21.1008 Y6.1529
G01 X20.8505 Y6.0769
G01 X20.6199 Y5.9537
G01 X20.5800 Y5.9210
G01 X20.5617 Y5.9073
G01 X20.5508 Y5.9001
G01 X20.5254 Y5.8853
G01 X20.4988 Y5.8728
G01 X20.4680 Y5.8618
G01 X20.4363 Y5.8539
G01 X20.4105 Y5.8499
G01 X20.4008 Y5.8488
G01 X20.3714 Y5.8475
G01 X20.3452 Y5.8486
G01 X20.3323 Y5.8499
G01 X20.3064 Y5.8539
G01 X20.2810 Y5.8601
G01 X20.2685 Y5.8639
G01 X20.2440 Y5.8728
G01 X20.2173 Y5.8853
G01 X20.1919 Y5.9001
G01 X20.1811 Y5.9073
G01 X20.1602 Y5.9230
G01 X20.1383 Y5.9427
G01 X20.1314 Y5.9497
G01 X20.1140 Y5.9692
G01 X20.0964 Y5.9927
G01 X20.0903 Y6.0022
G01 X20.0400 Y6.0635
G01 X19.9829 Y6.1104
G01 X19.9177 Y6.1452
G01 X19.8470 Y6.1666
G01 X19.7572 Y6.1755
G01 X17.8849 Y6.1755
G01 X17.7950 Y6.1666
G01 X17.7243 Y6.1452
G01 X17.6591 Y6.1104
G01 X17.6020 Y6.0635
G01 X17.5552 Y6.0064
G01 X17.5203 Y5.9412
G01 X17.4989 Y5.8705
G01 X17.4900 Y5.7807
G01 X17.4900 Y3.4134
G01 X17.4989 Y3.3235
G01 X17.5203 Y3.2528
G01 X17.5552 Y3.1876
G01 X17.6020 Y3.1305
G01 X17.6591 Y3.0837
G01 X17.7243 Y3.0488
G01 X17.7950 Y3.0274
G01 X17.8849 Y3.0185
G01 X19.7572 Y3.0185
G01 X19.8470 Y3.0274
G01 X19.9177 Y3.0488
G01 X19.9829 Y3.0837
G01 X20.0400 Y3.1305
G01 X20.0903 Y3.1918
G01 X20.0964 Y3.2013
G01 X20.1140 Y3.2248
G01 X20.1359 Y3.2490
G01 X20.1601 Y3.2710
G01 X20.1811 Y3.2867
G01 X20.1919 Y3.2939
G01 X20.2144 Y3.3072
G01 X20.2380 Y3.3186
G01 X20.2500 Y3.3236
G01 X20.2747 Y3.3322
G01 X20.3000 Y3.3387
G01 X20.3128 Y3.3413
G01 X20.3387 Y3.3449
G01 X20.3714 Y3.3466
G01 X20.4040 Y3.3449
G01 X20.4299 Y3.3413
G01 X20.4427 Y3.3387
G01 X20.4680 Y3.3322
G01 X20.4927 Y3.3236
G01 X20.5018 Y3.3199
G01 X20.5225 Y3.3102
G01 X20.5340 Y3.3040
G01 X20.5590 Y3.2886
G01 X20.5800 Y3.2730
G01 X20.6199 Y3.2404
G01 X20.8505 Y3.1171
G01 X21.1008 Y3.0412
G01 X21.3610 Y3.0155
G01 X21.6213 Y3.0412
G01 X21.8715 Y3.1171
G01 X22.1021 Y3.2404
G01 X22.3043 Y3.4063
G01 X22.3781 Y3.4962
G01 X22.3974 Y3.5177
G01 X22.4042 Y3.5244
G01 X22.4233 Y3.5416
G01 X22.4464 Y3.5590
G01 X22.4709 Y3.5743
G01 X22.4821 Y3.5804
G01 X22.5053 Y3.5914
G01 X22.5354 Y3.6025
G01 X22.5602 Y3.6092
G01 X22.5727 Y3.6119
G01 X22.5981 Y3.6158
G01 X22.6269 Y3.6178
G01 X22.6557 Y3.6172
G01 X22.6685 Y3.6162
G01 X22.6939 Y3.6128
G01 X22.7252 Y3.6056
G01 X22.7496 Y3.5977
G01 X22.7615 Y3.5930
G01 X22.7850 Y3.5825
G01 X22.8102 Y3.5684
G01 X22.8182 Y3.5632
G01 X22.8392 Y3.5484
G01 X22.8588 Y3.5318
G01 X22.8681 Y3.5230
G01 X22.8858 Y3.5045
G01 X22.9938 Y3.3813
G01 X23.2001 Y3.2229
G01 X23.4348 Y3.1071
G01 X23.5141 Y3.0850
G01 X23.5141 Y3.3364
G00 Z2.0000
G00 X24.2880 Y3.3364
G01 F60.00
G01 Z-0.2000
G01 F160.00
G01 X24.2880 Y3.0850
G01 X24.3672 Y3.1071
G01 X24.6019 Y3.2229
G01 X24.8082 Y3.3813
G01 X24.9797 Y3.5769
G01 X25.1097 Y3.8022
G01 X25.1932 Y4.0485
G01 X25.2145 Y4.2101
G01 X24.9764 Y4.2101
G01 X24.9655 Y4.1378
G01 X24.9405 Y4.0376
G01 X24.9376 Y4.0283
G01 X24.9061 Y3.9403
G01 X24.9025 Y3.9312
G01 X24.8582 Y3.8379
G01 X24.8069 Y3.7520
G01 X24.7997 Y3.7412
G01 X24.7420 Y3.6635
G01 X24.7357 Y3.6560
G01 X24.6730 Y3.5868
G01 X24.6637 Y3.5776
G01 X24.5896 Y3.5105
G01 X24.5067 Y3.4489
G01 X24.4985 Y3.4436
G01 X24.4183 Y3.3955
G01 X24.4097 Y3.3908
G01 X24.3194 Y3.3481
G01 X24.3103 Y3.3444
G01 X24.2880 Y3.3364
G00 Z2.0000
G00 X24.2880 Y6.1090
G01 F60.00
G01 Z-0.2000
G01 F160.00
G01 X24.2880 Y5.8576
G01 X24.3103 Y5.8496
G01 X24.3194 Y5.8460
G01 X24.4097 Y5.8032
G01 X24.4183 Y5.7985
G01 X24.4985 Y5.7504
G01 X24.5067 Y5.7451
G01 X24.5896 Y5.6835
G01 X24.6637 Y5.6165
G01 X24.6730 Y5.6072
G01 X24.7357 Y5.5380
G01 X24.7420 Y5.5305
G01 X24.8034 Y5.4475
G01 X24.8550 Y5.3618
G01 X24.8611 Y5.3503
G01 X24.9025 Y5.2629
G01 X24.9061 Y5.2538
G01 X24.9376 Y5.1658
G01 X24.9405 Y5.1564
G01 X24.9655 Y5.0563
G01 X24.9764 Y4.9840
G01 X25.2145 Y4.9840
G01 X25.1932 Y5.1455
G01 X25.1097 Y5.3918
G01 X24.9797 Y5.6171
G01 X24.8082 Y5.8127
G01 X24.6019 Y5.9711
G01 X24.3672 Y6.0869
G01 X24.2880 Y6.1090
G00 Z2.0000
G00 X38.0615 Y3.2642
G01 F60.00
G01 Z-0.2000
G01 F160.00
G01 X38.0745 Y3.2648
G01 X38.0874 Y3.2667
G01 X38.1001 Y3.2699
G01 X38.1093 Y3.2731
G01 X38.1212 Y3.2783
G01 X38.1326 Y3.2848
G01 X38.1432 Y3.2923
G01 X38.1531 Y3.3008
G01 X38.1621 Y3.3102
G01 X38.1701 Y3.3205
G01 X38.1755 Y3.3287
G01 X38.1816 Y3.3402
G01 X38.1866 Y3.3523
G01 X38.1904 Y3.3647
G01 X38.1929 Y3.3775
G01 X38.1942 Y3.3905
G01 X38.1944 Y5.7970
G01 X38.1940 Y5.8068
G01 X38.1929 Y5.8165
G01 X38.1904 Y5.8293
G01 X38.1877 Y5.8387
G01 X38.1842 Y5.8479
G01 X38.1787 Y5.8596
G01 X38.1738 Y5.8681
G01 X38.1682 Y5.8762
G01 X38.1577 Y5.8886
G01 X38.1483 Y5.8976
G01 X38.1353 Y5.9075
G01 X38.1212 Y5.9157
G01 X38.1063 Y5.9221
G01 X38.0938 Y5.9259
G01 X38.0778 Y5.9289
G01 X38.0648 Y5.9298
G01 X36.1533 Y5.9298
G01 X36.1435 Y5.9292
G01 X36.1338 Y5.9279
G01 X36.1211 Y5.9250
G01 X36.1118 Y5.9221
G01 X36.1027 Y5.9185
G01 X36.0939 Y5.9142
G01 X36.0854 Y5.9093
G01 X36.0774 Y5.9037
G01 X36.0673 Y5.8954
G01 X36.0559 Y5.8838
G01 X36.0461 Y5.8708
G01 X36.0378 Y5.8567
G01 X36.0326 Y5.8448
G01 X36.0276 Y5.8293
G01 X36.0247 Y5.8133
G01 X36.0237 Y5.7970
G01 X36.0237 Y3.3970
G01 X36.0243 Y3.3840
G01 X36.0256 Y3.3743
G01 X36.0276 Y3.3647
G01 X36.0304 Y3.3553
G01 X36.0338 Y3.3462
G01 X36.0378 Y3.3373
G01 X36.0443 Y3.3259
G01 X36.0498 Y3.3179
G01 X36.0603 Y3.3054
G01 X36.0697 Y3.2964
G01 X36.0800 Y3.2884
G01 X36.0939 Y3.2798
G01 X36.1087 Y3.2731
G01 X36.1211 Y3.2690
G01 X36.1370 Y3.2656
G01 X36.1533 Y3.2642
G01 X38.0615 Y3.2642
G00 Z2.0000
G00 X39.6425 Y3.2643
G01 F60.00
G01 Z-0.2000
G01 F160.00
G01 X39.6555 Y3.2643
G01 X39.7554 Y3.2694
G01 X39.8608 Y3.2850
G01 X39.9641 Y3.3109
G01 X40.0644 Y3.3468
G01 X40.1606 Y3.3923
G01 X40.2520 Y3.4471
G01 X40.3376 Y3.5105
G01 X40.4165 Y3.5821
G01 X40.4880 Y3.6610
G01 X40.5514 Y3.7465
G01 X40.6062 Y3.8379
G01 X40.6517 Y3.9342
G01 X40.6876 Y4.0345
G01 X40.7135 Y4.1378
G01 X40.7291 Y4.2431
G01 X40.7344 Y4.3495
G01 X40.7343 Y4.8478
G01 X40.7291 Y4.9509
G01 X40.7141 Y5.0530
G01 X40.7121 Y5.0626
G01 X40.6876 Y5.1596
G01 X40.6517 Y5.2599
G01 X40.6062 Y5.3561
G01 X40.5549 Y5.4420
G01 X40.5496 Y5.4502
G01 X40.4920 Y5.5279
G01 X40.4837 Y5.5380
G01 X40.4165 Y5.6120
G01 X40.3425 Y5.6792
G01 X40.3324 Y5.6875
G01 X40.2520 Y5.7469
G01 X40.1606 Y5.8017
G01 X40.0703 Y5.8446
G01 X40.0583 Y5.8496
G01 X39.9641 Y5.8831
G01 X39.8671 Y5.9076
G01 X39.8543 Y5.9101
G01 X39.7554 Y5.9246
G01 X39.6490 Y5.9299
G01 X39.5426 Y5.9246
G01 X39.4373 Y5.9090
G01 X39.3340 Y5.8831
G01 X39.2337 Y5.8472
G01 X39.1374 Y5.8017
G01 X39.0460 Y5.7469
G01 X38.9605 Y5.6835
G01 X38.8816 Y5.6120
G01 X38.8100 Y5.5331
G01 X38.7466 Y5.4475
G01 X38.6918 Y5.3561
G01 X38.6463 Y5.2599
G01 X38.6104 Y5.1596
G01 X38.5845 Y5.0563
G01 X38.5689 Y4.9509
G01 X38.5637 Y4.8445
G01 X38.5637 Y4.3463
G01 X38.5689 Y4.2431
G01 X38.5839 Y4.1410
G01 X38.5859 Y4.1314
G01 X38.6104 Y4.0345
G01 X38.6463 Y3.9342
G01 X38.6918 Y3.8379
G01 X38.7466 Y3.7465
G01 X38.8060 Y3.6661
G01 X38.8143 Y3.6560
G01 X38.8816 Y3.5821
G01 X38.9555 Y3.5148
G01 X38.9656 Y3.5065
G01 X39.0460 Y3.4471
G01 X39.1374 Y3.3923
G01 X39.2337 Y3.3468
G01 X39.3278 Y3.3129
G01 X39.3402 Y3.3092
G01 X39.4373 Y3.2850
G01 X39.5362 Y3.2702
G01 X39.5491 Y3.2689
G01 X39.6425 Y3.2643
G00 Z2.0000
G00 X41.8021 Y3.3364
G01 F60.00
G01 Z-0.2000
G01 F160.00
G01 X41.7798 Y3.3444
G01 X41.7707 Y3.3481
G01 X41.6803 Y3.3908
G01 X41.6717 Y3.3955
G01 X41.5888 Y3.4453
G01 X41.5807 Y3.4508
G01 X41.5005 Y3.5105
G01 X41.4239 Y3.5798
G01 X41.4171 Y3.5868
G01 X41.3500 Y3.6610
G01 X41.2866 Y3.7465
G01 X41.2318 Y3.8379
G01 X41.1889 Y3.9282
G01 X41.1839 Y3.9403
G01 X41.1524 Y4.0283
G01 X41.1487 Y4.0407
G01 X41.1245 Y4.1378
G01 X41.1089 Y4.2431
G01 X41.1037 Y4.3495
G01 X41.1037 Y4.8445
G01 X41.1084 Y4.9444
G01 X41.1097 Y4.9574
G01 X41.1245 Y5.0563
G01 X41.1487 Y5.1533
G01 X41.1524 Y5.1658
G01 X41.1863 Y5.2599
G01 X41.2289 Y5.3503
G01 X41.2334 Y5.3590
G01 X41.2866 Y5.4475
G01 X41.3500 Y5.5331
G01 X41.4216 Y5.6120
G01 X41.4980 Y5.6814
G01 X41.5056 Y5.6875
G01 X41.5860 Y5.7469
G01 X41.6745 Y5.8001
G01 X41.6832 Y5.8046
G01 X41.7707 Y5.8460
G01 X41.7798 Y5.8496
G01 X41.8021 Y5.8576
G01 X41.8021 Y6.1090
G01 X41.7228 Y6.0869
G01 X41.4881 Y5.9711
G01 X41.2818 Y5.8127
G01 X41.1738 Y5.6896
G01 X41.1561 Y5.6710
G01 X41.1468 Y5.6622
G01 X41.1272 Y5.6457
G01 X41.1062 Y5.6308
G01 X41.0982 Y5.6256
G01 X41.0730 Y5.6115
G01 X41.0495 Y5.6010
G01 X41.0376 Y5.5964
G01 X41.0132 Y5.5884
G01 X40.9882 Y5.5825
G01 X40.9756 Y5.5803
G01 X40.9501 Y5.5772
G01 X40.9245 Y5.5762
G01 X40.9117 Y5.5764
G01 X40.8829 Y5.5786
G01 X40.8544 Y5.5833
G01 X40.8264 Y5.5906
G01 X40.7992 Y5.6002
G01 X40.7875 Y5.6052
G01 X40.7644 Y5.6165
G01 X40.7397 Y5.6314
G01 X40.7318 Y5.6369
G01 X40.7113 Y5.6524
G01 X40.6922 Y5.6696
G01 X40.6854 Y5.6763
G01 X40.6661 Y5.6978
G01 X40.5923 Y5.7878
G01 X40.3901 Y5.9537
G01 X40.1595 Y6.0769
G01 X39.9093 Y6.1529
G01 X39.6490 Y6.1785
G01 X39.3888 Y6.1529
G01 X39.1385 Y6.0769
G01 X38.9079 Y5.9537
G01 X38.8680 Y5.9210
G01 X38.8497 Y5.9073
G01 X38.8388 Y5.9001
G01 X38.8134 Y5.8853
G01 X38.7868 Y5.8728
G01 X38.7560 Y5.8618
G01 X38.7243 Y5.8539
G01 X38.6985 Y5.8499
G01 X38.6888 Y5.8488
G01 X38.6594 Y5.8475
G01 X38.6332 Y5.8486
G01 X38.6203 Y5.8499
G01 X38.5944 Y5.8539
G01 X38.5690 Y5.8601
G01 X38.5565 Y5.8639
G01 X38.5320 Y5.8728
G01 X38.5053 Y5.8853
G01 X38.4799 Y5.9001
G01 X38.4691 Y5.9073
G01 X38.4482 Y5.9230
G01 X38.4263 Y5.9427
G01 X38.4194 Y5.9497
G01 X38.4020 Y5.9692
G01 X38.3844 Y5.9927
G01 X38.3783 Y6.0022
G01 X38.3280 Y6.0635
G01 X38.2709 Y6.1104
G01 X38.2057 Y6.1452
G01 X38.1350 Y6.1666
G01 X38.0452 Y6.1755
G01 X36.1729 Y6.1755
G01 X36.0830 Y6.1666
G01 X36.0123 Y6.1452
G01 X35.9471 Y6.1104
G01 X35.8900 Y6.0635
G01 X35.8432 Y6.0064
G01 X35.8083 Y5.9412
G01 X35.7869 Y5.8705
G01 X35.7780 Y5.7807
G01 X35.7780 Y3.4134
G01 X35.7869 Y3.3235
G01 X35.8083 Y3.2528
G01 X35.8432 Y3.1876
G01 X35.8900 Y3.1305
G01 X35.9471 Y3.0837
G01 X36.0123 Y3.0488
G01 X36.0830 Y3.0274
G01 X36.1729 Y3.0185
G01 X38.0452 Y3.0185
G01 X38.1350 Y3.0274
G01 X38.2057 Y3.0488
G01 X38.2709 Y3.0837
G01 X38.3280 Y3.1305
G01 X38.3783 Y3.1918
G01 X38.3844 Y3.2013
G01 X38.4020 Y3.2248
G01 X38.4239 Y3.2490
G01 X38.4481 Y3.2710
G01 X38.4691 Y3.2867
G01 X38.4799 Y3.2939
G01 X38.5024 Y3.3072
G01 X38.5260 Y3.3186
G01 X38.5380 Y3.3236
G01 X38.5627 Y3.3322
G01 X38.5880 Y3.3387
G01 X38.6008 Y3.3413
G01 X38.6267 Y3.3449
G01 X38.6594 Y3.3466
G01 X38.6920 Y3.3449
G01 X38.7179 Y3.3413
G01 X38.7307 Y3.3387
G01 X38.7560 Y3.3322
G01 X38.7807 Y3.3236
G01 X38.7898 Y3.3199
G01 X38.8105 Y3.3102
G01 X38.8220 Y3.3040
G01 X38.8470 Y3.2886
G01 X38.8680 Y3.2730
G01 X38.9079 Y3.2404
G01 X39.1385 Y3.1171
G01 X39.3888 Y3.0412
G01 X39.6490 Y3.0155
G01 X39.9093 Y3.0412
G01 X40.1595 Y3.1171
G01 X40.3901 Y3.2404
G01 X40.5923 Y3.4063
G01 X40.6661 Y3.4962
G01 X40.6854 Y3.5177
G01 X40.6922 Y3.5244
G01 X40.7113 Y3.5416
G01 X40.7344 Y3.5590
G01 X40.7589 Y3.5743
G01 X40.7701 Y3.5804
G01 X40.7933 Y3.5914
G01 X40.8234 Y3.6025
G01 X40.8482 Y3.6092
G01 X40.8607 Y3.6119
G01 X40.8861 Y3.6158
G01 X40.9149 Y3.6178
G01 X40.9437 Y3.6172
G01 X40.9565 Y3.6162
G01 X40.9819 Y3.6128
G01 X41.0132 Y3.6056
G01 X41.0376 Y3.5977
G01 X41.0495 Y3.5930
G01 X41.0730 Y3.5825
G01 X41.0982 Y3.5684
G01 X41.1062 Y3.5632
G01 X41.1272 Y3.5484
G01 X41.1468 Y3.5318
G01 X41.1561 Y3.5230
G01 X41.1738 Y3.5045
G01 X41.2818 Y3.3813
G01 X41.4881 Y3.2229
G01 X41.7228 Y3.1071
G01 X41.8021 Y3.0850
G01 X41.8021 Y3.3364
G00 Z2.0000
G00 X42.5760 Y3.3364
G01 F60.00
G01 Z-0.2000
G01 F160.00
G01 X42.5760 Y3.0850
G01 X42.6552 Y3.1071
G01 X42.8899 Y3.2229
G01 X43.0962 Y3.3813
G01 X43.2677 Y3.5769
G01 X43.3977 Y3.8022
G01 X43.4812 Y4.0485
G01 X43.5025 Y4.2101
G01 X43.2644 Y4.2101
G01 X43.2535 Y4.1378
G01 X43.2285 Y4.0376
G01 X43.2256 Y4.0283
G01 X43.1941 Y3.9403
G01 X43.1905 Y3.9312
G01 X43.1462 Y3.8379
G01 X43.0949 Y3.7520
G01 X43.0877 Y3.7412
G01 X43.0300 Y3.6635
G01 X43.0237 Y3.6560
G01 X42.9610 Y3.5868
G01 X42.9517 Y3.5776
G01 X42.8776 Y3.5105
G01 X42.7947 Y3.4489
G01 X42.7865 Y3.4436
G01 X42.7063 Y3.3955
G01 X42.6977 Y3.3908
G01 X42.6074 Y3.3481
G01 X42.5983 Y3.3444
G01 X42.5760 Y3.3364
G00 Z2.0000
G00 X42.5760 Y6.1090
G01 F60.00
G01 Z-0.2000
G01 F160.00
G01 X42.5760 Y5.8576
G01 X42.5983 Y5.8496
G01 X42.6074 Y5.8460
G01 X42.6977 Y5.8032
G01 X42.7063 Y5.7985
G01 X42.7865 Y5.7504
G01 X42.7947 Y5.7451
G01 X42.8776 Y5.6835
G01 X42.9517 Y5.6165
G01 X42.9610 Y5.6072
G01 X43.0237 Y5.5380
G01 X43.0300 Y5.5305
G01 X43.0914 Y5.4475
G01 X43.1430 Y5.3618
G01 X43.1491 Y5.3503
G01 X43.1905 Y5.2629
G01 X43.1941 Y5.2538
G01 X43.2256 Y5.1658
G01 X43.2285 Y5.1564
G01 X43.2535 Y5.0563
G01 X43.2644 Y4.9840
G01 X43.5025 Y4.9840
G01 X43.4812 Y5.1455
G01 X43.3977 Y5.3918
G01 X43.2677 Y5.6171
G01 X43.0962 Y5.8127
G01 X42.8899 Y5.9711
G01 X42.6552 Y6.0869
G01 X42.5760 Y6.1090
G00 Z2.0000
G00 X50.8190 Y20.9407
G01 F60.00
G01 Z-0.2000
G01 F160.00
G01 X51.2854 Y20.9039
G01 X51.7500 Y20.9588
G01 X52.1950 Y21.1033
G01 X52.5446 Y21.2990
G01 X52.5918 Y21.3900
G01 X52.4477 Y21.5341
G01 X52.4266 Y21.5185
G01 X52.4185 Y21.5131
G01 X52.2501 Y21.4122
G01 X52.2386 Y21.4061
G01 X52.0552 Y21.3195
G01 X51.8581 Y21.2490
G01 X51.6615 Y21.1996
G01 X51.6487 Y21.1970
G01 X51.4481 Y21.1674
G01 X51.2390 Y21.1572
G01 X51.0365 Y21.1670
G01 X51.0235 Y21.1682
G01 X50.8229 Y21.1981
G01 X50.6199 Y21.2490
G01 X50.4228 Y21.3195
G01 X50.2394 Y21.4061
G01 X50.2279 Y21.4122
G01 X50.0596 Y21.5131
G01 X50.0514 Y21.5185
G01 X50.0303 Y21.5341
G01 X49.8863 Y21.3900
G01 X49.9402 Y21.2863
G01 X50.3687 Y21.0678
G01 X50.8190 Y20.9407
G00 Z2.0000
G00 X53.5883 Y22.8700
G01 F60.00
G01 Z-0.2000
G01 F160.00
G01 X53.6251 Y23.3364
G01 X53.5702 Y23.8010
G01 X53.4257 Y24.2460
G01 X53.2300 Y24.5956
G01 X53.1390 Y24.6428
G01 X52.9950 Y24.4987
G01 X53.0106 Y24.4776
G01 X53.0159 Y24.4695
G01 X53.1168 Y24.3011
G01 X53.1229 Y24.2896
G01 X53.2095 Y24.1062
G01 X53.2800 Y23.9091
G01 X53.3295 Y23.7125
G01 X53.3320 Y23.6997
G01 X53.3616 Y23.4991
G01 X53.3719 Y23.2900
G01 X53.3621 Y23.0875
G01 X53.3608 Y23.0745
G01 X53.3309 Y22.8739
G01 X53.2800 Y22.6709
G01 X53.2095 Y22.4738
G01 X53.1229 Y22.2904
G01 X53.1168 Y22.2789
G01 X53.0159 Y22.1106
G01 X53.0106 Y22.1024
G01 X52.9950 Y22.0813
G01 X53.1390 Y21.9373
G01 X53.2427 Y21.9912
G01 X53.4612 Y22.4197
G01 X53.5883 Y22.8700
G00 Z2.0000
G00 X51.6591 Y25.6393
G01 F60.00
G01 Z-0.2000
G01 F160.00
G01 X51.1927 Y25.6761
G01 X50.7280 Y25.6212
G01 X50.2831 Y25.4767
G01 X49.9334 Y25.2810
G01 X49.8863 Y25.1900
G01 X50.0303 Y25.0460
G01 X50.0514 Y25.0616
G01 X50.0596 Y25.0669
G01 X50.2279 Y25.1678
G01 X50.2394 Y25.1739
G01 X50.4228 Y25.2605
G01 X50.6199 Y25.3310
G01 X50.8166 Y25.3805
G01 X50.8293 Y25.3830
G01 X51.0300 Y25.4126
G01 X51.2390 Y25.4229
G01 X51.4416 Y25.4131
G01 X51.4545 Y25.4118
G01 X51.6551 Y25.3819
G01 X51.8581 Y25.3310
G01 X52.0552 Y25.2605
G01 X52.2386 Y25.1739
G01 X52.2501 Y25.1678
G01 X52.4185 Y25.0669
G01 X52.4266 Y25.0616
G01 X52.4477 Y25.0460
G01 X52.5918 Y25.1900
G01 X52.5379 Y25.2937
G01 X52.1093 Y25.5122
G01 X51.6591 Y25.6393
G00 Z2.0000
G00 X48.8897 Y23.7101
G01 F60.00
G01 Z-0.2000
G01 F160.00
G01 X48.8529 Y23.2437
G01 X48.9078 Y22.7790
G01 X49.0523 Y22.3341
G01 X49.2480 Y21.9844
G01 X49.3390 Y21.9373
G01 X49.4831 Y22.0813
G01 X49.4675 Y22.1024
G01 X49.4621 Y22.1106
G01 X49.3612 Y22.2789
G01 X49.3551 Y22.2904
G01 X49.2685 Y22.4738
G01 X49.1980 Y22.6709
G01 X49.1486 Y22.8676
G01 X49.1460 Y22.8803
G01 X49.1164 Y23.0810
G01 X49.1062 Y23.2900
G01 X49.1160 Y23.4926
G01 X49.1172 Y23.5055
G01 X49.1471 Y23.7061
G01 X49.1980 Y23.9091
G01 X49.2685 Y24.1062
G01 X49.3551 Y24.2896
G01 X49.3612 Y24.3011
G01 X49.4621 Y24.4695
G01 X49.4675 Y24.4776
G01 X49.4831 Y24.4987
G01 X49.3390 Y24.6428
G01 X49.2353 Y24.5889
G01 X49.0168 Y24.1603
G01 X48.8897 Y23.7101
G00 Z2.0000
G00 X58.8605 Y25.2737
G01 F60.00
G01 Z-0.2000
G01 F160.00
G01 X58.8605 Y21.3064
G01 X58.8694 Y21.2165
G01 X58.8908 Y21.1458
G01 X58.9257 Y21.0806
G01 X58.9725 Y21.0235
G01 X59.0296 Y20.9767
G01 X59.0948 Y20.9418
G01 X59.1655 Y20.9204
G01 X59.2554 Y20.9115
G01 X63.2227 Y20.9115
G01 X63.3125 Y20.9204
G01 X63.3832 Y20.9418
G01 X63.4484 Y20.9767
G01 X63.5055 Y21.0235
G01 X63.5524 Y21.0806
G01 X63.5872 Y21.1458
G01 X63.6086 Y21.2165
G01 X63.6175 Y21.3064
G01 X63.6175 Y25.2737
G01 X63.6086 Y25.3635
G01 X63.5872 Y25.4342
G01 X63.5524 Y25.4994
G01 X63.5055 Y25.5565
G01 X63.4484 Y25.6034
G01 X63.3832 Y25.6382
G01 X63.3125 Y25.6596
G01 X63.2227 Y25.6685
G01 X59.2554 Y25.6685
G01 X59.1655 Y25.6596
G01 X59.0948 Y25.6382
G01 X59.0296 Y25.6034
G01 X58.9725 Y25.5565
G01 X58.9257 Y25.4994
G01 X58.8908 Y25.4342
G01 X58.8694 Y25.3635
G01 X58.8605 Y25.2737
G00 Z2.0000
G00 X63.2390 Y21.1572
G01 F60.00
G01 Z-0.2000
G01 F160.00
G01 X63.2520 Y21.1578
G01 X63.2649 Y21.1597
G01 X63.2776 Y21.1629
G01 X63.2899 Y21.1673
G01 X63.3016 Y21.1728
G01 X63.3128 Y21.1796
G01 X63.3233 Y21.1873
G01 X63.3330 Y21.1961
G01 X63.3417 Y21.2057
G01 X63.3495 Y21.2162
G01 X63.3562 Y21.2274
G01 X63.3617 Y21.2392
G01 X63.3661 Y21.2514
G01 X63.3693 Y21.2641
G01 X63.3712 Y21.2770
G01 X63.3718 Y21.2868
G01 X63.3719 Y25.2900
G01 X63.3712 Y25.3030
G01 X63.3693 Y25.3159
G01 X63.3661 Y25.3286
G01 X63.3617 Y25.3409
G01 X63.3562 Y25.3526
G01 X63.3513 Y25.3611
G01 X63.3437 Y25.3717
G01 X63.3352 Y25.3816
G01 X63.3233 Y25.3927
G01 X63.3128 Y25.4005
G01 X63.3016 Y25.4072
G01 X63.2899 Y25.4127
G01 X63.2776 Y25.4171
G01 X63.2649 Y25.4203
G01 X63.2520 Y25.4222
G01 X63.2390 Y25.4229
G01 X59.2390 Y25.4229
G01 X59.2292 Y25.4225
G01 X59.2163 Y25.4209
G01 X59.2036 Y25.4180
G01 X59.1912 Y25.4140
G01 X59.1793 Y25.4087
G01 X59.1679 Y25.4023
G01 X59.1573 Y25.3947
G01 X59.1474 Y25.3862
G01 X59.1384 Y25.3768
G01 X59.1304 Y25.3665
G01 X59.1234 Y25.3555
G01 X59.1176 Y25.3438
G01 X59.1129 Y25.3317
G01 X59.1094 Y25.3191
G01 X59.1072 Y25.3063
G01 X59.1062 Y25.2900
G01 X59.1062 Y21.2900
G01 X59.1068 Y21.2770
G01 X59.1081 Y21.2673
G01 X59.1110 Y21.2546
G01 X59.1151 Y21.2422
G01 X59.1203 Y21.2303
G01 X59.1268 Y21.2189
G01 X59.1343 Y21.2083
G01 X59.1428 Y21.1984
G01 X59.1522 Y21.1894
G01 X59.1625 Y21.1814
G01 X59.1735 Y21.1744
G01 X59.1852 Y21.1686
G01 X59.1973 Y21.1639
G01 X59.2099 Y21.1604
G01 X59.2228 Y21.1582
G01 X59.2390 Y21.1572
G01 X63.2390 Y21.1572
G00 Z2.0000
G00 X71.1617 Y28.0181
G01 F60.00
G01 Z-0.2000
G01 F160.00
G01 X71.1677 Y27.9966
G01 X71.2698 Y27.7879
G01 X71.4094 Y27.6048
G01 X71.5820 Y27.4525
G01 X71.7810 Y27.3368
G01 X71.9988 Y27.2621
G01 X72.2373 Y27.2300
G01 X72.2821 Y27.2300
G01 X72.2821 Y27.4722
G01 X72.2625 Y27.4723
G01 X72.1841 Y27.4762
G01 X72.1711 Y27.4775
G01 X72.0870 Y27.4901
G01 X71.9982 Y27.5123
G01 X71.9181 Y27.5408
G01 X71.9061 Y27.5458
G01 X71.8293 Y27.5823
G01 X71.7535 Y27.6276
G01 X71.7454 Y27.6331
G01 X71.6824 Y27.6799
G01 X71.6723 Y27.6882
G01 X71.6094 Y27.7454
G01 X71.5500 Y27.8107
G01 X71.5439 Y27.8184
G01 X71.4971 Y27.8814
G01 X71.4916 Y27.8895
G01 X71.4463 Y27.9653
G01 X71.4212 Y28.0181
G01 X71.1617 Y28.0181
G00 Z2.0000
G00 X71.1617 Y28.7920
G01 F60.00
G01 Z-0.2000
G01 F160.00
G01 X71.4212 Y28.7920
G01 X71.4463 Y28.8448
G01 X71.4916 Y28.9205
G01 X71.4971 Y28.9286
G01 X71.5439 Y28.9917
G01 X71.5500 Y28.9993
G01 X71.6094 Y29.0646
G01 X71.6723 Y29.1219
G01 X71.6824 Y29.1301
G01 X71.7454 Y29.1769
G01 X71.7535 Y29.1824
G01 X71.8293 Y29.2277
G01 X71.9061 Y29.2642
G01 X71.9181 Y29.2692
G01 X71.9982 Y29.2977
G01 X72.0870 Y29.3199
G01 X72.1711 Y29.3326
G01 X72.1841 Y29.3339
G01 X72.2690 Y29.3379
G01 X73.0723 Y29.3378
G01 X73.1539 Y29.3339
G01 X73.1669 Y29.3326
G01 X73.2510 Y29.3199
G01 X73.3367 Y29.2986
G01 X73.3460 Y29.2956
G01 X73.4260 Y29.2669
G01 X73.5088 Y29.2277
G01 X73.5873 Y29.1806
G01 X73.6557 Y29.1301
G01 X73.6633 Y29.1240
G01 X73.7286 Y29.0646
G01 X73.7859 Y29.0017
G01 X73.7922 Y28.9943
G01 X73.8409 Y28.9286
G01 X73.8464 Y28.9205
G01 X73.8917 Y28.8448
G01 X73.9169 Y28.7920
G01 X74.1763 Y28.7920
G01 X74.1703 Y28.8135
G01 X74.0682 Y29.0221
G01 X73.9286 Y29.2052
G01 X73.7560 Y29.3575
G01 X73.7117 Y29.3834
G01 X73.6927 Y29.3956
G01 X73.6849 Y29.4011
G01 X73.6647 Y29.4171
G01 X73.6576 Y29.4235
G01 X73.6392 Y29.4415
G01 X73.6224 Y29.4610
G01 X73.6145 Y29.4711
G01 X73.5999 Y29.4923
G01 X73.5841 Y29.5203
G01 X73.5711 Y29.5497
G01 X73.5629 Y29.5740
G01 X73.5595 Y29.5864
G01 X73.5545 Y29.6084
G01 X73.5529 Y29.6178
G01 X73.5498 Y29.6434
G01 X73.5489 Y29.6755
G01 X73.5504 Y29.7012
G01 X73.5519 Y29.7139
G01 X73.5562 Y29.7393
G01 X73.5644 Y29.7703
G01 X73.5756 Y29.8004
G01 X73.5867 Y29.8236
G01 X73.5913 Y29.8321
G01 X73.6030 Y29.8514
G01 X73.6102 Y29.8620
G01 X73.6258 Y29.8824
G01 X73.6430 Y29.9015
G01 X73.6498 Y29.9083
G01 X73.6689 Y29.9255
G01 X73.6765 Y29.9315
G01 X73.6972 Y29.9467
G01 X73.7250 Y29.9633
G01 X73.9039 Y30.1101
G01 X74.0508 Y30.2890
G01 X74.1599 Y30.4932
G01 X74.2271 Y30.7147
G01 X74.2497 Y30.9450
G01 X74.2271 Y31.1754
G01 X74.1599 Y31.3969
G01 X74.0508 Y31.6010
G01 X73.9039 Y31.7799
G01 X73.7229 Y31.9285
G01 X73.7043 Y31.9400
G01 X73.6808 Y31.9576
G01 X73.6566 Y31.9796
G01 X73.6346 Y32.0038
G01 X73.6152 Y32.0300
G01 X73.5984 Y32.0581
G01 X73.5844 Y32.0876
G01 X73.5754 Y32.1122
G01 X73.5717 Y32.1246
G01 X73.5661 Y32.1469
G01 X73.5643 Y32.1565
G01 X73.5607 Y32.1824
G01 X73.5591 Y32.2150
G01 X73.5607 Y32.2476
G01 X73.5643 Y32.2735
G01 X73.5669 Y32.2863
G01 X73.5734 Y32.3117
G01 X73.5844 Y32.3424
G01 X73.5954 Y32.3661
G01 X73.5999 Y32.3748
G01 X73.6117 Y32.3945
G01 X73.6189 Y32.4053
G01 X73.6346 Y32.4262
G01 X73.6521 Y32.4457
G01 X73.6589 Y32.4527
G01 X73.6783 Y32.4703
G01 X73.6859 Y32.4764
G01 X73.7043 Y32.4900
G01 X73.7229 Y32.5015
G01 X73.9039 Y32.6501
G01 X74.0508 Y32.8290
G01 X74.1599 Y33.0332
G01 X74.2271 Y33.2547
G01 X74.2497 Y33.4850
G01 X74.2271 Y33.7154
G01 X74.1599 Y33.9369
G01 X74.0508 Y34.1410
G01 X73.9039 Y34.3199
G01 X73.7250 Y34.4668
G01 X73.5209 Y34.5759
G01 X73.2994 Y34.6431
G01 X73.1267 Y34.6601
G01 X72.2113 Y34.6601
G01 X72.0387 Y34.6431
G01 X71.8172 Y34.5759
G01 X71.6130 Y34.4668
G01 X71.4341 Y34.3199
G01 X71.2873 Y34.1410
G01 X71.1782 Y33.9369
G01 X71.1110 Y33.7154
G01 X71.0883 Y33.4850
G01 X71.1110 Y33.2547
G01 X71.1782 Y33.0332
G01 X71.2873 Y32.8290
G01 X71.4341 Y32.6501
G01 X71.6151 Y32.5015
G01 X71.6337 Y32.4900
G01 X71.6521 Y32.4764
G01 X71.6597 Y32.4703
G01 X71.6791 Y32.4527
G01 X71.6859 Y32.4457
G01 X71.7034 Y32.4262
G01 X71.7191 Y32.4053
G01 X71.7263 Y32.3945
G01 X71.7381 Y32.3748
G01 X71.7426 Y32.3661
G01 X71.7536 Y32.3424
G01 X71.7646 Y32.3117
G01 X71.7726 Y32.2800
G01 X71.7766 Y32.2541
G01 X71.7778 Y32.2411
G01 X71.7789 Y32.2118
G01 X71.7774 Y32.1824
G01 X71.7737 Y32.1565
G01 X71.7711 Y32.1437
G01 X71.7636 Y32.1153
G01 X71.7536 Y32.0876
G01 X71.7411 Y32.0610
G01 X71.7263 Y32.0355
G01 X71.7191 Y32.0247
G01 X71.7034 Y32.0038
G01 X71.6859 Y31.9843
G01 X71.6791 Y31.9773
G01 X71.6597 Y31.9597
G01 X71.6521 Y31.9536
G01 X71.6337 Y31.9400
G01 X71.6151 Y31.9285
G01 X71.4341 Y31.7799
G01 X71.2873 Y31.6010
G01 X71.1782 Y31.3969
G01 X71.1110 Y31.1754
G01 X71.0883 Y30.9450
G01 X71.1110 Y30.7147
G01 X71.1782 Y30.4932
G01 X71.2873 Y30.2890
G01 X71.4341 Y30.1101
G01 X71.6130 Y29.9633
G01 X71.6408 Y29.9467
G01 X71.6666 Y29.9276
G01 X71.6905 Y29.9061
G01 X71.7123 Y29.8824
G01 X71.7316 Y29.8568
G01 X71.7483 Y29.8293
G01 X71.7624 Y29.8004
G01 X71.7715 Y29.7764
G01 X71.7745 Y29.7673
G01 X71.7803 Y29.7455
G01 X71.7830 Y29.7330
G01 X71.7874 Y29.7044
G01 X71.7889 Y29.6819
G01 X71.7892 Y29.6723
G01 X71.7882 Y29.6434
G01 X71.7846 Y29.6147
G01 X71.7786 Y29.5864
G01 X71.7751 Y29.5740
G01 X71.7669 Y29.5497
G01 X71.7539 Y29.5203
G01 X71.7381 Y29.4923
G01 X71.7235 Y29.4711
G01 X71.7157 Y29.4610
G01 X71.6989 Y29.4415
G01 X71.6805 Y29.4235
G01 X71.6733 Y29.4171
G01 X71.6532 Y29.4011
G01 X71.6453 Y29.3956
G01 X71.6264 Y29.3834
G01 X71.5820 Y29.3575
G01 X71.4094 Y29.2052
G01 X71.2698 Y29.0221
G01 X71.1677 Y28.8135
G01 X71.1617 Y28.7920
G00 Z2.0000
G00 X73.0690 Y30.0122
G01 F60.00
G01 Z-0.2000
G01 F160.00
G01 X73.1539 Y30.0162
G01 X73.1669 Y30.0175
G01 X73.2510 Y30.0301
G01 X73.3398 Y30.0523
G01 X73.4260 Y30.0832
G01 X73.5029 Y30.1194
G01 X73.5144 Y30.1255
G01 X73.5873 Y30.1694
G01 X73.6608 Y30.2239
G01 X73.7239 Y30.2809
G01 X73.7331 Y30.2901
G01 X73.7901 Y30.3532
G01 X73.8409 Y30.4214
G01 X73.8481 Y30.4323
G01 X73.8917 Y30.5053
G01 X73.9282 Y30.5821
G01 X73.9332 Y30.5941
G01 X73.9617 Y30.6742
G01 X73.9825 Y30.7567
G01 X73.9851 Y30.7694
G01 X73.9974 Y30.8536
G01 X74.0017 Y30.9385
G01 X74.0017 Y30.9515
G01 X73.9979 Y31.0299
G01 X73.9966 Y31.0429
G01 X73.9839 Y31.1270
G01 X73.9634 Y31.2095
G01 X73.9596 Y31.2220
G01 X73.9309 Y31.3020
G01 X73.8917 Y31.3848
G01 X73.8481 Y31.4578
G01 X73.8409 Y31.4686
G01 X73.7941 Y31.5317
G01 X73.7880 Y31.5393
G01 X73.7286 Y31.6046
G01 X73.6608 Y31.6661
G01 X73.5873 Y31.7206
G01 X73.5088 Y31.7677
G01 X73.4260 Y31.8069
G01 X73.3398 Y31.8377
G01 X73.2510 Y31.8599
G01 X73.1669 Y31.8726
G01 X73.1539 Y31.8739
G01 X73.0690 Y31.8779
G01 X72.2690 Y31.8779
G01 X72.1841 Y31.8739
G01 X72.1711 Y31.8726
G01 X72.0870 Y31.8599
G01 X72.0045 Y31.8394
G01 X71.9920 Y31.8356
G01 X71.9120 Y31.8069
G01 X71.8293 Y31.7677
G01 X71.7563 Y31.7241
G01 X71.7454 Y31.7169
G01 X71.6824 Y31.6701
G01 X71.6747 Y31.6640
G01 X71.6094 Y31.6046
G01 X71.5479 Y31.5368
G01 X71.4934 Y31.4633
G01 X71.4463 Y31.3848
G01 X71.4072 Y31.3020
G01 X71.3763 Y31.2158
G01 X71.3541 Y31.1270
G01 X71.3407 Y31.0364
G01 X71.3362 Y30.9450
G01 X71.3407 Y30.8536
G01 X71.3541 Y30.7630
G01 X71.3763 Y30.6742
G01 X71.4072 Y30.5880
G01 X71.4463 Y30.5053
G01 X71.4934 Y30.4267
G01 X71.5439 Y30.3584
G01 X71.5500 Y30.3507
G01 X71.6094 Y30.2854
G01 X71.6723 Y30.2282
G01 X71.6824 Y30.2199
G01 X71.7454 Y30.1731
G01 X71.7563 Y30.1659
G01 X71.8293 Y30.1223
G01 X71.9120 Y30.0832
G01 X71.9982 Y30.0523
G01 X72.0838 Y30.0308
G01 X72.0934 Y30.0290
G01 X72.1776 Y30.0167
G01 X72.2658 Y30.0122
G01 X73.0690 Y30.0122
G00 Z2.0000
G00 X73.9169 Y28.0181
G01 F60.00
G01 Z-0.2000
G01 F160.00
G01 X73.8917 Y27.9653
G01 X73.8464 Y27.8895
G01 X73.8409 Y27.8814
G01 X73.7941 Y27.8184
G01 X73.7880 Y27.8107
G01 X73.7286 Y27.7454
G01 X73.6657 Y27.6882
G01 X73.6557 Y27.6799
G01 X73.5926 Y27.6331
G01 X73.5845 Y27.6276
G01 X73.5088 Y27.5823
G01 X73.4320 Y27.5458
G01 X73.4199 Y27.5408
G01 X73.3398 Y27.5123
G01 X73.2510 Y27.4901
G01 X73.1669 Y27.4775
G01 X73.1539 Y27.4762
G01 X73.0755 Y27.4723
G01 X73.0560 Y27.4722
G01 X73.0560 Y27.2300
G01 X73.1007 Y27.2300
G01 X73.3392 Y27.2621
G01 X73.5570 Y27.3368
G01 X73.7560 Y27.4525
G01 X73.9286 Y27.6048
G01 X74.0682 Y27.7879
G01 X74.1703 Y27.9966
G01 X74.1763 Y28.0181
G01 X73.9169 Y28.0181
G00 Z2.0000
G00 X73.0690 Y32.5522
G01 F60.00
G01 Z-0.2000
G01 F160.00
G01 X73.1539 Y32.5562
G01 X73.1669 Y32.5575
G01 X73.2510 Y32.5701
G01 X73.3398 Y32.5923
G01 X73.4260 Y32.6232
G01 X73.5029 Y32.6594
G01 X73.5144 Y32.6655
G01 X73.5873 Y32.7094
G01 X73.6608 Y32.7639
G01 X73.7239 Y32.8209
G01 X73.7331 Y32.8301
G01 X73.7901 Y32.8932
G01 X73.8409 Y32.9614
G01 X73.8481 Y32.9723
G01 X73.8917 Y33.0453
G01 X73.9282 Y33.1221
G01 X73.9332 Y33.1341
G01 X73.9617 Y33.2142
G01 X73.9825 Y33.2967
G01 X73.9851 Y33.3094
G01 X73.9974 Y33.3936
G01 X74.0017 Y33.4785
G01 X74.0017 Y33.4915
G01 X73.9979 Y33.5699
G01 X73.9966 Y33.5829
G01 X73.9839 Y33.6670
G01 X73.9634 Y33.7495
G01 X73.9596 Y33.7620
G01 X73.9309 Y33.8420
G01 X73.8917 Y33.9248
G01 X73.8481 Y33.9978
G01 X73.8409 Y34.0086
G01 X73.7941 Y34.0717
G01 X73.7880 Y34.0793
G01 X73.7286 Y34.1446
G01 X73.6608 Y34.2061
G01 X73.5873 Y34.2606
G01 X73.5088 Y34.3077
G01 X73.4260 Y34.3469
G01 X73.3398 Y34.3777
G01 X73.2510 Y34.3999
G01 X73.1669 Y34.4126
G01 X73.1539 Y34.4139
G01 X73.0690 Y34.4179
G01 X72.2690 Y34.4179
G01 X72.1841 Y34.4139
G01 X72.1711 Y34.4126
G01 X72.0870 Y34.3999
G01 X72.0045 Y34.3794
G01 X71.9920 Y34.3756
G01 X71.9120 Y34.3469
G01 X71.8293 Y34.3077
G01 X71.7563 Y34.2641
G01 X71.7454 Y34.2569
G01 X71.6824 Y34.2101
G01 X71.6747 Y34.2040
G01 X71.6094 Y34.1446
G01 X71.5479 Y34.0768
G01 X71.4934 Y34.0033
G01 X71.4463 Y33.9248
G01 X71.4072 Y33.8420
G01 X71.3763 Y33.7558
G01 X71.3541 Y33.6670
G01 X71.3407 Y33.5764
G01 X71.3362 Y33.4850
G01 X71.3407 Y33.3936
G01 X71.3541 Y33.3030
G01 X71.3763 Y33.2142
G01 X71.4072 Y33.1280
G01 X71.4463 Y33.0453
G01 X71.4934 Y32.9667
G01 X71.5439 Y32.8984
G01 X71.5500 Y32.8907
G01 X71.6094 Y32.8254
G01 X71.6723 Y32.7682
G01 X71.6824 Y32.7599
G01 X71.7454 Y32.7131
G01 X71.7563 Y32.7059
G01 X71.8293 Y32.6623
G01 X71.9120 Y32.6232
G01 X71.9982 Y32.5923
G01 X72.0838 Y32.5708
G01 X72.0934 Y32.5690
G01 X72.1776 Y32.5567
G01 X72.2658 Y32.5522
G01 X73.0690 Y32.5522
G00 Z2.0000
G00 X80.0517 Y28.7920
G01 F60.00
G01 Z-0.2000
G01 F160.00
G01 X80.3112 Y28.7920
G01 X80.3363 Y28.8448
G01 X80.3816 Y28.9205
G01 X80.3871 Y28.9286
G01 X80.4339 Y28.9917
G01 X80.4400 Y28.9993
G01 X80.4994 Y29.0646
G01 X80.5623 Y29.1219
G01 X80.5724 Y29.1301
G01 X80.6354 Y29.1769
G01 X80.6435 Y29.1824
G01 X80.7193 Y29.2277
G01 X80.7961 Y29.2642
G01 X80.8081 Y29.2692
G01 X80.8882 Y29.2977
G01 X80.9770 Y29.3199
G01 X81.0611 Y29.3326
G01 X81.0741 Y29.3339
G01 X81.1590 Y29.3379
G01 X81.9623 Y29.3378
G01 X82.0439 Y29.3339
G01 X82.0569 Y29.3326
G01 X82.1410 Y29.3199
G01 X82.2267 Y29.2986
G01 X82.2360 Y29.2956
G01 X82.3160 Y29.2669
G01 X82.3988 Y29.2277
G01 X82.4773 Y29.1806
G01 X82.5457 Y29.1301
G01 X82.5533 Y29.1240
G01 X82.6186 Y29.0646
G01 X82.6759 Y29.0017
G01 X82.6822 Y28.9943
G01 X82.7309 Y28.9286
G01 X82.7364 Y28.9205
G01 X82.7817 Y28.8448
G01 X82.8069 Y28.7920
G01 X83.0663 Y28.7920
G01 X83.0603 Y28.8135
G01 X82.9582 Y29.0221
G01 X82.8186 Y29.2052
G01 X82.6460 Y29.3575
G01 X82.6017 Y29.3834
G01 X82.5827 Y29.3956
G01 X82.5749 Y29.4011
G01 X82.5547 Y29.4171
G01 X82.5476 Y29.4235
G01 X82.5292 Y29.4415
G01 X82.5124 Y29.4610
G01 X82.5045 Y29.4711
G01 X82.4899 Y29.4923
G01 X82.4741 Y29.5203
G01 X82.4611 Y29.5497
G01 X82.4529 Y29.5740
G01 X82.4495 Y29.5864
G01 X82.4445 Y29.6084
G01 X82.4429 Y29.6178
G01 X82.4398 Y29.6434
G01 X82.4389 Y29.6755
G01 X82.4404 Y29.7012
G01 X82.4419 Y29.7139
G01 X82.4462 Y29.7393
G01 X82.4544 Y29.7703
G01 X82.4656 Y29.8004
G01 X82.4767 Y29.8236
G01 X82.4813 Y29.8321
G01 X82.4930 Y29.8514
G01 X82.5002 Y29.8620
G01 X82.5158 Y29.8824
G01 X82.5330 Y29.9015
G01 X82.5398 Y29.9083
G01 X82.5589 Y29.9255
G01 X82.5665 Y29.9315
G01 X82.5872 Y29.9467
G01 X82.6150 Y29.9633
G01 X82.7939 Y30.1101
G01 X82.9408 Y30.2890
G01 X83.0499 Y30.4932
G01 X83.1171 Y30.7147
G01 X83.1397 Y30.9450
G01 X83.1171 Y31.1754
G01 X83.0499 Y31.3969
G01 X82.9408 Y31.6010
G01 X82.7939 Y31.7799
G01 X82.6129 Y31.9285
G01 X82.5943 Y31.9400
G01 X82.5708 Y31.9576
G01 X82.5466 Y31.9796
G01 X82.5246 Y32.0038
G01 X82.5052 Y32.0300
G01 X82.4916 Y32.0524
G01 X82.4869 Y32.0610
G01 X82.4770 Y32.0816
G01 X82.4721 Y32.0937
G01 X82.4634 Y32.1184
G01 X82.4555 Y32.1501
G01 X82.4507 Y32.1824
G01 X82.4491 Y32.2150
G01 X82.4507 Y32.2476
G01 X82.4543 Y32.2735
G01 X82.4569 Y32.2863
G01 X82.4634 Y32.3117
G01 X82.4744 Y32.3424
G01 X82.4854 Y32.3661
G01 X82.4899 Y32.3748
G01 X82.5017 Y32.3945
G01 X82.5089 Y32.4053
G01 X82.5246 Y32.4262
G01 X82.5421 Y32.4457
G01 X82.5489 Y32.4527
G01 X82.5683 Y32.4703
G01 X82.5759 Y32.4764
G01 X82.5943 Y32.4900
G01 X82.6129 Y32.5015
G01 X82.7939 Y32.6501
G01 X82.9408 Y32.8290
G01 X83.0499 Y33.0332
G01 X83.1171 Y33.2547
G01 X83.1397 Y33.4850
G01 X83.1171 Y33.7154
G01 X83.0499 Y33.9369
G01 X82.9408 Y34.1410
G01 X82.7939 Y34.3199
G01 X82.6150 Y34.4668
G01 X82.4109 Y34.5759
G01 X82.1894 Y34.6431
G01 X82.0167 Y34.6601
G01 X81.1013 Y34.6601
G01 X80.9287 Y34.6431
G01 X80.7072 Y34.5759
G01 X80.5030 Y34.4668
G01 X80.3241 Y34.3199
G01 X80.1773 Y34.1410
G01 X80.0682 Y33.9369
G01 X80.0010 Y33.7154
G01 X79.9783 Y33.4850
G01 X80.0010 Y33.2547
G01 X80.0682 Y33.0332
G01 X80.1773 Y32.8290
G01 X80.3241 Y32.6501
G01 X80.5051 Y32.5015
G01 X80.5237 Y32.4900
G01 X80.5421 Y32.4764
G01 X80.5497 Y32.4703
G01 X80.5691 Y32.4527
G01 X80.5759 Y32.4457
G01 X80.5934 Y32.4262
G01 X80.6091 Y32.4053
G01 X80.6163 Y32.3945
G01 X80.6281 Y32.3748
G01 X80.6326 Y32.3661
G01 X80.6436 Y32.3424
G01 X80.6546 Y32.3117
G01 X80.6626 Y32.2800
G01 X80.6666 Y32.2541
G01 X80.6678 Y32.2411
G01 X80.6689 Y32.2118
G01 X80.6674 Y32.1824
G01 X80.6637 Y32.1565
G01 X80.6611 Y32.1437
G01 X80.6536 Y32.1153
G01 X80.6436 Y32.0876
G01 X80.6311 Y32.0610
G01 X80.6163 Y32.0355
G01 X80.6091 Y32.0247
G01 X80.5934 Y32.0038
G01 X80.5759 Y31.9843
G01 X80.5691 Y31.9773
G01 X80.5497 Y31.9597
G01 X80.5421 Y31.9536
G01 X80.5237 Y31.9400
G01 X80.5051 Y31.9285
G01 X80.3241 Y31.7799
G01 X80.1773 Y31.6010
G01 X80.0682 Y31.3969
G01 X80.0010 Y31.1754
G01 X79.9783 Y30.9450
G01 X80.0010 Y30.7147
G01 X80.0682 Y30.4932
G01 X80.1773 Y30.2890
G01 X80.3241 Y30.1101
G01 X80.5030 Y29.9633
G01 X80.5308 Y29.9467
G01 X80.5566 Y29.9276
G01 X80.5805 Y29.9061
G01 X80.6023 Y29.8824
G01 X80.6216 Y29.8568
G01 X80.6383 Y29.8293
G01 X80.6524 Y29.8004
G01 X80.6615 Y29.7764
G01 X80.6645 Y29.7673
G01 X80.6703 Y29.7455
G01 X80.6730 Y29.7330
G01 X80.6774 Y29.7044
G01 X80.6789 Y29.6819
G01 X80.6792 Y29.6723
G01 X80.6782 Y29.6434
G01 X80.6746 Y29.6147
G01 X80.6686 Y29.5864
G01 X80.6651 Y29.5740
G01 X80.6569 Y29.5497
G01 X80.6439 Y29.5203
G01 X80.6281 Y29.4923
G01 X80.6135 Y29.4711
G01 X80.6057 Y29.4610
G01 X80.5889 Y29.4415
G01 X80.5705 Y29.4235
G01 X80.5633 Y29.4171
G01 X80.5432 Y29.4011
G01 X80.5353 Y29.3956
G01 X80.5164 Y29.3834
G01 X80.4720 Y29.3575
G01 X80.2994 Y29.2052
G01 X80.1598 Y29.0221
G01 X80.0577 Y28.8135
G01 X80.0517 Y28.7920
G00 Z2.0000
G00 X80.0517 Y28.0181
G01 F60.00
G01 Z-0.2000
G01 F160.00
G01 X80.0577 Y27.9966
G01 X80.1598 Y27.7879
G01 X80.2994 Y27.6048
G01 X80.4720 Y27.4525
G01 X80.6710 Y27.3368
G01 X80.8888 Y27.2621
G01 X81.1273 Y27.2300
G01 X81.1721 Y27.2300
G01 X81.1721 Y27.4722
G01 X81.1525 Y27.4723
G01 X81.0741 Y27.4762
G01 X81.0611 Y27.4775
G01 X80.9770 Y27.4901
G01 X80.8882 Y27.5123
G01 X80.8081 Y27.5408
G01 X80.7961 Y27.5458
G01 X80.7193 Y27.5823
G01 X80.6435 Y27.6276
G01 X80.6354 Y27.6331
G01 X80.5724 Y27.6799
G01 X80.5623 Y27.6882
G01 X80.4994 Y27.7454
G01 X80.4400 Y27.8107
G01 X80.4339 Y27.8184
G01 X80.3871 Y27.8814
G01 X80.3816 Y27.8895
G01 X80.3363 Y27.9653
G01 X80.3112 Y28.0181
G01 X80.0517 Y28.0181
G00 Z2.0000
G00 X82.8069 Y28.0181
G01 F60.00
G01 Z-0.2000
G01 F160.00
G01 X82.7817 Y27.9653
G01 X82.7364 Y27.8895
G01 X82.7309 Y27.8814
G01 X82.6841 Y27.8184
G01 X82.6780 Y27.8107
G01 X82.6186 Y27.7454
G01 X82.5557 Y27.6882
G01 X82.5457 Y27.6799
G01 X82.4826 Y27.6331
G01 X82.4745 Y27.6276
G01 X82.3988 Y27.5823
G01 X82.3220 Y27.5458
G01 X82.3099 Y27.5408
G01 X82.2298 Y27.5123
G01 X82.1410 Y27.4901
G01 X82.0569 Y27.4775
G01 X82.0439 Y27.4762
G01 X81.9655 Y27.4723
G01 X81.9460 Y27.4722
G01 X81.9460 Y27.2300
G01 X81.9907 Y27.2300
G01 X82.2292 Y27.2621
G01 X82.4470 Y27.3368
G01 X82.6460 Y27.4525
G01 X82.8186 Y27.6048
G01 X82.9582 Y27.7879
G01 X83.0603 Y27.9966
G01 X83.0663 Y28.0181
G01 X82.8069 Y28.0181
G00 Z2.0000
G00 X81.9590 Y30.0122
G01 F60.00
G01 Z-0.2000
G01 F160.00
G01 X82.0439 Y30.0162
G01 X82.0569 Y30.0175
G01 X82.1410 Y30.0301
G01 X82.2298 Y30.0523
G01 X82.3160 Y30.0832
G01 X82.3929 Y30.1194
G01 X82.4044 Y30.1255
G01 X82.4773 Y30.1694
G01 X82.5508 Y30.2239
G01 X82.6139 Y30.2809
G01 X82.6231 Y30.2901
G01 X82.6801 Y30.3532
G01 X82.7309 Y30.4214
G01 X82.7381 Y30.4323
G01 X82.7817 Y30.5053
G01 X82.8182 Y30.5821
G01 X82.8232 Y30.5941
G01 X82.8517 Y30.6742
G01 X82.8725 Y30.7567
G01 X82.8751 Y30.7694
G01 X82.8874 Y30.8536
G01 X82.8917 Y30.9385
G01 X82.8917 Y30.9515
G01 X82.8879 Y31.0299
G01 X82.8866 Y31.0429
G01 X82.8739 Y31.1270
G01 X82.8534 Y31.2095
G01 X82.8496 Y31.2220
G01 X82.8209 Y31.3020
G01 X82.7817 Y31.3848
G01 X82.7381 Y31.4578
G01 X82.7309 Y31.4686
G01 X82.6841 Y31.5317
G01 X82.6780 Y31.5393
G01 X82.6186 Y31.6046
G01 X82.5508 Y31.6661
G01 X82.4773 Y31.7206
G01 X82.3988 Y31.7677
G01 X82.3160 Y31.8069
G01 X82.2298 Y31.8377
G01 X82.1410 Y31.8599
G01 X82.0569 Y31.8726
G01 X82.0439 Y31.8739
G01 X81.9590 Y31.8779
G01 X81.1590 Y31.8779
G01 X81.0741 Y31.8739
G01 X81.0611 Y31.8726
G01 X80.9770 Y31.8599
G01 X80.8945 Y31.8394
G01 X80.8820 Y31.8356
G01 X80.8020 Y31.8069
G01 X80.7193 Y31.7677
G01 X80.6463 Y31.7241
G01 X80.6354 Y31.7169
G01 X80.5724 Y31.6701
G01 X80.5647 Y31.6640
G01 X80.4994 Y31.6046
G01 X80.4379 Y31.5368
G01 X80.3834 Y31.4633
G01 X80.3363 Y31.3848
G01 X80.2972 Y31.3020
G01 X80.2663 Y31.2158
G01 X80.2441 Y31.1270
G01 X80.2307 Y31.0364
G01 X80.2262 Y30.9450
G01 X80.2307 Y30.8536
G01 X80.2441 Y30.7630
G01 X80.2663 Y30.6742
G01 X80.2972 Y30.5880
G01 X80.3363 Y30.5053
G01 X80.3834 Y30.4267
G01 X80.4339 Y30.3584
G01 X80.4400 Y30.3507
G01 X80.4994 Y30.2854
G01 X80.5623 Y30.2282
G01 X80.5724 Y30.2199
G01 X80.6354 Y30.1731
G01 X80.6463 Y30.1659
G01 X80.7193 Y30.1223
G01 X80.8020 Y30.0832
G01 X80.8882 Y30.0523
G01 X80.9738 Y30.0308
G01 X80.9834 Y30.0290
G01 X81.0676 Y30.0167
G01 X81.1558 Y30.0122
G01 X81.9590 Y30.0122
G00 Z2.0000
G00 X81.9590 Y32.5522
G01 F60.00
G01 Z-0.2000
G01 F160.00
G01 X82.0439 Y32.5562
G01 X82.0569 Y32.5575
G01 X82.1410 Y32.5701
G01 X82.2298 Y32.5923
G01 X82.3160 Y32.6232
G01 X82.3929 Y32.6594
G01 X82.4044 Y32.6655
G01 X82.4773 Y32.7094
G01 X82.5508 Y32.7639
G01 X82.6139 Y32.8209
G01 X82.6231 Y32.8301
G01 X82.6801 Y32.8932
G01 X82.7309 Y32.9614
G01 X82.7381 Y32.9723
G01 X82.7817 Y33.0453
G01 X82.8182 Y33.1221
G01 X82.8232 Y33.1341
G01 X82.8517 Y33.2142
G01 X82.8725 Y33.2967
G01 X82.8751 Y33.3094
G01 X82.8874 Y33.3936
G01 X82.8917 Y33.4785
G01 X82.8917 Y33.4915
G01 X82.8879 Y33.5699
G01 X82.8866 Y33.5829
G01 X82.8739 Y33.6670
G01 X82.8534 Y33.7495
G01 X82.8496 Y33.7620
G01 X82.8209 Y33.8420
G01 X82.7817 Y33.9248
G01 X82.7381 Y33.9978
G01 X82.7309 Y34.0086
G01 X82.6841 Y34.0717
G01 X82.6780 Y34.0793
G01 X82.6186 Y34.1446
G01 X82.5508 Y34.2061
G01 X82.4773 Y34.2606
G01 X82.3988 Y34.3077
G01 X82.3160 Y34.3469
G01 X82.2298 Y34.3777
G01 X82.1410 Y34.3999
G01 X82.0569 Y34.4126
G01 X82.0439 Y34.4139
G01 X81.9590 Y34.4179
G01 X81.1590 Y34.4179
G01 X81.0741 Y34.4139
G01 X81.0611 Y34.4126
G01 X80.9770 Y34.3999
G01 X80.8945 Y34.3794
G01 X80.8820 Y34.3756
G01 X80.8020 Y34.3469
G01 X80.7193 Y34.3077
G01 X80.6463 Y34.2641
G01 X80.6354 Y34.2569
G01 X80.5724 Y34.2101
G01 X80.5647 Y34.2040
G01 X80.4994 Y34.1446
G01 X80.4379 Y34.0768
G01 X80.3834 Y34.0033
G01 X80.3363 Y33.9248
G01 X80.2972 Y33.8420
G01 X80.2663 Y33.7558
G01 X80.2441 Y33.6670
G01 X80.2307 Y33.5764
G01 X80.2262 Y33.4850
G01 X80.2307 Y33.3936
G01 X80.2441 Y33.3030
G01 X80.2663 Y33.2142
G01 X80.2972 Y33.1280
G01 X80.3363 Y33.0453
G01 X80.3834 Y32.9667
G01 X80.4339 Y32.8984
G01 X80.4400 Y32.8907
G01 X80.4994 Y32.8254
G01 X80.5623 Y32.7682
G01 X80.5724 Y32.7599
G01 X80.6354 Y32.7131
G01 X80.6463 Y32.7059
G01 X80.7193 Y32.6623
G01 X80.8020 Y32.6232
G01 X80.8882 Y32.5923
G01 X80.9738 Y32.5708
G01 X80.9834 Y32.5690
G01 X81.0676 Y32.5567
G01 X81.1558 Y32.5522
G01 X81.9590 Y32.5522
G00 Z2.0000
G00 X87.9025 Y31.7123
G01 F60.00
G01 Z-0.2000
G01 F160.00
G01 X87.9155 Y31.7123
G01 X88.0397 Y31.7186
G01 X88.1690 Y31.7378
G01 X88.2959 Y31.7696
G01 X88.4191 Y31.8136
G01 X88.5373 Y31.8695
G01 X88.6495 Y31.9368
G01 X88.7546 Y32.0147
G01 X88.8515 Y32.1025
G01 X88.9393 Y32.1995
G01 X89.0172 Y32.3045
G01 X89.0845 Y32.4167
G01 X89.1404 Y32.5350
G01 X89.1845 Y32.6581
G01 X89.2163 Y32.7850
G01 X89.2354 Y32.9144
G01 X89.2419 Y33.0450
G01 X89.2354 Y33.1757
G01 X89.2163 Y33.3050
G01 X89.1845 Y33.4319
G01 X89.1404 Y33.5551
G01 X89.0845 Y33.6733
G01 X89.0172 Y33.7855
G01 X88.9393 Y33.8906
G01 X88.8515 Y33.9875
G01 X88.7546 Y34.0753
G01 X88.6495 Y34.1532
G01 X88.5373 Y34.2205
G01 X88.4191 Y34.2764
G01 X88.2959 Y34.3205
G01 X88.1690 Y34.3523
G01 X88.0397 Y34.3714
G01 X87.9090 Y34.3779
G01 X87.7784 Y34.3714
G01 X87.6490 Y34.3523
G01 X87.5221 Y34.3205
G01 X87.3990 Y34.2764
G01 X87.2807 Y34.2205
G01 X87.1685 Y34.1532
G01 X87.0635 Y34.0753
G01 X86.9665 Y33.9875
G01 X86.8787 Y33.8906
G01 X86.8008 Y33.7855
G01 X86.7335 Y33.6733
G01 X86.6776 Y33.5551
G01 X86.6336 Y33.4319
G01 X86.6018 Y33.3050
G01 X86.5826 Y33.1757
G01 X86.5762 Y33.0450
G01 X86.5826 Y32.9144
G01 X86.6018 Y32.7850
G01 X86.6336 Y32.6581
G01 X86.6776 Y32.5350
G01 X86.7335 Y32.4167
G01 X86.8008 Y32.3045
G01 X86.8787 Y32.1995
G01 X86.9665 Y32.1025
G01 X87.0635 Y32.0147
G01 X87.1685 Y31.9368
G01 X87.2807 Y31.8695
G01 X87.3990 Y31.8136
G01 X87.5221 Y31.7696
G01 X87.6490 Y31.7378
G01 X87.7784 Y31.7186
G01 X87.9025 Y31.7123
G00 Z2.0000
G00 X89.4841 Y33.2001
G01 F60.00
G01 Z-0.2000
G01 F160.00
G01 X89.4235 Y33.5044
G01 X89.3048 Y33.7911
G01 X89.1324 Y34.0490
G01 X88.9130 Y34.2684
G01 X88.6551 Y34.4408
G01 X88.3684 Y34.5595
G01 X88.0641 Y34.6201
G01 X87.7539 Y34.6201
G01 X87.4496 Y34.5595
G01 X87.1629 Y34.4408
G01 X86.9050 Y34.2684
G01 X86.6856 Y34.0490
G01 X86.5132 Y33.7911
G01 X86.3945 Y33.5044
G01 X86.3340 Y33.2001
G01 X86.3340 Y32.8899
G01 X86.3945 Y32.5856
G01 X86.5132 Y32.2989
G01 X86.6856 Y32.0410
G01 X86.9050 Y31.8216
G01 X87.1629 Y31.6492
G01 X87.4496 Y31.5305
G01 X87.7539 Y31.4700
G01 X88.0641 Y31.4700
G01 X88.3684 Y31.5305
G01 X88.6551 Y31.6492
G01 X88.9130 Y31.8216
G01 X89.1324 Y32.0410
G01 X89.3048 Y32.2989
G01 X89.4235 Y32.5856
G01 X89.4841 Y32.8899
G01 X89.4841 Y33.2001
G00 Z2.0000
G00 X95.5225 Y31.7123
G01 F60.00
G01 Z-0.2000
G01 F160.00
G01 X95.5355 Y31.7123
G01 X95.6597 Y31.7186
G01 X95.7890 Y31.7378
G01 X95.9159 Y31.7696
G01 X96.0391 Y31.8136
G01 X96.1573 Y31.8695
G01 X96.2695 Y31.9368
G01 X96.3746 Y32.0147
G01 X96.4715 Y32.1025
G01 X96.5593 Y32.1995
G01 X96.6372 Y32.3045
G01 X96.7045 Y32.4167
G01 X96.7604 Y32.5350
G01 X96.8045 Y32.6581
G01 X96.8363 Y32.7850
G01 X96.8554 Y32.9144
G01 X96.8619 Y33.0450
G01 X96.8554 Y33.1757
G01 X96.8363 Y33.3050
G01 X96.8045 Y33.4319
G01 X96.7604 Y33.5551
G01 X96.7045 Y33.6733
G01 X96.6372 Y33.7855
G01 X96.5593 Y33.8906
G01 X96.4715 Y33.9875
G01 X96.3746 Y34.0753
G01 X96.2695 Y34.1532
G01 X96.1573 Y34.2205
G01 X96.0391 Y34.2764
G01 X95.9159 Y34.3205
G01 X95.7890 Y34.3523
G01 X95.6597 Y34.3714
G01 X95.5290 Y34.3779
G01 X95.3984 Y34.3714
G01 X95.2690 Y34.3523
G01 X95.1421 Y34.3205
G01 X95.0190 Y34.2764
G01 X94.9007 Y34.2205
G01 X94.7885 Y34.1532
G01 X94.6835 Y34.0753
G01 X94.5865 Y33.9875
G01 X94.4987 Y33.8906
G01 X94.4208 Y33.7855
G01 X94.3535 Y33.6733
G01 X94.2976 Y33.5551
G01 X94.2536 Y33.4319
G01 X94.2218 Y33.3050
G01 X94.2026 Y33.1757
G01 X94.1962 Y33.0450
G01 X94.2026 Y32.9144
G01 X94.2218 Y32.7850
G01 X94.2536 Y32.6581
G01 X94.2976 Y32.5350
G01 X94.3535 Y32.4167
G01 X94.4208 Y32.3045
G01 X94.4987 Y32.1995
G01 X94.5865 Y32.1025
G01 X94.6835 Y32.0147
G01 X94.7885 Y31.9368
G01 X94.9007 Y31.8695
G01 X95.0190 Y31.8136
G01 X95.1421 Y31.7696
G01 X95.2690 Y31.7378
G01 X95.3984 Y31.7186
G01 X95.5225 Y31.7123
G00 Z2.0000
G00 X97.1041 Y33.2001
G01 F60.00
G01 Z-0.2000
G01 F160.00
G01 X97.0435 Y33.5044
G01 X96.9248 Y33.7911
G01 X96.7524 Y34.0490
G01 X96.5330 Y34.2684
G01 X96.2751 Y34.4408
G01 X95.9884 Y34.5595
G01 X95.6841 Y34.6201
G01 X95.3739 Y34.6201
G01 X95.0696 Y34.5595
G01 X94.7829 Y34.4408
G01 X94.5250 Y34.2684
G01 X94.3056 Y34.0490
G01 X94.1332 Y33.7911
G01 X94.0145 Y33.5044
G01 X93.9540 Y33.2001
G01 X93.9540 Y32.8899
G01 X94.0145 Y32.5856
G01 X94.1332 Y32.2989
G01 X94.3056 Y32.0410
G01 X94.5250 Y31.8216
G01 X94.7829 Y31.6492
G01 X95.0696 Y31.5305
G01 X95.3739 Y31.4700
G01 X95.6841 Y31.4700
G01 X95.9884 Y31.5305
G01 X96.2751 Y31.6492
G01 X96.5330 Y31.8216
G01 X96.7524 Y32.0410
G01 X96.9248 Y32.2989
G01 X97.0435 Y32.5856
G01 X97.1041 Y32.8899
G01 X97.1041 Y33.2001
G00 Z2.0000
G00 X111.9150 Y32.1982
G01 F60.00
G01 Z-0.2000
G01 F160.00
G01 X111.8722 Y32.2696
G01 X111.8675 Y32.2782
G01 X111.8017 Y32.4172
G01 X111.7981 Y32.4262
G01 X111.7475 Y32.5679
G01 X111.7447 Y32.5773
G01 X111.7075 Y32.7265
G01 X111.6840 Y32.8850
G01 X111.6762 Y33.0450
G01 X111.6835 Y33.1986
G01 X111.6848 Y33.2115
G01 X111.7064 Y33.3571
G01 X111.7082 Y33.3668
G01 X111.7465 Y33.5190
G01 X111.7992 Y33.6668
G01 X111.8031 Y33.6758
G01 X111.8675 Y33.8118
G01 X111.8722 Y33.8204
G01 X111.9150 Y33.8918
G01 X111.7504 Y34.0564
G01 X111.7126 Y34.0405
G01 X111.5577 Y33.7400
G01 X111.4558 Y33.3850
G01 X111.4251 Y33.0169
G01 X111.4668 Y32.6499
G01 X111.5793 Y32.2981
G01 X111.7182 Y32.0472
G01 X111.7504 Y32.0337
G01 X111.9150 Y32.1982
G00 Z2.0000
G00 X112.4622 Y31.6510
G01 F60.00
G01 Z-0.2000
G01 F160.00
G01 X112.2977 Y31.4864
G01 X112.3135 Y31.4486
G01 X112.6141 Y31.2937
G01 X112.9691 Y31.1918
G01 X113.3371 Y31.1611
G01 X113.7041 Y31.2028
G01 X114.0559 Y31.3153
G01 X114.3068 Y31.4542
G01 X114.3204 Y31.4864
G01 X114.1558 Y31.6510
G01 X114.0844 Y31.6082
G01 X114.0758 Y31.6035
G01 X113.9398 Y31.5391
G01 X113.9308 Y31.5352
G01 X113.7830 Y31.4825
G01 X113.6308 Y31.4442
G01 X113.6211 Y31.4424
G01 X113.4755 Y31.4208
G01 X113.4626 Y31.4195
G01 X113.3090 Y31.4122
G01 X113.1490 Y31.4200
G01 X112.9905 Y31.4435
G01 X112.8413 Y31.4807
G01 X112.8319 Y31.4835
G01 X112.6902 Y31.5341
G01 X112.6812 Y31.5377
G01 X112.5422 Y31.6035
G01 X112.5336 Y31.6082
G01 X112.4622 Y31.6510
G00 Z2.0000
G00 X112.4622 Y34.4390
G01 F60.00
G01 Z-0.2000
G01 F160.00
G01 X112.5336 Y34.4818
G01 X112.5422 Y34.4866
G01 X112.6812 Y34.5523
G01 X112.6902 Y34.5559
G01 X112.8319 Y34.6066
G01 X112.8413 Y34.6093
G01 X112.9905 Y34.6465
G01 X113.1490 Y34.6700
G01 X113.3090 Y34.6779
G01 X113.4626 Y34.6705
G01 X113.4755 Y34.6692
G01 X113.6211 Y34.6476
G01 X113.6308 Y34.6458
G01 X113.7830 Y34.6076
G01 X113.9308 Y34.5548
G01 X113.9398 Y34.5509
G01 X114.0758 Y34.4866
G01 X114.0844 Y34.4818
G01 X114.1558 Y34.4390
G01 X114.3204 Y34.6036
G01 X114.3045 Y34.6414
G01 X114.0040 Y34.7963
G01 X113.6490 Y34.8982
G01 X113.2809 Y34.9289
G01 X112.9139 Y34.8872
G01 X112.5621 Y34.7748
G01 X112.3112 Y34.6358
G01 X112.2977 Y34.6036
G01 X112.4622 Y34.4390
G00 Z2.0000
G00 X114.7030 Y33.8918
G01 F60.00
G01 Z-0.2000
G01 F160.00
G01 X114.7458 Y33.8204
G01 X114.7506 Y33.8118
G01 X114.8163 Y33.6729
G01 X114.8199 Y33.6638
G01 X114.8706 Y33.5221
G01 X114.8733 Y33.5127
G01 X114.9105 Y33.3636
G01 X114.9340 Y33.2051
G01 X114.9419 Y33.0450
G01 X114.9345 Y32.8915
G01 X114.9332 Y32.8785
G01 X114.9116 Y32.7329
G01 X114.9098 Y32.7233
G01 X114.8716 Y32.5710
G01 X114.8188 Y32.4232
G01 X114.8149 Y32.4142
G01 X114.7506 Y32.2782
G01 X114.7458 Y32.2696
G01 X114.7030 Y32.1982
G01 X114.8676 Y32.0337
G01 X114.9054 Y32.0495
G01 X115.0603 Y32.3501
G01 X115.1622 Y32.7051
G01 X115.1929 Y33.0731
G01 X115.1512 Y33.4401
G01 X115.0388 Y33.7919
G01 X114.8998 Y34.0428
G01 X114.8676 Y34.0564
G01 X114.7030 Y33.8918
G00 Z2.0000
G00 X111.4340 Y28.1497
G01 F60.00
G01 Z-0.2000
G01 F160.00
G01 X111.4340 Y27.7803
G01 X111.5060 Y27.4181
G01 X111.6474 Y27.0768
G01 X111.8526 Y26.7697
G01 X112.1137 Y26.5086
G01 X112.4208 Y26.3034
G01 X112.7621 Y26.1620
G01 X113.1243 Y26.0900
G01 X113.4937 Y26.0900
G01 X113.8559 Y26.1620
G01 X114.1972 Y26.3034
G01 X114.5043 Y26.5086
G01 X114.7655 Y26.7697
G01 X114.9707 Y27.0768
G01 X115.1120 Y27.4181
G01 X115.1841 Y27.7803
G01 X115.1841 Y28.1497
G01 X115.1120 Y28.5119
G01 X114.9707 Y28.8532
G01 X114.7655 Y29.1603
G01 X114.5043 Y29.4215
G01 X114.1972 Y29.6267
G01 X113.8559 Y29.7680
G01 X113.4937 Y29.8401
G01 X113.1243 Y29.8401
G01 X112.7621 Y29.7680
G01 X112.4208 Y29.6267
G01 X112.1137 Y29.4215
G01 X111.8526 Y29.1603
G01 X111.6474 Y28.8532
G01 X111.5060 Y28.5119
G01 X111.4340 Y28.1497
G00 Z2.0000
G00 X111.6763 Y27.9715
G01 F60.00
G01 Z-0.2000
G01 F160.00
G01 X111.6763 Y27.9585
G01 X111.6840 Y27.8050
G01 X111.7075 Y27.6465
G01 X111.7465 Y27.4910
G01 X111.8005 Y27.3401
G01 X111.8690 Y27.1953
G01 X111.9513 Y27.0578
G01 X112.0468 Y26.9291
G01 X112.1544 Y26.8104
G01 X112.2731 Y26.7028
G01 X112.4018 Y26.6073
G01 X112.5393 Y26.5250
G01 X112.6841 Y26.4565
G01 X112.8350 Y26.4025
G01 X112.9905 Y26.3635
G01 X113.1490 Y26.3400
G01 X113.3090 Y26.3322
G01 X113.4691 Y26.3400
G01 X113.6276 Y26.3635
G01 X113.7830 Y26.4025
G01 X113.9339 Y26.4565
G01 X114.0787 Y26.5250
G01 X114.2162 Y26.6073
G01 X114.3449 Y26.7028
G01 X114.4636 Y26.8104
G01 X114.5712 Y26.9291
G01 X114.6667 Y27.0578
G01 X114.7491 Y27.1953
G01 X114.8176 Y27.3401
G01 X114.8716 Y27.4910
G01 X114.9105 Y27.6465
G01 X114.9340 Y27.8050
G01 X114.9419 Y27.9650
G01 X114.9340 Y28.1251
G01 X114.9105 Y28.2836
G01 X114.8716 Y28.4390
G01 X114.8176 Y28.5899
G01 X114.7491 Y28.7347
G01 X114.6667 Y28.8722
G01 X114.5712 Y29.0009
G01 X114.4636 Y29.1196
G01 X114.3449 Y29.2272
G01 X114.2162 Y29.3227
G01 X114.0787 Y29.4051
G01 X113.9339 Y29.4736
G01 X113.7830 Y29.5276
G01 X113.6276 Y29.5665
G01 X113.4691 Y29.5900
G01 X113.3090 Y29.5979
G01 X113.1490 Y29.5900
G01 X112.9905 Y29.5665
G01 X112.8350 Y29.5276
G01 X112.6841 Y29.4736
G01 X112.5393 Y29.4051
G01 X112.4018 Y29.3227
G01 X112.2731 Y29.2272
G01 X112.1544 Y29.1196
G01 X112.0468 Y29.0009
G01 X111.9513 Y28.8722
G01 X111.8690 Y28.7347
G01 X111.8005 Y28.5899
G01 X111.7465 Y28.4390
G01 X111.7075 Y28.2836
G01 X111.6840 Y28.1251
G01 X111.6763 Y27.9715
G00 Z2.0000
G00 X111.4305 Y24.3687
G01 F60.00
G01 Z-0.2000
G01 F160.00
G01 X111.4305 Y21.4014
G01 X111.4394 Y21.3115
G01 X111.4608 Y21.2408
G01 X111.4957 Y21.1756
G01 X111.5425 Y21.1185
G01 X111.5996 Y21.0717
G01 X111.6648 Y21.0368
G01 X111.7355 Y21.0154
G01 X111.8254 Y21.0065
G01 X114.7927 Y21.0065
G01 X114.8825 Y21.0154
G01 X114.9532 Y21.0368
G01 X115.0184 Y21.0717
G01 X115.0755 Y21.1185
G01 X115.1224 Y21.1756
G01 X115.1572 Y21.2408
G01 X115.1786 Y21.3115
G01 X115.1875 Y21.4014
G01 X115.1875 Y24.3687
G01 X115.1786 Y24.4585
G01 X115.1572 Y24.5292
G01 X115.1224 Y24.5944
G01 X115.0755 Y24.6515
G01 X115.0184 Y24.6984
G01 X114.9532 Y24.7332
G01 X114.8825 Y24.7546
G01 X114.7927 Y24.7635
G01 X111.8254 Y24.7635
G01 X111.7355 Y24.7546
G01 X111.6648 Y24.7332
G01 X111.5996 Y24.6984
G01 X111.5425 Y24.6515
G01 X111.4957 Y24.5944
G01 X111.4608 Y24.5292
G01 X111.4394 Y24.4585
G01 X111.4305 Y24.3687
G00 Z2.0000
G00 X114.8090 Y21.2522
G01 F60.00
G01 Z-0.2000
G01 F160.00
G01 X114.8220 Y21.2528
G01 X114.8349 Y21.2547
G01 X114.8476 Y21.2579
G01 X114.8599 Y21.2623
G01 X114.8716 Y21.2678
G01 X114.8828 Y21.2746
G01 X114.8933 Y21.2823
G01 X114.9030 Y21.2911
G01 X114.9117 Y21.3007
G01 X114.9195 Y21.3112
G01 X114.9262 Y21.3224
G01 X114.9305 Y21.3312
G01 X114.9352 Y21.3433
G01 X114.9386 Y21.3559
G01 X114.9409 Y21.3688
G01 X114.9418 Y21.3818
G01 X114.9419 Y24.3850
G01 X114.9412 Y24.3980
G01 X114.9393 Y24.4109
G01 X114.9361 Y24.4236
G01 X114.9317 Y24.4359
G01 X114.9277 Y24.4447
G01 X114.9213 Y24.4561
G01 X114.9137 Y24.4667
G01 X114.9052 Y24.4766
G01 X114.8958 Y24.4856
G01 X114.8855 Y24.4936
G01 X114.8745 Y24.5006
G01 X114.8599 Y24.5077
G01 X114.8476 Y24.5121
G01 X114.8349 Y24.5153
G01 X114.8220 Y24.5172
G01 X114.8090 Y24.5179
G01 X111.8090 Y24.5179
G01 X111.7992 Y24.5175
G01 X111.7863 Y24.5159
G01 X111.7736 Y24.5130
G01 X111.7612 Y24.5090
G01 X111.7493 Y24.5037
G01 X111.7379 Y24.4973
G01 X111.7273 Y24.4897
G01 X111.7174 Y24.4812
G01 X111.7084 Y24.4718
G01 X111.7004 Y24.4615
G01 X111.6934 Y24.4505
G01 X111.6863 Y24.4359
G01 X111.6819 Y24.4236
G01 X111.6787 Y24.4109
G01 X111.6768 Y24.3980
G01 X111.6762 Y24.3850
G01 X111.6762 Y21.3850
G01 X111.6765 Y21.3752
G01 X111.6781 Y21.3623
G01 X111.6810 Y21.3496
G01 X111.6851 Y21.3372
G01 X111.6903 Y21.3253
G01 X111.6968 Y21.3139
G01 X111.7043 Y21.3033
G01 X111.7128 Y21.2934
G01 X111.7222 Y21.2844
G01 X111.7325 Y21.2764
G01 X111.7435 Y21.2694
G01 X111.7552 Y21.2636
G01 X111.7673 Y21.2589
G01 X111.7799 Y21.2554
G01 X111.7928 Y21.2532
G01 X111.8058 Y21.2522
G01 X114.8090 Y21.2522
G00 Z2.0000
G00 X117.0418 Y4.7711
G01 F60.00
G01 Z-0.2000
G01 F160.00
G01 X116.9979 Y4.6651
G01 X116.9220 Y4.2835
G01 X116.9220 Y3.8945
G01 X116.9979 Y3.5129
G01 X117.1467 Y3.1535
G01 X117.3629 Y2.8300
G01 X117.6380 Y2.5549
G01 X117.9615 Y2.3387
G01 X118.3209 Y2.1899
G01 X118.7025 Y2.1140
G01 X119.0915 Y2.1140
G01 X119.4731 Y2.1899
G01 X119.8325 Y2.3387
G01 X120.1560 Y2.5549
G01 X120.4311 Y2.8300
G01 X120.6473 Y3.1535
G01 X120.7962 Y3.5129
G01 X120.8721 Y3.8945
G01 X120.8721 Y4.2835
G01 X120.7962 Y4.6651
G01 X120.6473 Y5.0245
G01 X120.4311 Y5.3480
G01 X120.1560 Y5.6231
G01 X119.8325 Y5.8393
G01 X119.4731 Y5.9882
G01 X119.0915 Y6.0641
G01 X118.7025 Y6.0641
G01 X118.3209 Y5.9882
G01 X117.9615 Y5.8393
G01 X117.6380 Y5.6231
G01 X117.3629 Y5.3480
G01 X117.1467 Y5.0245
G01 X117.0418 Y4.7711
G00 Z2.0000
G00 X94.1963 Y12.7315
G01 F60.00
G01 Z-0.2000
G01 F160.00
G01 X94.1963 Y12.7185
G01 X94.2026 Y12.5944
G01 X94.2218 Y12.4650
G01 X94.2536 Y12.3381
G01 X94.2976 Y12.2150
G01 X94.3535 Y12.0967
G01 X94.4208 Y11.9845
G01 X94.4987 Y11.8795
G01 X94.5865 Y11.7825
G01 X94.6835 Y11.6947
G01 X94.7885 Y11.6168
G01 X94.9007 Y11.5495
G01 X95.0190 Y11.4936
G01 X95.1421 Y11.4496
G01 X95.2690 Y11.4178
G01 X95.3984 Y11.3986
G01 X95.5290 Y11.3922
G01 X95.6597 Y11.3986
G01 X95.7890 Y11.4178
G01 X95.9159 Y11.4496
G01 X96.0391 Y11.4936
G01 X96.1573 Y11.5495
G01 X96.2695 Y11.6168
G01 X96.3746 Y11.6947
G01 X96.4715 Y11.7825
G01 X96.5593 Y11.8795
G01 X96.6372 Y11.9845
G01 X96.7045 Y12.0967
G01 X96.7604 Y12.2150
G01 X96.8045 Y12.3381
G01 X96.8363 Y12.4650
G01 X96.8554 Y12.5944
G01 X96.8619 Y12.7250
G01 X96.8554 Y12.8557
G01 X96.8363 Y12.9850
G01 X96.8045 Y13.1119
G01 X96.7604 Y13.2351
G01 X96.7045 Y13.3533
G01 X96.6372 Y13.4655
G01 X96.5593 Y13.5706
G01 X96.4715 Y13.6675
G01 X96.3746 Y13.7553
G01 X96.2695 Y13.8332
G01 X96.1573 Y13.9005
G01 X96.0391 Y13.9564
G01 X95.9159 Y14.0005
G01 X95.7890 Y14.0323
G01 X95.6597 Y14.0514
G01 X95.5290 Y14.0579
G01 X95.3984 Y14.0514
G01 X95.2690 Y14.0323
G01 X95.1421 Y14.0005
G01 X95.0190 Y13.9564
G01 X94.9007 Y13.9005
G01 X94.7885 Y13.8332
G01 X94.6835 Y13.7553
G01 X94.5865 Y13.6675
G01 X94.4987 Y13.5706
G01 X94.4208 Y13.4655
G01 X94.3535 Y13.3533
G01 X94.2976 Y13.2351
G01 X94.2536 Y13.1119
G01 X94.2218 Y12.9850
G01 X94.2026 Y12.8557
G01 X94.1963 Y12.7315
G00 Z2.0000
G00 X93.9540 Y12.8801
G01 F60.00
G01 Z-0.2000
G01 F160.00
G01 X93.9540 Y12.5699
G01 X94.0145 Y12.2656
G01 X94.1332 Y11.9789
G01 X94.3056 Y11.7210
G01 X94.5250 Y11.5016
G01 X94.7829 Y11.3292
G01 X95.0696 Y11.2105
G01 X95.3739 Y11.1500
G01 X95.6841 Y11.1500
G01 X95.9884 Y11.2105
G01 X96.2751 Y11.3292
G01 X96.5330 Y11.5016
G01 X96.7524 Y11.7210
G01 X96.9248 Y11.9789
G01 X97.0435 Y12.2656
G01 X97.1041 Y12.5699
G01 X97.1041 Y12.8801
G01 X97.0435 Y13.1844
G01 X96.9248 Y13.4711
G01 X96.7524 Y13.7290
G01 X96.5330 Y13.9484
G01 X96.2751 Y14.1208
G01 X95.9884 Y14.2395
G01 X95.6841 Y14.3001
G01 X95.3739 Y14.3001
G01 X95.0696 Y14.2395
G01 X94.7829 Y14.1208
G01 X94.5250 Y13.9484
G01 X94.3056 Y13.7290
G01 X94.1332 Y13.4711
G01 X94.0145 Y13.1844
G01 X93.9540 Y12.8801
G00 Z2.0000
G00 X86.5763 Y12.7315
G01 F60.00
G01 Z-0.2000
G01 F160.00
G01 X86.5763 Y12.7185
G01 X86.5826 Y12.5944
G01 X86.6018 Y12.4650
G01 X86.6336 Y12.3381
G01 X86.6776 Y12.2150
G01 X86.7335 Y12.0967
G01 X86.8008 Y11.9845
G01 X86.8787 Y11.8795
G01 X86.9665 Y11.7825
G01 X87.0635 Y11.6947
G01 X87.1685 Y11.6168
G01 X87.2807 Y11.5495
G01 X87.3990 Y11.4936
G01 X87.5221 Y11.4496
G01 X87.6490 Y11.4178
G01 X87.7784 Y11.3986
G01 X87.9090 Y11.3922
G01 X88.0397 Y11.3986
G01 X88.1690 Y11.4178
G01 X88.2959 Y11.4496
G01 X88.4191 Y11.4936
G01 X88.5373 Y11.5495
G01 X88.6495 Y11.6168
G01 X88.7546 Y11.6947
G01 X88.8515 Y11.7825
G01 X88.9393 Y11.8795
G01 X89.0172 Y11.9845
G01 X89.0845 Y12.0967
G01 X89.1404 Y12.2150
G01 X89.1845 Y12.3381
G01 X89.2163 Y12.4650
G01 X89.2354 Y12.5944
G01 X89.2419 Y12.7250
G01 X89.2354 Y12.8557
G01 X89.2163 Y12.9850
G01 X89.1845 Y13.1119
G01 X89.1404 Y13.2351
G01 X89.0845 Y13.3533
G01 X89.0172 Y13.4655
G01 X88.9393 Y13.5706
G01 X88.8515 Y13.6675
G01 X88.7546 Y13.7553
G01 X88.6495 Y13.8332
G01 X88.5373 Y13.9005
G01 X88.4191 Y13.9564
G01 X88.2959 Y14.0005
G01 X88.1690 Y14.0323
G01 X88.0397 Y14.0514
G01 X87.9090 Y14.0579
G01 X87.7784 Y14.0514
G01 X87.6490 Y14.0323
G01 X87.5221 Y14.0005
G01 X87.3990 Y13.9564
G01 X87.2807 Y13.9005
G01 X87.1685 Y13.8332
G01 X87.0635 Y13.7553
G01 X86.9665 Y13.6675
G01 X86.8787 Y13.5706
G01 X86.8008 Y13.4655
G01 X86.7335 Y13.3533
G01 X86.6776 Y13.2351
G01 X86.6336 Y13.1119
G01 X86.6018 Y12.9850
G01 X86.5826 Y12.8557
G01 X86.5763 Y12.7315
G00 Z2.0000
G00 X86.3340 Y12.8801
G01 F60.00
G01 Z-0.2000
G01 F160.00
G01 X86.3340 Y12.5699
G01 X86.3945 Y12.2656
G01 X86.5132 Y11.9789
G01 X86.6856 Y11.7210
G01 X86.9050 Y11.5016
G01 X87.1629 Y11.3292
G01 X87.4496 Y11.2105
G01 X87.7539 Y11.1500
G01 X88.0641 Y11.1500
G01 X88.3684 Y11.2105
G01 X88.6551 Y11.3292
G01 X88.9130 Y11.5016
G01 X89.1324 Y11.7210
G01 X89.3048 Y11.9789
G01 X89.4235 Y12.2656
G01 X89.4841 Y12.5699
G01 X89.4841 Y12.8801
G01 X89.4235 Y13.1844
G01 X89.3048 Y13.4711
G01 X89.1324 Y13.7290
G01 X88.9130 Y13.9484
G01 X88.6551 Y14.1208
G01 X88.3684 Y14.2395
G01 X88.0641 Y14.3001
G01 X87.7539 Y14.3001
G01 X87.4496 Y14.2395
G01 X87.1629 Y14.1208
G01 X86.9050 Y13.9484
G01 X86.6856 Y13.7290
G01 X86.5132 Y13.4711
G01 X86.3945 Y13.1844
G01 X86.3340 Y12.8801
G00 Z2.0000
G00 X81.5525 Y10.9923
G01 F60.00
G01 Z-0.2000
G01 F160.00
G01 X81.5655 Y10.9923
G01 X81.6602 Y10.9971
G01 X81.7605 Y11.0120
G01 X81.8588 Y11.0366
G01 X81.9543 Y11.0708
G01 X82.0459 Y11.1141
G01 X82.1328 Y11.1662
G01 X82.2142 Y11.2266
G01 X82.2893 Y11.2947
G01 X82.3574 Y11.3698
G01 X82.4178 Y11.4512
G01 X82.4699 Y11.5381
G01 X82.5132 Y11.6298
G01 X82.5474 Y11.7252
G01 X82.5720 Y11.8235
G01 X82.5869 Y11.9238
G01 X82.5919 Y12.0250
G01 X82.5919 Y12.6250
G01 X82.5874 Y12.7197
G01 X82.5861 Y12.7327
G01 X82.5731 Y12.8201
G01 X82.5706 Y12.8329
G01 X82.5474 Y12.9248
G01 X82.5156 Y13.0142
G01 X82.5106 Y13.0262
G01 X82.4699 Y13.1119
G01 X82.4196 Y13.1961
G01 X82.4140 Y13.2042
G01 X82.3574 Y13.2802
G01 X82.2938 Y13.3506
G01 X82.2846 Y13.3598
G01 X82.2142 Y13.4234
G01 X82.1382 Y13.4800
G01 X82.1273 Y13.4873
G01 X82.0459 Y13.5359
G01 X81.9602 Y13.5766
G01 X81.9482 Y13.5816
G01 X81.8588 Y13.6134
G01 X81.7669 Y13.6366
G01 X81.7541 Y13.6391
G01 X81.6602 Y13.6529
G01 X81.5590 Y13.6579
G01 X81.4578 Y13.6529
G01 X81.3575 Y13.6380
G01 X81.2592 Y13.6134
G01 X81.1638 Y13.5792
G01 X81.0721 Y13.5359
G01 X80.9852 Y13.4838
G01 X80.9038 Y13.4234
G01 X80.8287 Y13.3553
G01 X80.7606 Y13.2802
G01 X80.7002 Y13.1988
G01 X80.6481 Y13.1119
G01 X80.6048 Y13.0203
G01 X80.5706 Y12.9248
G01 X80.5460 Y12.8265
G01 X80.5311 Y12.7262
G01 X80.5262 Y12.6250
G01 X80.5262 Y12.0250
G01 X80.5307 Y11.9303
G01 X80.5319 Y11.9173
G01 X80.5449 Y11.8299
G01 X80.5474 Y11.8172
G01 X80.5706 Y11.7252
G01 X80.6024 Y11.6358
G01 X80.6074 Y11.6238
G01 X80.6481 Y11.5381
G01 X80.6985 Y11.4539
G01 X80.7040 Y11.4459
G01 X80.7606 Y11.3698
G01 X80.8242 Y11.2994
G01 X80.8334 Y11.2902
G01 X80.9038 Y11.2266
G01 X80.9799 Y11.1700
G01 X80.9907 Y11.1627
G01 X81.0721 Y11.1141
G01 X81.1638 Y11.0708
G01 X81.2530 Y11.0387
G01 X81.2655 Y11.0349
G01 X81.3575 Y11.0120
G01 X81.4513 Y10.9979
G01 X81.4643 Y10.9967
G01 X81.5525 Y10.9923
G00 Z2.0000
G00 X80.2840 Y12.6876
G01 F60.00
G01 Z-0.2000
G01 F160.00
G01 X80.2840 Y11.9624
G01 X80.3024 Y11.7751
G01 X80.3753 Y11.5347
G01 X80.4937 Y11.3132
G01 X80.6531 Y11.1191
G01 X80.8472 Y10.9597
G01 X81.0687 Y10.8413
G01 X81.3091 Y10.7684
G01 X81.5590 Y10.7438
G01 X81.8090 Y10.7684
G01 X82.0493 Y10.8413
G01 X82.2708 Y10.9597
G01 X82.4650 Y11.1191
G01 X82.6243 Y11.3132
G01 X82.7427 Y11.5347
G01 X82.8156 Y11.7751
G01 X82.8341 Y11.9624
G01 X82.8341 Y12.6876
G01 X82.8156 Y12.8750
G01 X82.7427 Y13.1153
G01 X82.6243 Y13.3368
G01 X82.4650 Y13.5310
G01 X82.2708 Y13.6903
G01 X82.0493 Y13.8087
G01 X81.8090 Y13.8816
G01 X81.5590 Y13.9062
G01 X81.3091 Y13.8816
G01 X81.0687 Y13.8087
G01 X80.8472 Y13.6903
G01 X80.6531 Y13.5310
G01 X80.4937 Y13.3368
G01 X80.3753 Y13.1153
G01 X80.3024 Y12.8750
G01 X80.2840 Y12.6876
G00 Z2.0000
G00 X77.7541 Y12.6876
G01 F60.00
G01 Z-0.2000
G01 F160.00
G01 X77.7356 Y12.8750
G01 X77.6627 Y13.1153
G01 X77.5443 Y13.3368
G01 X77.3850 Y13.5310
G01 X77.1908 Y13.6903
G01 X76.9693 Y13.8087
G01 X76.7290 Y13.8816
G01 X76.4790 Y13.9062
G01 X76.2291 Y13.8816
G01 X75.9887 Y13.8087
G01 X75.7672 Y13.6903
G01 X75.5731 Y13.5310
G01 X75.4137 Y13.3368
G01 X75.2953 Y13.1153
G01 X75.2224 Y12.8750
G01 X75.2040 Y12.6876
G01 X75.2040 Y11.9624
G01 X75.2224 Y11.7751
G01 X75.2953 Y11.5347
G01 X75.4137 Y11.3132
G01 X75.5731 Y11.1191
G01 X75.7672 Y10.9597
G01 X75.9887 Y10.8413
G01 X76.2291 Y10.7684
G01 X76.4790 Y10.7438
G01 X76.7290 Y10.7684
G01 X76.9693 Y10.8413
G01 X77.1908 Y10.9597
G01 X77.3850 Y11.1191
G01 X77.5443 Y11.3132
G01 X77.6627 Y11.5347
G01 X77.7356 Y11.7751
G01 X77.7541 Y11.9624
G01 X77.7541 Y12.6876
G00 Z2.0000
G00 X76.4725 Y10.9923
G01 F60.00
G01 Z-0.2000
G01 F160.00
G01 X76.4855 Y10.9923
G01 X76.5802 Y10.9971
G01 X76.6805 Y11.0120
G01 X76.7788 Y11.0366
G01 X76.8743 Y11.0708
G01 X76.9659 Y11.1141
G01 X77.0528 Y11.1662
G01 X77.1342 Y11.2266
G01 X77.2093 Y11.2947
G01 X77.2774 Y11.3698
G01 X77.3378 Y11.4512
G01 X77.3899 Y11.5381
G01 X77.4332 Y11.6298
G01 X77.4674 Y11.7252
G01 X77.4920 Y11.8235
G01 X77.5069 Y11.9238
G01 X77.5119 Y12.0250
G01 X77.5119 Y12.6250
G01 X77.5074 Y12.7197
G01 X77.5061 Y12.7327
G01 X77.4931 Y12.8201
G01 X77.4906 Y12.8329
G01 X77.4674 Y12.9248
G01 X77.4356 Y13.0142
G01 X77.4306 Y13.0262
G01 X77.3899 Y13.1119
G01 X77.3396 Y13.1961
G01 X77.3340 Y13.2042
G01 X77.2774 Y13.2802
G01 X77.2138 Y13.3506
G01 X77.2046 Y13.3598
G01 X77.1342 Y13.4234
G01 X77.0582 Y13.4800
G01 X77.0473 Y13.4873
G01 X76.9659 Y13.5359
G01 X76.8802 Y13.5766
G01 X76.8682 Y13.5816
G01 X76.7788 Y13.6134
G01 X76.6869 Y13.6366
G01 X76.6741 Y13.6391
G01 X76.5802 Y13.6529
G01 X76.4790 Y13.6579
G01 X76.3778 Y13.6529
G01 X76.2775 Y13.6380
G01 X76.1792 Y13.6134
G01 X76.0838 Y13.5792
G01 X75.9921 Y13.5359
G01 X75.9052 Y13.4838
G01 X75.8238 Y13.4234
G01 X75.7487 Y13.3553
G01 X75.6806 Y13.2802
G01 X75.6202 Y13.1988
G01 X75.5681 Y13.1119
G01 X75.5248 Y13.0203
G01 X75.4906 Y12.9248
G01 X75.4660 Y12.8265
G01 X75.4511 Y12.7262
G01 X75.4462 Y12.6250
G01 X75.4462 Y12.0250
G01 X75.4507 Y11.9303
G01 X75.4519 Y11.9173
G01 X75.4649 Y11.8299
G01 X75.4674 Y11.8172
G01 X75.4906 Y11.7252
G01 X75.5224 Y11.6358
G01 X75.5274 Y11.6238
G01 X75.5681 Y11.5381
G01 X75.6185 Y11.4539
G01 X75.6240 Y11.4459
G01 X75.6806 Y11.3698
G01 X75.7442 Y11.2994
G01 X75.7534 Y11.2902
G01 X75.8238 Y11.2266
G01 X75.8999 Y11.1700
G01 X75.9107 Y11.1627
G01 X75.9921 Y11.1141
G01 X76.0838 Y11.0708
G01 X76.1730 Y11.0387
G01 X76.1855 Y11.0349
G01 X76.2775 Y11.0120
G01 X76.3713 Y10.9979
G01 X76.3843 Y10.9967
G01 X76.4725 Y10.9923
G00 Z2.0000
G00 X76.4725 Y21.1523
G01 F60.00
G01 Z-0.2000
G01 F160.00
G01 X76.4855 Y21.1523
G01 X76.5802 Y21.1571
G01 X76.6805 Y21.1720
G01 X76.7788 Y21.1966
G01 X76.8743 Y21.2308
G01 X76.9659 Y21.2741
G01 X77.0528 Y21.3262
G01 X77.1342 Y21.3866
G01 X77.2093 Y21.4547
G01 X77.2774 Y21.5298
G01 X77.3378 Y21.6112
G01 X77.3899 Y21.6981
G01 X77.4332 Y21.7898
G01 X77.4674 Y21.8852
G01 X77.4920 Y21.9835
G01 X77.5069 Y22.0838
G01 X77.5119 Y22.1850
G01 X77.5119 Y22.7850
G01 X77.5074 Y22.8797
G01 X77.5061 Y22.8927
G01 X77.4931 Y22.9801
G01 X77.4906 Y22.9929
G01 X77.4674 Y23.0848
G01 X77.4356 Y23.1742
G01 X77.4306 Y23.1862
G01 X77.3899 Y23.2719
G01 X77.3396 Y23.3561
G01 X77.3340 Y23.3642
G01 X77.2774 Y23.4402
G01 X77.2138 Y23.5106
G01 X77.2046 Y23.5198
G01 X77.1342 Y23.5834
G01 X77.0582 Y23.6400
G01 X77.0473 Y23.6473
G01 X76.9659 Y23.6959
G01 X76.8802 Y23.7366
G01 X76.8682 Y23.7416
G01 X76.7788 Y23.7734
G01 X76.6869 Y23.7966
G01 X76.6741 Y23.7991
G01 X76.5802 Y23.8129
G01 X76.4790 Y23.8179
G01 X76.3778 Y23.8129
G01 X76.2775 Y23.7980
G01 X76.1792 Y23.7734
G01 X76.0838 Y23.7392
G01 X75.9921 Y23.6959
G01 X75.9052 Y23.6438
G01 X75.8238 Y23.5834
G01 X75.7487 Y23.5153
G01 X75.6806 Y23.4402
G01 X75.6202 Y23.3588
G01 X75.5681 Y23.2719
G01 X75.5248 Y23.1803
G01 X75.4906 Y23.0848
G01 X75.4660 Y22.9865
G01 X75.4511 Y22.8862
G01 X75.4462 Y22.7850
G01 X75.4462 Y22.1850
G01 X75.4507 Y22.0903
G01 X75.4519 Y22.0773
G01 X75.4649 Y21.9899
G01 X75.4674 Y21.9772
G01 X75.4906 Y21.8852
G01 X75.5224 Y21.7958
G01 X75.5274 Y21.7838
G01 X75.5681 Y21.6981
G01 X75.6185 Y21.6139
G01 X75.6240 Y21.6059
G01 X75.6806 Y21.5298
G01 X75.7442 Y21.4594
G01 X75.7534 Y21.4502
G01 X75.8238 Y21.3866
G01 X75.8999 Y21.3300
G01 X75.9107 Y21.3227
G01 X75.9921 Y21.2741
G01 X76.0838 Y21.2308
G01 X76.1730 Y21.1987
G01 X76.1855 Y21.1949
G01 X76.2775 Y21.1720
G01 X76.3713 Y21.1579
G01 X76.3843 Y21.1567
G01 X76.4725 Y21.1523
G00 Z2.0000
G00 X77.7541 Y22.8476
G01 F60.00
G01 Z-0.2000
G01 F160.00
G01 X77.7356 Y23.0350
G01 X77.6627 Y23.2753
G01 X77.5443 Y23.4968
G01 X77.3850 Y23.6910
G01 X77.1908 Y23.8503
G01 X76.9693 Y23.9687
G01 X76.7290 Y24.0416
G01 X76.4790 Y24.0662
G01 X76.2291 Y24.0416
G01 X75.9887 Y23.9687
G01 X75.7672 Y23.8503
G01 X75.5731 Y23.6910
G01 X75.4137 Y23.4968
G01 X75.2953 Y23.2753
G01 X75.2224 Y23.0350
G01 X75.2040 Y22.8476
G01 X75.2040 Y22.1224
G01 X75.2224 Y21.9351
G01 X75.2953 Y21.6947
G01 X75.4137 Y21.4732
G01 X75.5731 Y21.2791
G01 X75.7672 Y21.1197
G01 X75.9887 Y21.0013
G01 X76.2291 Y20.9284
G01 X76.4790 Y20.9038
G01 X76.7290 Y20.9284
G01 X76.9693 Y21.0013
G01 X77.1908 Y21.1197
G01 X77.3850 Y21.2791
G01 X77.5443 Y21.4732
G01 X77.6627 Y21.6947
G01 X77.7356 Y21.9351
G01 X77.7541 Y22.1224
G01 X77.7541 Y22.8476
G00 Z2.0000
G00 X80.2840 Y22.8476
G01 F60.00
G01 Z-0.2000
G01 F160.00
G01 X80.2840 Y22.1224
G01 X80.3024 Y21.9351
G01 X80.3753 Y21.6947
G01 X80.4937 Y21.4732
G01 X80.6531 Y21.2791
G01 X80.8472 Y21.1197
G01 X81.0687 Y21.0013
G01 X81.3091 Y20.9284
G01 X81.5590 Y20.9038
G01 X81.8090 Y20.9284
G01 X82.0493 Y21.0013
G01 X82.2708 Y21.1197
G01 X82.4650 Y21.2791
G01 X82.6243 Y21.4732
G01 X82.7427 Y21.6947
G01 X82.8156 Y21.9351
G01 X82.8341 Y22.1224
G01 X82.8341 Y22.8476
G01 X82.8156 Y23.0350
G01 X82.7427 Y23.2753
G01 X82.6243 Y23.4968
G01 X82.4650 Y23.6910
G01 X82.2708 Y23.8503
G01 X82.0493 Y23.9687
G01 X81.8090 Y24.0416
G01 X81.5590 Y24.0662
G01 X81.3091 Y24.0416
G01 X81.0687 Y23.9687
G01 X80.8472 Y23.8503
G01 X80.6531 Y23.6910
G01 X80.4937 Y23.4968
G01 X80.3753 Y23.2753
G01 X80.3024 Y23.0350
G01 X80.2840 Y22.8476
G00 Z2.0000
G00 X81.5525 Y21.1523
G01 F60.00
G01 Z-0.2000
G01 F160.00
G01 X81.5655 Y21.1523
G01 X81.6602 Y21.1571
G01 X81.7605 Y21.1720
G01 X81.8588 Y21.1966
G01 X81.9543 Y21.2308
G01 X82.0459 Y21.2741
G01 X82.1328 Y21.3262
G01 X82.2142 Y21.3866
G01 X82.2893 Y21.4547
G01 X82.3574 Y21.5298
G01 X82.4178 Y21.6112
G01 X82.4699 Y21.6981
G01 X82.5132 Y21.7898
G01 X82.5474 Y21.8852
G01 X82.5720 Y21.9835
G01 X82.5869 Y22.0838
G01 X82.5919 Y22.1850
G01 X82.5919 Y22.7850
G01 X82.5874 Y22.8797
G01 X82.5861 Y22.8927
G01 X82.5731 Y22.9801
G01 X82.5706 Y22.9929
G01 X82.5474 Y23.0848
G01 X82.5156 Y23.1742
G01 X82.5106 Y23.1862
G01 X82.4699 Y23.2719
G01 X82.4196 Y23.3561
G01 X82.4140 Y23.3642
G01 X82.3574 Y23.4402
G01 X82.2938 Y23.5106
G01 X82.2846 Y23.5198
G01 X82.2142 Y23.5834
G01 X82.1382 Y23.6400
G01 X82.1273 Y23.6473
G01 X82.0459 Y23.6959
G01 X81.9602 Y23.7366
G01 X81.9482 Y23.7416
G01 X81.8588 Y23.7734
G01 X81.7669 Y23.7966
G01 X81.7541 Y23.7991
G01 X81.6602 Y23.8129
G01 X81.5590 Y23.8179
G01 X81.4578 Y23.8129
G01 X81.3575 Y23.7980
G01 X81.2592 Y23.7734
G01 X81.1638 Y23.7392
G01 X81.0721 Y23.6959
G01 X80.9852 Y23.6438
G01 X80.9038 Y23.5834
G01 X80.8287 Y23.5153
G01 X80.7606 Y23.4402
G01 X80.7002 Y23.3588
G01 X80.6481 Y23.2719
G01 X80.6048 Y23.1803
G01 X80.5706 Y23.0848
G01 X80.5460 Y22.9865
G01 X80.5311 Y22.8862
G01 X80.5262 Y22.7850
G01 X80.5262 Y22.1850
G01 X80.5307 Y22.0903
G01 X80.5319 Y22.0773
G01 X80.5449 Y21.9899
G01 X80.5474 Y21.9772
G01 X80.5706 Y21.8852
G01 X80.6024 Y21.7958
G01 X80.6074 Y21.7838
G01 X80.6481 Y21.6981
G01 X80.6985 Y21.6139
G01 X80.7040 Y21.6059
G01 X80.7606 Y21.5298
G01 X80.8242 Y21.4594
G01 X80.8334 Y21.4502
G01 X80.9038 Y21.3866
G01 X80.9799 Y21.3300
G01 X80.9907 Y21.3227
G01 X81.0721 Y21.2741
G01 X81.1638 Y21.2308
G01 X81.2530 Y21.1987
G01 X81.2655 Y21.1949
G01 X81.3575 Y21.1720
G01 X81.4513 Y21.1579
G01 X81.4643 Y21.1567
G01 X81.5525 Y21.1523
G00 Z2.0000
G00 X71.5041 Y50.3254
G01 F60.00
G01 Z-0.2000
G01 F160.00
G01 X71.4512 Y50.5911
G01 X71.3476 Y50.8413
G01 X71.1971 Y51.0666
G01 X71.0056 Y51.2581
G01 X70.7803 Y51.4086
G01 X70.5301 Y51.5122
G01 X70.2644 Y51.5651
G01 X69.9936 Y51.5651
G01 X69.7279 Y51.5122
G01 X69.4777 Y51.4086
G01 X69.2525 Y51.2581
G01 X69.0546 Y51.0603
G01 X69.0328 Y51.0406
G01 X69.0065 Y51.0212
G01 X68.9842 Y51.0076
G01 X68.9727 Y51.0014
G01 X68.9490 Y50.9904
G01 X68.9182 Y50.9794
G01 X68.8929 Y50.9729
G01 X68.8801 Y50.9703
G01 X68.8542 Y50.9667
G01 X68.8281 Y50.9652
G01 X55.7797 Y50.9651
G01 X55.7471 Y50.9667
G01 X55.7212 Y50.9703
G01 X55.7116 Y50.9721
G01 X55.6894 Y50.9777
G01 X55.6769 Y50.9814
G01 X55.6523 Y50.9904
G01 X55.6228 Y51.0044
G01 X55.5947 Y51.0212
G01 X55.5710 Y51.0386
G01 X55.5636 Y51.0449
G01 X55.5443 Y51.0626
G01 X55.5266 Y51.0819
G01 X55.5203 Y51.0893
G01 X55.5029 Y51.1130
G01 X55.4491 Y51.1936
G01 X55.2576 Y51.3851
G01 X55.0323 Y51.5356
G01 X54.7821 Y51.6392
G01 X54.5164 Y51.6921
G01 X54.2456 Y51.6921
G01 X53.9799 Y51.6392
G01 X53.7297 Y51.5356
G01 X53.5045 Y51.3851
G01 X53.3129 Y51.1936
G01 X53.1625 Y50.9683
G01 X53.0588 Y50.7181
G01 X53.0060 Y50.4524
G01 X53.0060 Y50.1816
G01 X53.0588 Y49.9159
G01 X53.1625 Y49.6657
G01 X53.3129 Y49.4405
G01 X53.5045 Y49.2489
G01 X53.7297 Y49.0985
G01 X53.9799 Y48.9948
G01 X54.2456 Y48.9420
G01 X54.5164 Y48.9420
G01 X54.7821 Y48.9948
G01 X55.0323 Y49.0985
G01 X55.2576 Y49.2489
G01 X55.3261 Y49.3174
G01 X55.3478 Y49.3373
G01 X55.3554 Y49.3434
G01 X55.3765 Y49.3589
G01 X55.4045 Y49.3756
G01 X55.4341 Y49.3896
G01 X55.4586 Y49.3986
G01 X55.4711 Y49.4024
G01 X55.4965 Y49.4086
G01 X55.5224 Y49.4126
G01 X55.5321 Y49.4136
G01 X55.5582 Y49.4149
G01 X68.8215 Y49.4150
G01 X68.8477 Y49.4138
G01 X68.8606 Y49.4126
G01 X68.8865 Y49.4086
G01 X68.9182 Y49.4006
G01 X68.9490 Y49.3896
G01 X68.9727 Y49.3786
G01 X68.9842 Y49.3724
G01 X69.0065 Y49.3589
G01 X69.0328 Y49.3394
G01 X69.0546 Y49.3197
G01 X69.2525 Y49.1219
G01 X69.4777 Y48.9715
G01 X69.7279 Y48.8678
G01 X69.9936 Y48.8150
G01 X70.2644 Y48.8150
G01 X70.5301 Y48.8678
G01 X70.7803 Y48.9715
G01 X71.0056 Y49.1219
G01 X71.1971 Y49.3135
G01 X71.3476 Y49.5387
G01 X71.4512 Y49.7889
G01 X71.5041 Y50.0546
G01 X71.5041 Y50.3254
G00 Z2.0000
G00 X71.1617 Y53.8081
G01 F60.00
G01 Z-0.2000
G01 F160.00
G01 X71.1677 Y53.7866
G01 X71.2698 Y53.5779
G01 X71.4094 Y53.3948
G01 X71.5820 Y53.2425
G01 X71.7810 Y53.1268
G01 X71.9988 Y53.0521
G01 X72.2373 Y53.0200
G01 X72.2821 Y53.0200
G01 X72.2821 Y53.2622
G01 X72.2625 Y53.2623
G01 X72.1841 Y53.2662
G01 X72.1711 Y53.2675
G01 X72.0870 Y53.2801
G01 X71.9982 Y53.3023
G01 X71.9181 Y53.3308
G01 X71.9061 Y53.3358
G01 X71.8293 Y53.3723
G01 X71.7535 Y53.4176
G01 X71.7454 Y53.4231
G01 X71.6824 Y53.4699
G01 X71.6723 Y53.4782
G01 X71.6094 Y53.5354
G01 X71.5500 Y53.6007
G01 X71.5439 Y53.6084
G01 X71.4971 Y53.6714
G01 X71.4916 Y53.6795
G01 X71.4463 Y53.7553
G01 X71.4212 Y53.8081
G01 X71.1617 Y53.8081
G00 Z2.0000
G00 X71.1617 Y54.5820
G01 F60.00
G01 Z-0.2000
G01 F160.00
G01 X71.4212 Y54.5820
G01 X71.4463 Y54.6348
G01 X71.4916 Y54.7105
G01 X71.4971 Y54.7186
G01 X71.5439 Y54.7817
G01 X71.5500 Y54.7893
G01 X71.6094 Y54.8546
G01 X71.6723 Y54.9119
G01 X71.6824 Y54.9201
G01 X71.7454 Y54.9669
G01 X71.7535 Y54.9724
G01 X71.8293 Y55.0177
G01 X71.9061 Y55.0542
G01 X71.9181 Y55.0592
G01 X71.9982 Y55.0877
G01 X72.0870 Y55.1099
G01 X72.1711 Y55.1226
G01 X72.1841 Y55.1239
G01 X72.2690 Y55.1279
G01 X73.0723 Y55.1278
G01 X73.1539 Y55.1239
G01 X73.1669 Y55.1226
G01 X73.2510 Y55.1099
G01 X73.3367 Y55.0886
G01 X73.3460 Y55.0856
G01 X73.4260 Y55.0569
G01 X73.5088 Y55.0177
G01 X73.5873 Y54.9706
G01 X73.6557 Y54.9201
G01 X73.6633 Y54.9140
G01 X73.7286 Y54.8546
G01 X73.7859 Y54.7917
G01 X73.7922 Y54.7843
G01 X73.8409 Y54.7186
G01 X73.8464 Y54.7105
G01 X73.8917 Y54.6348
G01 X73.9169 Y54.5820
G01 X74.1763 Y54.5820
G01 X74.1703 Y54.6035
G01 X74.0682 Y54.8121
G01 X73.9286 Y54.9952
G01 X73.7560 Y55.1475
G01 X73.7117 Y55.1734
G01 X73.6927 Y55.1856
G01 X73.6849 Y55.1911
G01 X73.6647 Y55.2071
G01 X73.6576 Y55.2135
G01 X73.6392 Y55.2315
G01 X73.6224 Y55.2510
G01 X73.6145 Y55.2611
G01 X73.5999 Y55.2823
G01 X73.5841 Y55.3103
G01 X73.5711 Y55.3397
G01 X73.5629 Y55.3640
G01 X73.5602 Y55.3733
G01 X73.5552 Y55.3952
G01 X73.5529 Y55.4078
G01 X73.5498 Y55.4334
G01 X73.5489 Y55.4655
G01 X73.5510 Y55.4976
G01 X73.5550 Y55.5230
G01 X73.5577 Y55.5355
G01 X73.5644 Y55.5603
G01 X73.5756 Y55.5904
G01 X73.5867 Y55.6136
G01 X73.5913 Y55.6221
G01 X73.6030 Y55.6414
G01 X73.6102 Y55.6520
G01 X73.6258 Y55.6724
G01 X73.6430 Y55.6915
G01 X73.6498 Y55.6983
G01 X73.6689 Y55.7155
G01 X73.6765 Y55.7215
G01 X73.6972 Y55.7367
G01 X73.7250 Y55.7533
G01 X73.9039 Y55.9001
G01 X74.0508 Y56.0790
G01 X74.1599 Y56.2832
G01 X74.2271 Y56.5047
G01 X74.2497 Y56.7350
G01 X74.2271 Y56.9654
G01 X74.1599 Y57.1869
G01 X74.0508 Y57.3910
G01 X73.9039 Y57.5699
G01 X73.7229 Y57.7185
G01 X73.7043 Y57.7300
G01 X73.6808 Y57.7476
G01 X73.6566 Y57.7696
G01 X73.6346 Y57.7938
G01 X73.6152 Y57.8200
G01 X73.5984 Y57.8481
G01 X73.5844 Y57.8776
G01 X73.5754 Y57.9022
G01 X73.5717 Y57.9146
G01 X73.5661 Y57.9369
G01 X73.5643 Y57.9465
G01 X73.5607 Y57.9724
G01 X73.5591 Y58.0050
G01 X73.5607 Y58.0376
G01 X73.5643 Y58.0635
G01 X73.5669 Y58.0763
G01 X73.5734 Y58.1017
G01 X73.5844 Y58.1324
G01 X73.5954 Y58.1561
G01 X73.5999 Y58.1648
G01 X73.6117 Y58.1845
G01 X73.6189 Y58.1953
G01 X73.6346 Y58.2162
G01 X73.6521 Y58.2357
G01 X73.6589 Y58.2427
G01 X73.6783 Y58.2603
G01 X73.6859 Y58.2664
G01 X73.7043 Y58.2800
G01 X73.7229 Y58.2915
G01 X73.9039 Y58.4401
G01 X74.0508 Y58.6190
G01 X74.1599 Y58.8232
G01 X74.2271 Y59.0447
G01 X74.2497 Y59.2750
G01 X74.2271 Y59.5054
G01 X74.1599 Y59.7269
G01 X74.0508 Y59.9310
G01 X73.9039 Y60.1099
G01 X73.7250 Y60.2568
G01 X73.5209 Y60.3659
G01 X73.2994 Y60.4331
G01 X73.1267 Y60.4501
G01 X72.2113 Y60.4501
G01 X72.0387 Y60.4331
G01 X71.8172 Y60.3659
G01 X71.6130 Y60.2568
G01 X71.4341 Y60.1099
G01 X71.2873 Y59.9310
G01 X71.1782 Y59.7269
G01 X71.1110 Y59.5054
G01 X71.0883 Y59.2750
G01 X71.1110 Y59.0447
G01 X71.1782 Y58.8232
G01 X71.2873 Y58.6190
G01 X71.4341 Y58.4401
G01 X71.6151 Y58.2915
G01 X71.6337 Y58.2800
G01 X71.6521 Y58.2664
G01 X71.6597 Y58.2603
G01 X71.6791 Y58.2427
G01 X71.6859 Y58.2357
G01 X71.7034 Y58.2162
G01 X71.7191 Y58.1953
G01 X71.7246 Y58.1873
G01 X71.7364 Y58.1676
G01 X71.7426 Y58.1561
G01 X71.7536 Y58.1324
G01 X71.7646 Y58.1017
G01 X71.7726 Y58.0700
G01 X71.7766 Y58.0441
G01 X71.7778 Y58.0311
G01 X71.7789 Y58.0018
G01 X71.7774 Y57.9724
G01 X71.7737 Y57.9465
G01 X71.7711 Y57.9337
G01 X71.7636 Y57.9053
G01 X71.7536 Y57.8776
G01 X71.7411 Y57.8510
G01 X71.7263 Y57.8255
G01 X71.7191 Y57.8147
G01 X71.7034 Y57.7938
G01 X71.6859 Y57.7743
G01 X71.6791 Y57.7673
G01 X71.6597 Y57.7497
G01 X71.6521 Y57.7436
G01 X71.6337 Y57.7300
G01 X71.6151 Y57.7185
G01 X71.4341 Y57.5699
G01 X71.2873 Y57.3910
G01 X71.1782 Y57.1869
G01 X71.1110 Y56.9654
G01 X71.0883 Y56.7350
G01 X71.1110 Y56.5047
G01 X71.1782 Y56.2832
G01 X71.2873 Y56.0790
G01 X71.4341 Y55.9001
G01 X71.6130 Y55.7533
G01 X71.6408 Y55.7367
G01 X71.6666 Y55.7176
G01 X71.6905 Y55.6961
G01 X71.7123 Y55.6724
G01 X71.7316 Y55.6468
G01 X71.7483 Y55.6193
G01 X71.7624 Y55.5904
G01 X71.7715 Y55.5664
G01 X71.7745 Y55.5573
G01 X71.7803 Y55.5355
G01 X71.7830 Y55.5230
G01 X71.7874 Y55.4944
G01 X71.7889 Y55.4719
G01 X71.7892 Y55.4623
G01 X71.7882 Y55.4334
G01 X71.7846 Y55.4047
G01 X71.7786 Y55.3764
G01 X71.7751 Y55.3640
G01 X71.7669 Y55.3397
G01 X71.7539 Y55.3103
G01 X71.7381 Y55.2823
G01 X71.7235 Y55.2611
G01 X71.7157 Y55.2510
G01 X71.6989 Y55.2315
G01 X71.6805 Y55.2135
G01 X71.6733 Y55.2071
G01 X71.6532 Y55.1911
G01 X71.6453 Y55.1856
G01 X71.6264 Y55.1734
G01 X71.5820 Y55.1475
G01 X71.4094 Y54.9952
G01 X71.2698 Y54.8121
G01 X71.1677 Y54.6035
G01 X71.1617 Y54.5820
G00 Z2.0000
G00 X73.0690 Y55.8022
G01 F60.00
G01 Z-0.2000
G01 F160.00
G01 X73.1539 Y55.8062
G01 X73.1669 Y55.8075
G01 X73.2510 Y55.8201
G01 X73.3398 Y55.8423
G01 X73.4199 Y55.8708
G01 X73.4320 Y55.8758
G01 X73.5088 Y55.9123
G01 X73.5873 Y55.9594
G01 X73.6608 Y56.0139
G01 X73.7239 Y56.0709
G01 X73.7331 Y56.0801
G01 X73.7901 Y56.1432
G01 X73.8409 Y56.2114
G01 X73.8481 Y56.2223
G01 X73.8917 Y56.2953
G01 X73.9282 Y56.3721
G01 X73.9332 Y56.3841
G01 X73.9617 Y56.4642
G01 X73.9825 Y56.5467
G01 X73.9851 Y56.5594
G01 X73.9974 Y56.6436
G01 X74.0017 Y56.7285
G01 X74.0017 Y56.7415
G01 X73.9979 Y56.8199
G01 X73.9966 Y56.8329
G01 X73.9839 Y56.9170
G01 X73.9634 Y56.9995
G01 X73.9596 Y57.0120
G01 X73.9309 Y57.0920
G01 X73.8917 Y57.1748
G01 X73.8481 Y57.2478
G01 X73.8409 Y57.2586
G01 X73.7941 Y57.3217
G01 X73.7880 Y57.3293
G01 X73.7286 Y57.3946
G01 X73.6608 Y57.4561
G01 X73.5873 Y57.5106
G01 X73.5088 Y57.5577
G01 X73.4260 Y57.5969
G01 X73.3398 Y57.6277
G01 X73.2510 Y57.6499
G01 X73.1669 Y57.6626
G01 X73.1539 Y57.6639
G01 X73.0690 Y57.6679
G01 X72.2690 Y57.6679
G01 X72.1841 Y57.6639
G01 X72.1711 Y57.6626
G01 X72.0870 Y57.6499
G01 X72.0045 Y57.6294
G01 X71.9920 Y57.6256
G01 X71.9120 Y57.5969
G01 X71.8293 Y57.5577
G01 X71.7563 Y57.5141
G01 X71.7454 Y57.5069
G01 X71.6824 Y57.4601
G01 X71.6747 Y57.4540
G01 X71.6094 Y57.3946
G01 X71.5479 Y57.3268
G01 X71.4934 Y57.2533
G01 X71.4463 Y57.1748
G01 X71.4072 Y57.0920
G01 X71.3763 Y57.0058
G01 X71.3541 Y56.9170
G01 X71.3407 Y56.8264
G01 X71.3362 Y56.7350
G01 X71.3407 Y56.6436
G01 X71.3541 Y56.5530
G01 X71.3763 Y56.4642
G01 X71.4072 Y56.3780
G01 X71.4463 Y56.2953
G01 X71.4934 Y56.2167
G01 X71.5439 Y56.1484
G01 X71.5500 Y56.1407
G01 X71.6094 Y56.0754
G01 X71.6723 Y56.0182
G01 X71.6824 Y56.0099
G01 X71.7454 Y55.9631
G01 X71.7563 Y55.9559
G01 X71.8293 Y55.9123
G01 X71.9120 Y55.8732
G01 X71.9982 Y55.8423
G01 X72.0838 Y55.8208
G01 X72.0934 Y55.8190
G01 X72.1776 Y55.8067
G01 X72.2658 Y55.8022
G01 X73.0690 Y55.8022
G00 Z2.0000
G00 X73.9169 Y53.8081
G01 F60.00
G01 Z-0.2000
G01 F160.00
G01 X73.8917 Y53.7553
G01 X73.8464 Y53.6795
G01 X73.8409 Y53.6714
G01 X73.7941 Y53.6084
G01 X73.7880 Y53.6007
G01 X73.7286 Y53.5354
G01 X73.6657 Y53.4782
G01 X73.6557 Y53.4699
G01 X73.5926 Y53.4231
G01 X73.5845 Y53.4176
G01 X73.5088 Y53.3723
G01 X73.4320 Y53.3358
G01 X73.4199 Y53.3308
G01 X73.3398 Y53.3023
G01 X73.2510 Y53.2801
G01 X73.1669 Y53.2675
G01 X73.1539 Y53.2662
G01 X73.0755 Y53.2623
G01 X73.0560 Y53.2622
G01 X73.0560 Y53.0200
G01 X73.1007 Y53.0200
G01 X73.3392 Y53.0521
G01 X73.5570 Y53.1268
G01 X73.7560 Y53.2425
G01 X73.9286 Y53.3948
G01 X74.0682 Y53.5779
G01 X74.1703 Y53.7866
G01 X74.1763 Y53.8081
G01 X73.9169 Y53.8081
G00 Z2.0000
G00 X73.0690 Y58.3422
G01 F60.00
G01 Z-0.2000
G01 F160.00
G01 X73.1539 Y58.3462
G01 X73.1669 Y58.3475
G01 X73.2510 Y58.3601
G01 X73.3398 Y58.3823
G01 X73.4199 Y58.4108
G01 X73.4320 Y58.4158
G01 X73.5088 Y58.4523
G01 X73.5873 Y58.4994
G01 X73.6608 Y58.5539
G01 X73.7239 Y58.6109
G01 X73.7331 Y58.6201
G01 X73.7901 Y58.6832
G01 X73.8409 Y58.7514
G01 X73.8481 Y58.7623
G01 X73.8917 Y58.8353
G01 X73.9282 Y58.9121
G01 X73.9332 Y58.9241
G01 X73.9617 Y59.0042
G01 X73.9825 Y59.0867
G01 X73.9851 Y59.0994
G01 X73.9974 Y59.1836
G01 X74.0017 Y59.2685
G01 X74.0017 Y59.2815
G01 X73.9979 Y59.3599
G01 X73.9966 Y59.3729
G01 X73.9839 Y59.4570
G01 X73.9634 Y59.5395
G01 X73.9596 Y59.5520
G01 X73.9309 Y59.6320
G01 X73.8917 Y59.7148
G01 X73.8481 Y59.7878
G01 X73.8409 Y59.7986
G01 X73.7941 Y59.8617
G01 X73.7880 Y59.8693
G01 X73.7286 Y59.9346
G01 X73.6608 Y59.9961
G01 X73.5873 Y60.0506
G01 X73.5088 Y60.0977
G01 X73.4260 Y60.1369
G01 X73.3398 Y60.1677
G01 X73.2510 Y60.1899
G01 X73.1669 Y60.2026
G01 X73.1539 Y60.2039
G01 X73.0690 Y60.2079
G01 X72.2690 Y60.2079
G01 X72.1841 Y60.2039
G01 X72.1711 Y60.2026
G01 X72.0870 Y60.1899
G01 X72.0045 Y60.1694
G01 X71.9920 Y60.1656
G01 X71.9120 Y60.1369
G01 X71.8293 Y60.0977
G01 X71.7563 Y60.0541
G01 X71.7454 Y60.0469
G01 X71.6824 Y60.0001
G01 X71.6747 Y59.9940
G01 X71.6094 Y59.9346
G01 X71.5479 Y59.8668
G01 X71.4934 Y59.7933
G01 X71.4463 Y59.7148
G01 X71.4072 Y59.6320
G01 X71.3763 Y59.5458
G01 X71.3541 Y59.4570
G01 X71.3407 Y59.3664
G01 X71.3362 Y59.2750
G01 X71.3407 Y59.1836
G01 X71.3541 Y59.0930
G01 X71.3763 Y59.0042
G01 X71.4072 Y58.9180
G01 X71.4463 Y58.8353
G01 X71.4934 Y58.7567
G01 X71.5439 Y58.6884
G01 X71.5500 Y58.6807
G01 X71.6094 Y58.6154
G01 X71.6723 Y58.5582
G01 X71.6824 Y58.5499
G01 X71.7454 Y58.5031
G01 X71.7563 Y58.4959
G01 X71.8293 Y58.4523
G01 X71.9120 Y58.4132
G01 X71.9982 Y58.3823
G01 X72.0838 Y58.3608
G01 X72.0934 Y58.3590
G01 X72.1776 Y58.3467
G01 X72.2658 Y58.3422
G01 X73.0690 Y58.3422
G00 Z2.0000
G00 X77.1075 Y63.8623
G01 F60.00
G01 Z-0.2000
G01 F160.00
G01 X77.1205 Y63.8623
G01 X77.2152 Y63.8671
G01 X77.3155 Y63.8820
G01 X77.4138 Y63.9066
G01 X77.5093 Y63.9408
G01 X77.6009 Y63.9841
G01 X77.6878 Y64.0362
G01 X77.7692 Y64.0966
G01 X77.8443 Y64.1647
G01 X77.9124 Y64.2398
G01 X77.9728 Y64.3212
G01 X78.0249 Y64.4081
G01 X78.0682 Y64.4998
G01 X78.1024 Y64.5952
G01 X78.1270 Y64.6935
G01 X78.1419 Y64.7938
G01 X78.1469 Y64.8950
G01 X78.1469 Y65.4950
G01 X78.1424 Y65.5897
G01 X78.1411 Y65.6027
G01 X78.1270 Y65.6965
G01 X78.1041 Y65.7885
G01 X78.1003 Y65.8010
G01 X78.0706 Y65.8842
G01 X78.0656 Y65.8962
G01 X78.0249 Y65.9819
G01 X77.9746 Y66.0661
G01 X77.9690 Y66.0742
G01 X77.9124 Y66.1502
G01 X77.8488 Y66.2206
G01 X77.8396 Y66.2298
G01 X77.7692 Y66.2934
G01 X77.6932 Y66.3500
G01 X77.6823 Y66.3573
G01 X77.6009 Y66.4059
G01 X77.5093 Y66.4492
G01 X77.4200 Y66.4813
G01 X77.4075 Y66.4851
G01 X77.3155 Y66.5080
G01 X77.2217 Y66.5221
G01 X77.2087 Y66.5234
G01 X77.1140 Y66.5279
G01 X77.0128 Y66.5229
G01 X76.9125 Y66.5080
G01 X76.8142 Y66.4834
G01 X76.7188 Y66.4492
G01 X76.6271 Y66.4059
G01 X76.5402 Y66.3538
G01 X76.4588 Y66.2934
G01 X76.3837 Y66.2253
G01 X76.3156 Y66.1502
G01 X76.2552 Y66.0688
G01 X76.2031 Y65.9819
G01 X76.1598 Y65.8903
G01 X76.1256 Y65.7948
G01 X76.1010 Y65.6965
G01 X76.0861 Y65.5962
G01 X76.0812 Y65.4950
G01 X76.0812 Y64.8950
G01 X76.0857 Y64.8003
G01 X76.0869 Y64.7873
G01 X76.1010 Y64.6935
G01 X76.1239 Y64.6015
G01 X76.1277 Y64.5890
G01 X76.1574 Y64.5058
G01 X76.1624 Y64.4938
G01 X76.2031 Y64.4081
G01 X76.2535 Y64.3239
G01 X76.2590 Y64.3159
G01 X76.3156 Y64.2398
G01 X76.3792 Y64.1694
G01 X76.3884 Y64.1602
G01 X76.4588 Y64.0966
G01 X76.5349 Y64.0400
G01 X76.5457 Y64.0327
G01 X76.6271 Y63.9841
G01 X76.7188 Y63.9408
G01 X76.8080 Y63.9087
G01 X76.8205 Y63.9049
G01 X76.9125 Y63.8820
G01 X77.0063 Y63.8679
G01 X77.0193 Y63.8667
G01 X77.1075 Y63.8623
G00 Z2.0000
G00 X75.9371 Y65.9981
G01 F60.00
G01 Z-0.2000
G01 F160.00
G01 X75.9303 Y65.9853
G01 X75.8574 Y65.7450
G01 X75.8390 Y65.5576
G01 X75.8390 Y64.8324
G01 X75.8574 Y64.6451
G01 X75.9303 Y64.4047
G01 X76.0487 Y64.1832
G01 X76.2081 Y63.9891
G01 X76.4022 Y63.8297
G01 X76.6237 Y63.7113
G01 X76.8641 Y63.6384
G01 X77.1140 Y63.6138
G01 X77.3640 Y63.6384
G01 X77.6043 Y63.7113
G01 X77.8258 Y63.8297
G01 X78.0200 Y63.9891
G01 X78.1793 Y64.1832
G01 X78.2977 Y64.4047
G01 X78.3706 Y64.6451
G01 X78.3891 Y64.8324
G01 X78.3891 Y65.5576
G01 X78.3706 Y65.7450
G01 X78.2977 Y65.9853
G01 X78.1793 Y66.2068
G01 X78.0200 Y66.4010
G01 X77.8258 Y66.5603
G01 X77.6043 Y66.6787
G01 X77.3640 Y66.7516
G01 X77.1140 Y66.7762
G01 X76.8641 Y66.7516
G01 X76.6237 Y66.6787
G01 X76.4022 Y66.5603
G01 X76.2081 Y66.4010
G01 X76.0487 Y66.2068
G01 X75.9371 Y65.9981
G00 Z2.0000
G00 X80.2840 Y65.5576
G01 F60.00
G01 Z-0.2000
G01 F160.00
G01 X80.2840 Y64.8324
G01 X80.3024 Y64.6451
G01 X80.3753 Y64.4047
G01 X80.4937 Y64.1832
G01 X80.6531 Y63.9891
G01 X80.8472 Y63.8297
G01 X81.0687 Y63.7113
G01 X81.3091 Y63.6384
G01 X81.5590 Y63.6138
G01 X81.8090 Y63.6384
G01 X82.0493 Y63.7113
G01 X82.2708 Y63.8297
G01 X82.4650 Y63.9891
G01 X82.6243 Y64.1832
G01 X82.7427 Y64.4047
G01 X82.8156 Y64.6451
G01 X82.8341 Y64.8324
G01 X82.8341 Y65.5576
G01 X82.8156 Y65.7450
G01 X82.7427 Y65.9853
G01 X82.6243 Y66.2068
G01 X82.4650 Y66.4010
G01 X82.2708 Y66.5603
G01 X82.0493 Y66.6787
G01 X81.8090 Y66.7516
G01 X81.5590 Y66.7762
G01 X81.3091 Y66.7516
G01 X81.0687 Y66.6787
G01 X80.8472 Y66.5603
G01 X80.6531 Y66.4010
G01 X80.4937 Y66.2068
G01 X80.3753 Y65.9853
G01 X80.3024 Y65.7450
G01 X80.2840 Y65.5576
G00 Z2.0000
G00 X81.5525 Y63.8623
G01 F60.00
G01 Z-0.2000
G01 F160.00
G01 X81.5655 Y63.8623
G01 X81.6602 Y63.8671
G01 X81.7605 Y63.8820
G01 X81.8588 Y63.9066
G01 X81.9543 Y63.9408
G01 X82.0459 Y63.9841
G01 X82.1328 Y64.0362
G01 X82.2142 Y64.0966
G01 X82.2893 Y64.1647
G01 X82.3574 Y64.2398
G01 X82.4178 Y64.3212
G01 X82.4699 Y64.4081
G01 X82.5132 Y64.4998
G01 X82.5474 Y64.5952
G01 X82.5720 Y64.6935
G01 X82.5869 Y64.7938
G01 X82.5919 Y64.8950
G01 X82.5919 Y65.4950
G01 X82.5874 Y65.5897
G01 X82.5861 Y65.6027
G01 X82.5720 Y65.6965
G01 X82.5491 Y65.7885
G01 X82.5453 Y65.8010
G01 X82.5156 Y65.8842
G01 X82.5106 Y65.8962
G01 X82.4699 Y65.9819
G01 X82.4196 Y66.0661
G01 X82.4140 Y66.0742
G01 X82.3574 Y66.1502
G01 X82.2938 Y66.2206
G01 X82.2846 Y66.2298
G01 X82.2142 Y66.2934
G01 X82.1382 Y66.3500
G01 X82.1273 Y66.3573
G01 X82.0459 Y66.4059
G01 X81.9543 Y66.4492
G01 X81.8650 Y66.4813
G01 X81.8525 Y66.4851
G01 X81.7605 Y66.5080
G01 X81.6667 Y66.5221
G01 X81.6537 Y66.5234
G01 X81.5590 Y66.5279
G01 X81.4578 Y66.5229
G01 X81.3575 Y66.5080
G01 X81.2592 Y66.4834
G01 X81.1638 Y66.4492
G01 X81.0721 Y66.4059
G01 X80.9852 Y66.3538
G01 X80.9038 Y66.2934
G01 X80.8287 Y66.2253
G01 X80.7606 Y66.1502
G01 X80.7002 Y66.0688
G01 X80.6481 Y65.9819
G01 X80.6048 Y65.8903
G01 X80.5706 Y65.7948
G01 X80.5460 Y65.6965
G01 X80.5311 Y65.5962
G01 X80.5262 Y65.4950
G01 X80.5262 Y64.8950
G01 X80.5307 Y64.8003
G01 X80.5319 Y64.7873
G01 X80.5460 Y64.6935
G01 X80.5689 Y64.6015
G01 X80.5727 Y64.5890
G01 X80.6024 Y64.5058
G01 X80.6074 Y64.4938
G01 X80.6481 Y64.4081
G01 X80.6985 Y64.3239
G01 X80.7040 Y64.3159
G01 X80.7606 Y64.2398
G01 X80.8242 Y64.1694
G01 X80.8334 Y64.1602
G01 X80.9038 Y64.0966
G01 X80.9799 Y64.0400
G01 X80.9907 Y64.0327
G01 X81.0721 Y63.9841
G01 X81.1638 Y63.9408
G01 X81.2530 Y63.9087
G01 X81.2655 Y63.9049
G01 X81.3575 Y63.8820
G01 X81.4513 Y63.8679
G01 X81.4643 Y63.8667
G01 X81.5525 Y63.8623
G00 Z2.0000
G00 X81.9590 Y58.3422
G01 F60.00
G01 Z-0.2000
G01 F160.00
G01 X82.0439 Y58.3462
G01 X82.0569 Y58.3475
G01 X82.1410 Y58.3601
G01 X82.2298 Y58.3823
G01 X82.3099 Y58.4108
G01 X82.3220 Y58.4158
G01 X82.3988 Y58.4523
G01 X82.4773 Y58.4994
G01 X82.5508 Y58.5539
G01 X82.6139 Y58.6109
G01 X82.6231 Y58.6201
G01 X82.6801 Y58.6832
G01 X82.7309 Y58.7514
G01 X82.7381 Y58.7623
G01 X82.7817 Y58.8353
G01 X82.8182 Y58.9121
G01 X82.8232 Y58.9241
G01 X82.8517 Y59.0042
G01 X82.8725 Y59.0867
G01 X82.8751 Y59.0994
G01 X82.8874 Y59.1836
G01 X82.8917 Y59.2685
G01 X82.8917 Y59.2815
G01 X82.8879 Y59.3599
G01 X82.8866 Y59.3729
G01 X82.8739 Y59.4570
G01 X82.8534 Y59.5395
G01 X82.8496 Y59.5520
G01 X82.8209 Y59.6320
G01 X82.7817 Y59.7148
G01 X82.7381 Y59.7878
G01 X82.7309 Y59.7986
G01 X82.6841 Y59.8617
G01 X82.6780 Y59.8693
G01 X82.6186 Y59.9346
G01 X82.5508 Y59.9961
G01 X82.4773 Y60.0506
G01 X82.3988 Y60.0977
G01 X82.3160 Y60.1369
G01 X82.2298 Y60.1677
G01 X82.1410 Y60.1899
G01 X82.0569 Y60.2026
G01 X82.0439 Y60.2039
G01 X81.9590 Y60.2079
G01 X81.1590 Y60.2079
G01 X81.0741 Y60.2039
G01 X81.0611 Y60.2026
G01 X80.9770 Y60.1899
G01 X80.8945 Y60.1694
G01 X80.8820 Y60.1656
G01 X80.8020 Y60.1369
G01 X80.7193 Y60.0977
G01 X80.6463 Y60.0541
G01 X80.6354 Y60.0469
G01 X80.5724 Y60.0001
G01 X80.5647 Y59.9940
G01 X80.4994 Y59.9346
G01 X80.4379 Y59.8668
G01 X80.3834 Y59.7933
G01 X80.3363 Y59.7148
G01 X80.2972 Y59.6320
G01 X80.2663 Y59.5458
G01 X80.2441 Y59.4570
G01 X80.2307 Y59.3664
G01 X80.2262 Y59.2750
G01 X80.2307 Y59.1836
G01 X80.2441 Y59.0930
G01 X80.2663 Y59.0042
G01 X80.2972 Y58.9180
G01 X80.3363 Y58.8353
G01 X80.3834 Y58.7567
G01 X80.4339 Y58.6884
G01 X80.4400 Y58.6807
G01 X80.4994 Y58.6154
G01 X80.5623 Y58.5582
G01 X80.5724 Y58.5499
G01 X80.6354 Y58.5031
G01 X80.6463 Y58.4959
G01 X80.7193 Y58.4523
G01 X80.8020 Y58.4132
G01 X80.8882 Y58.3823
G01 X80.9738 Y58.3608
G01 X80.9834 Y58.3590
G01 X81.0676 Y58.3467
G01 X81.1558 Y58.3422
G01 X81.9590 Y58.3422
G00 Z2.0000
G00 X81.9590 Y55.8022
G01 F60.00
G01 Z-0.2000
G01 F160.00
G01 X82.0439 Y55.8062
G01 X82.0569 Y55.8075
G01 X82.1410 Y55.8201
G01 X82.2298 Y55.8423
G01 X82.3099 Y55.8708
G01 X82.3220 Y55.8758
G01 X82.3988 Y55.9123
G01 X82.4773 Y55.9594
G01 X82.5508 Y56.0139
G01 X82.6139 Y56.0709
G01 X82.6231 Y56.0801
G01 X82.6801 Y56.1432
G01 X82.7309 Y56.2114
G01 X82.7381 Y56.2223
G01 X82.7817 Y56.2953
G01 X82.8182 Y56.3721
G01 X82.8232 Y56.3841
G01 X82.8517 Y56.4642
G01 X82.8725 Y56.5467
G01 X82.8751 Y56.5594
G01 X82.8874 Y56.6436
G01 X82.8917 Y56.7285
G01 X82.8917 Y56.7415
G01 X82.8879 Y56.8199
G01 X82.8866 Y56.8329
G01 X82.8739 Y56.9170
G01 X82.8534 Y56.9995
G01 X82.8496 Y57.0120
G01 X82.8209 Y57.0920
G01 X82.7817 Y57.1748
G01 X82.7381 Y57.2478
G01 X82.7309 Y57.2586
G01 X82.6841 Y57.3217
G01 X82.6780 Y57.3293
G01 X82.6186 Y57.3946
G01 X82.5508 Y57.4561
G01 X82.4773 Y57.5106
G01 X82.3988 Y57.5577
G01 X82.3160 Y57.5969
G01 X82.2298 Y57.6277
G01 X82.1410 Y57.6499
G01 X82.0569 Y57.6626
G01 X82.0439 Y57.6639
G01 X81.9590 Y57.6679
G01 X81.1590 Y57.6679
G01 X81.0741 Y57.6639
G01 X81.0611 Y57.6626
G01 X80.9770 Y57.6499
G01 X80.8945 Y57.6294
G01 X80.8820 Y57.6256
G01 X80.8020 Y57.5969
G01 X80.7193 Y57.5577
G01 X80.6463 Y57.5141
G01 X80.6354 Y57.5069
G01 X80.5724 Y57.4601
G01 X80.5647 Y57.4540
G01 X80.4994 Y57.3946
G01 X80.4379 Y57.3268
G01 X80.3834 Y57.2533
G01 X80.3363 Y57.1748
G01 X80.2972 Y57.0920
G01 X80.2663 Y57.0058
G01 X80.2441 Y56.9170
G01 X80.2307 Y56.8264
G01 X80.2262 Y56.7350
G01 X80.2307 Y56.6436
G01 X80.2441 Y56.5530
G01 X80.2663 Y56.4642
G01 X80.2972 Y56.3780
G01 X80.3363 Y56.2953
G01 X80.3834 Y56.2167
G01 X80.4339 Y56.1484
G01 X80.4400 Y56.1407
G01 X80.4994 Y56.0754
G01 X80.5623 Y56.0182
G01 X80.5724 Y56.0099
G01 X80.6354 Y55.9631
G01 X80.6463 Y55.9559
G01 X80.7193 Y55.9123
G01 X80.8020 Y55.8732
G01 X80.8882 Y55.8423
G01 X80.9738 Y55.8208
G01 X80.9834 Y55.8190
G01 X81.0676 Y55.8067
G01 X81.1558 Y55.8022
G01 X81.9590 Y55.8022
G00 Z2.0000
G00 X82.8069 Y53.8081
G01 F60.00
G01 Z-0.2000
G01 F160.00
G01 X82.7817 Y53.7553
G01 X82.7364 Y53.6795
G01 X82.7309 Y53.6714
G01 X82.6841 Y53.6084
G01 X82.6780 Y53.6007
G01 X82.6186 Y53.5354
G01 X82.5557 Y53.4782
G01 X82.5457 Y53.4699
G01 X82.4826 Y53.4231
G01 X82.4745 Y53.4176
G01 X82.3988 Y53.3723
G01 X82.3220 Y53.3358
G01 X82.3099 Y53.3308
G01 X82.2298 Y53.3023
G01 X82.1410 Y53.2801
G01 X82.0569 Y53.2675
G01 X82.0439 Y53.2662
G01 X81.9655 Y53.2623
G01 X81.9460 Y53.2622
G01 X81.9460 Y53.0200
G01 X81.9907 Y53.0200
G01 X82.2292 Y53.0521
G01 X82.4470 Y53.1268
G01 X82.6460 Y53.2425
G01 X82.8186 Y53.3948
G01 X82.9582 Y53.5779
G01 X83.0603 Y53.7866
G01 X83.0663 Y53.8081
G01 X82.8069 Y53.8081
G00 Z2.0000
G00 X80.0517 Y53.8081
G01 F60.00
G01 Z-0.2000
G01 F160.00
G01 X80.0577 Y53.7866
G01 X80.1598 Y53.5779
G01 X80.2994 Y53.3948
G01 X80.4720 Y53.2425
G01 X80.6710 Y53.1268
G01 X80.8888 Y53.0521
G01 X81.1273 Y53.0200
G01 X81.1721 Y53.0200
G01 X81.1721 Y53.2622
G01 X81.1525 Y53.2623
G01 X81.0741 Y53.2662
G01 X81.0611 Y53.2675
G01 X80.9770 Y53.2801
G01 X80.8882 Y53.3023
G01 X80.8081 Y53.3308
G01 X80.7961 Y53.3358
G01 X80.7193 Y53.3723
G01 X80.6435 Y53.4176
G01 X80.6354 Y53.4231
G01 X80.5724 Y53.4699
G01 X80.5623 Y53.4782
G01 X80.4994 Y53.5354
G01 X80.4400 Y53.6007
G01 X80.4339 Y53.6084
G01 X80.3871 Y53.6714
G01 X80.3816 Y53.6795
G01 X80.3363 Y53.7553
G01 X80.3112 Y53.8081
G01 X80.0517 Y53.8081
G00 Z2.0000
G00 X80.0517 Y54.5820
G01 F60.00
G01 Z-0.2000
G01 F160.00
G01 X80.3112 Y54.5820
G01 X80.3363 Y54.6348
G01 X80.3816 Y54.7105
G01 X80.3871 Y54.7186
G01 X80.4339 Y54.7817
G01 X80.4400 Y54.7893
G01 X80.4994 Y54.8546
G01 X80.5623 Y54.9119
G01 X80.5724 Y54.9201
G01 X80.6354 Y54.9669
G01 X80.6435 Y54.9724
G01 X80.7193 Y55.0177
G01 X80.7961 Y55.0542
G01 X80.8081 Y55.0592
G01 X80.8882 Y55.0877
G01 X80.9770 Y55.1099
G01 X81.0611 Y55.1226
G01 X81.0741 Y55.1239
G01 X81.1590 Y55.1279
G01 X81.9623 Y55.1278
G01 X82.0439 Y55.1239
G01 X82.0569 Y55.1226
G01 X82.1410 Y55.1099
G01 X82.2267 Y55.0886
G01 X82.2360 Y55.0856
G01 X82.3160 Y55.0569
G01 X82.3988 Y55.0177
G01 X82.4773 Y54.9706
G01 X82.5457 Y54.9201
G01 X82.5533 Y54.9140
G01 X82.6186 Y54.8546
G01 X82.6759 Y54.7917
G01 X82.6822 Y54.7843
G01 X82.7309 Y54.7186
G01 X82.7364 Y54.7105
G01 X82.7817 Y54.6348
G01 X82.8069 Y54.5820
G01 X83.0663 Y54.5820
G01 X83.0603 Y54.6035
G01 X82.9582 Y54.8121
G01 X82.8186 Y54.9952
G01 X82.6460 Y55.1475
G01 X82.6017 Y55.1734
G01 X82.5827 Y55.1856
G01 X82.5749 Y55.1911
G01 X82.5547 Y55.2071
G01 X82.5476 Y55.2135
G01 X82.5292 Y55.2315
G01 X82.5124 Y55.2510
G01 X82.5045 Y55.2611
G01 X82.4899 Y55.2823
G01 X82.4741 Y55.3103
G01 X82.4611 Y55.3397
G01 X82.4529 Y55.3640
G01 X82.4502 Y55.3733
G01 X82.4452 Y55.3952
G01 X82.4429 Y55.4078
G01 X82.4398 Y55.4334
G01 X82.4389 Y55.4655
G01 X82.4410 Y55.4976
G01 X82.4450 Y55.5230
G01 X82.4477 Y55.5355
G01 X82.4544 Y55.5603
G01 X82.4656 Y55.5904
G01 X82.4767 Y55.6136
G01 X82.4813 Y55.6221
G01 X82.4930 Y55.6414
G01 X82.5002 Y55.6520
G01 X82.5158 Y55.6724
G01 X82.5330 Y55.6915
G01 X82.5398 Y55.6983
G01 X82.5589 Y55.7155
G01 X82.5665 Y55.7215
G01 X82.5872 Y55.7367
G01 X82.6150 Y55.7533
G01 X82.7939 Y55.9001
G01 X82.9408 Y56.0790
G01 X83.0499 Y56.2832
G01 X83.1171 Y56.5047
G01 X83.1397 Y56.7350
G01 X83.1171 Y56.9654
G01 X83.0499 Y57.1869
G01 X82.9408 Y57.3910
G01 X82.7939 Y57.5699
G01 X82.6129 Y57.7185
G01 X82.5943 Y57.7300
G01 X82.5708 Y57.7476
G01 X82.5466 Y57.7696
G01 X82.5246 Y57.7938
G01 X82.5052 Y57.8200
G01 X82.4884 Y57.8481
G01 X82.4744 Y57.8776
G01 X82.4654 Y57.9022
G01 X82.4617 Y57.9146
G01 X82.4561 Y57.9369
G01 X82.4543 Y57.9465
G01 X82.4507 Y57.9724
G01 X82.4491 Y58.0050
G01 X82.4507 Y58.0376
G01 X82.4543 Y58.0635
G01 X82.4569 Y58.0763
G01 X82.4634 Y58.1017
G01 X82.4744 Y58.1324
G01 X82.4854 Y58.1561
G01 X82.4899 Y58.1648
G01 X82.5017 Y58.1845
G01 X82.5089 Y58.1953
G01 X82.5246 Y58.2162
G01 X82.5421 Y58.2357
G01 X82.5489 Y58.2427
G01 X82.5683 Y58.2603
G01 X82.5759 Y58.2664
G01 X82.5943 Y58.2800
G01 X82.6129 Y58.2915
G01 X82.7939 Y58.4401
G01 X82.9408 Y58.6190
G01 X83.0499 Y58.8232
G01 X83.1171 Y59.0447
G01 X83.1397 Y59.2750
G01 X83.1171 Y59.5054
G01 X83.0499 Y59.7269
G01 X82.9408 Y59.9310
G01 X82.7939 Y60.1099
G01 X82.6150 Y60.2568
G01 X82.4109 Y60.3659
G01 X82.1894 Y60.4331
G01 X82.0167 Y60.4501
G01 X81.1013 Y60.4501
G01 X80.9287 Y60.4331
G01 X80.7072 Y60.3659
G01 X80.5030 Y60.2568
G01 X80.3241 Y60.1099
G01 X80.1773 Y59.9310
G01 X80.0682 Y59.7269
G01 X80.0010 Y59.5054
G01 X79.9783 Y59.2750
G01 X80.0010 Y59.0447
G01 X80.0682 Y58.8232
G01 X80.1773 Y58.6190
G01 X80.3241 Y58.4401
G01 X80.5051 Y58.2915
G01 X80.5237 Y58.2800
G01 X80.5421 Y58.2664
G01 X80.5497 Y58.2603
G01 X80.5691 Y58.2427
G01 X80.5759 Y58.2357
G01 X80.5934 Y58.2162
G01 X80.6091 Y58.1953
G01 X80.6146 Y58.1873
G01 X80.6264 Y58.1676
G01 X80.6326 Y58.1561
G01 X80.6436 Y58.1324
G01 X80.6546 Y58.1017
G01 X80.6626 Y58.0700
G01 X80.6666 Y58.0441
G01 X80.6678 Y58.0311
G01 X80.6689 Y58.0018
G01 X80.6674 Y57.9724
G01 X80.6637 Y57.9465
G01 X80.6611 Y57.9337
G01 X80.6536 Y57.9053
G01 X80.6436 Y57.8776
G01 X80.6311 Y57.8510
G01 X80.6163 Y57.8255
